luts/Kodak_gold200.cube
TITLE "Panasonic S9 Standard to Kodak Gold 200 (Warm Golden) v2"
#LUMIXPHOTOSTYLE STD
# Film Emulation LUT
# Generated by lutex.py
# Grid: 33^3
LUT_3D_SIZE 5
DOMAIN_MIN 0.0 0.0 0.0
DOMAIN_MAX 1.0 1.0 1.0
0.05817493 0.05515139 0.04480413
0.29486116 0.11609308 0.00000000
0.53382616 0.22644164 0.00000000
0.78221000 0.34319018 0.00000000
1.00000000 0.50473144 0.27474722
0.01545797 0.28685413 0.00000000
0.29455583 0.28594572 0.00000000
0.53325097 0.35336817 0.00000000
0.78136931 0.43120422 0.00000000
1.00000000 0.55528361 0.26886996
0.01323897 0.51976636 0.00000000
0.28265441 0.51971295 0.00000000
0.53162329 0.51918769 0.00000000
0.77899016 0.60358680 0.00000000
1.00000000 0.67523631 0.25141745
0.01114318 0.76186380 0.00000000
0.27804963 0.76178293 0.00000000
0.52434481 0.76155463 0.00000000
0.77451167 0.76094456 0.00000000
1.00000000 0.85141833 0.26172372
0.11921090 1.00000000 0.11340156
0.30365538 1.00000000 0.11616697
0.53686914 1.00000000 0.12365336
0.78450900 1.00000000 0.13659367
1.00000000 0.97167849 0.34381880
0.00000000 0.00000000 0.00000000
0.29526385 0.00793051 0.26360870
0.53457335 0.00000000 0.25262754
0.78260155 0.23354718 0.00000000
1.00000000 0.45255024 0.27582707
0.01436901 0.28674897 0.26455048
0.28862883 0.27976976 0.25709766
0.54077739 0.32836545 0.23058323
0.79763187 0.39479686 0.16899176
1.00000000 0.55199341 0.36638159
0.00000000 0.52076671 0.25422085
0.26583947 0.52665327 0.23412087
0.53899690 0.52574950 0.23279826
0.78658449 0.59585706 0.21936252
1.00000000 0.67159311 0.35556465
0.00000000 0.76237089 0.25454230
0.21482337 0.77737002 0.18135523
0.51747304 0.77711849 0.18218982
0.79052400 0.77589406 0.17899806
1.00000000 0.84815190 0.36299575
0.12019514 1.00000000 0.27715837
0.30583415 1.00000000 0.27987111
0.53790961 1.00000000 0.28205834
0.78501331 1.00000000 0.28609938
1.00000000 0.97186086 0.41822937
0.00000000 0.15550566 0.39059245
0.14749357 0.00000000 0.39097782
0.53440773 0.00000000 0.49111491
0.78236377 0.00000000 0.48800946
1.00000000 0.27419585 0.52855477
0.00000000 0.26940590 0.39225870
0.22422238 0.26196897 0.41724550
0.54010363 0.25404143 0.49562749
0.79709919 0.19916336 0.47543370
1.00000000 0.40410697 0.37679763
0.00000000 0.52070893 0.49452152
0.26414470 0.52591005 0.49842636
0.52982450 0.52298623 0.48936724
0.78942772 0.56229817 0.46888827
1.00000000 0.66276098 0.54360936
0.00000000 0.76229025 0.49454293
0.21305397 0.77695153 0.48384948
0.50758400 0.77133085 0.47488166
0.78543936 0.77031436 0.47402383
1.00000000 0.83980526 0.54820983
0.12273749 1.00000000 0.49337077
0.30742191 1.00000000 0.49428141
0.54167435 1.00000000 0.49723873
0.78677734 1.00000000 0.49706488
1.00000000 0.97259504 0.57371572
0.00000000 0.28926938 0.67229576
0.00000000 0.12831802 0.67276205
0.52965978 0.00000000 0.73003247
0.78190950 0.00000000 0.73143939
1.00000000 0.27104953 0.73502913
0.00000000 0.37913794 0.67404716
0.22788945 0.35516483 0.68629678
0.52494389 0.21400065 0.74534108
0.79663149 0.19921200 0.74472747
1.00000000 0.37461227 0.73826727
0.00000000 0.54834299 0.67842704
0.23528925 0.54535354 0.69089018
0.47993155 0.51389740 0.70040283
0.78820568 0.49382778 0.74280083
1.00000000 0.55962324 0.74759548
0.00000000 0.76213626 0.74091927
0.21281991 0.77679944 0.75453091
0.50555724 0.77020333 0.74923275
0.77473176 0.76558794 0.73734914
1.00000000 0.83323289 0.76833727
0.12745513 1.00000000 0.72409843
0.30950458 1.00000000 0.72378916
0.54434935 1.00000000 0.72371103
0.79237943 1.00000000 0.72590695
1.00000000 0.97541597 0.77308594
0.00000000 0.41055132 0.92786967
0.00000000 0.31930890 0.92844771
0.30931823 0.00000000 0.93007656
0.77913475 0.00000000 0.97065539
1.00000000 0.26617052 0.95372113
0.00000000 0.47936267 0.92993033
0.19894183 0.44886442 0.94289127
0.28517068 0.19851823 0.94453001
0.78267842 0.10511181 0.99402016
1.00000000 0.37125113 0.95654985
0.00000000 0.62653320 0.93537314
0.20149008 0.61461536 0.94930546
0.39524682 0.54163729 0.98143596
0.77349261 0.46765231 0.99494395
1.00000000 0.55748847 0.96447169
0.00000000 0.82054632 0.94544880
0.12271633 0.82647777 0.96789236
0.40376702 0.81335666 0.99140592
0.70206350 0.73826103 0.97924700
1.00000000 0.79826168 0.95369937
0.13433356 1.00000000 0.95260774
0.31264727 1.00000000 0.95141891
0.54659744 1.00000000 0.94821836
0.79811514 1.00000000 0.94375067
1.00000000 0.99735195 0.98508263
