luts/Kodak_5207.cube
TITLE "Panasonic S9 Standard to Kodak Vision3 250D (5207)"
#LUMIXPHOTOSTYLE STD
# Film Emulation LUT
# Generated by lutex.py
# Grid: 33^3
LUT_3D_SIZE 33
DOMAIN_MIN 0.0 0.0 0.0
DOMAIN_MAX 1.0 1.0 1.0
0.04744154 0.04829062 0.04489573
0.05839746 0.04839971 0.04500986
0.09225293 0.04887177 0.04550362
0.12410637 0.04947540 0.04613462
0.15487232 0.05021394 0.04690610
0.18476481 0.05108340 0.04781359
0.21393130 0.05207932 0.04885208
0.24247901 0.05319675 0.05001609
0.27048913 0.05443044 0.05129979
0.29802511 0.05577490 0.05269711
0.32513780 0.05722448 0.05420187
0.35186877 0.05877344 0.05580781
0.37825262 0.06041607 0.05750874
0.40812023 0.06240788 0.05956844
0.43884164 0.06459780 0.06182968
0.46952464 0.06692172 0.06422573
0.50017149 0.06937280 0.06674919
0.53078422 0.07194409 0.06939259
0.56136463 0.07462864 0.07214855
0.59191437 0.07741958 0.07500986
0.62243490 0.08031023 0.07796952
0.65292758 0.08329413 0.08102083
0.68339364 0.08636512 0.08415744
0.71383420 0.08951729 0.08737330
0.74425030 0.09274510 0.09066277
0.77464290 0.09604329 0.09402052
0.80501288 0.09940695 0.09744160
0.83536107 0.10283148 0.10092142
0.85933044 0.10557812 0.10371024
0.88334599 0.10836500 0.10653807
0.91395174 0.11196437 0.11018777
0.94880559 0.11612421 0.11440242
0.98680028 0.12072718 0.11906220
0.04756302 0.05934902 0.04502095
0.05840712 0.05934902 0.04502077
0.09225292 0.05974980 0.04550300
0.12410636 0.06027532 0.04613402
0.15487231 0.06091951 0.04690550
0.18476481 0.06167958 0.04781300
0.21393130 0.06255237 0.04885150
0.24247901 0.06353438 0.05001552
0.27048913 0.06462181 0.05129922
0.29802511 0.06581063 0.05269656
0.32513780 0.06709666 0.05420132
0.35186877 0.06847557 0.05580728
0.37825262 0.06994300 0.05750822
0.40812023 0.07172914 0.05956793
0.43884164 0.07370116 0.06182919
0.46952464 0.07580278 0.06422525
0.50017149 0.07802885 0.06674872
0.53078422 0.08037394 0.06939214
0.56136463 0.08283249 0.07214811
0.59191437 0.08539885 0.07500943
0.62243490 0.08806736 0.07796910
0.65292758 0.09083248 0.08102043
0.68339364 0.09368873 0.08415705
0.71383420 0.09663082 0.08737293
0.74425030 0.09965366 0.09066240
0.77464290 0.10275236 0.09402017
0.80501288 0.10592224 0.09744126
0.83536107 0.10915888 0.10092108
0.85933044 0.11176126 0.10370992
0.88334599 0.11440729 0.10653776
0.91395174 0.11783253 0.11018747
0.94880559 0.12180135 0.11440213
0.98680028 0.12620480 0.11906192
0.04805014 0.09349282 0.04552296
0.05883061 0.09349282 0.04552278
0.09226551 0.09349281 0.04552205
0.12410635 0.09384726 0.04613158
0.15487231 0.09429847 0.04690309
0.18476480 0.09483291 0.04781062
0.21393129 0.09544933 0.04884915
0.24247900 0.09614631 0.05001320
0.27048912 0.09692229 0.05129695
0.29802511 0.09777557 0.05269432
0.32513779 0.09870433 0.05419913
0.35186876 0.09970665 0.05580513
0.37825261 0.10078053 0.05750612
0.40812023 0.10209745 0.05956588
0.43884164 0.10356362 0.06182719
0.46952463 0.10513984 0.06422331
0.50017149 0.10682432 0.06674684
0.53078421 0.10861496 0.06939031
0.56136463 0.11050933 0.07214634
0.59191437 0.11250477 0.07500772
0.62243490 0.11459843 0.07796744
0.65292758 0.11678728 0.08101882
0.68339364 0.11906820 0.08415549
0.71383420 0.12143795 0.08737142
0.74425030 0.12389325 0.09066094
0.77464290 0.12643082 0.09401875
0.80501288 0.12904735 0.09743989
0.83536107 0.13173957 0.10091975
0.85933044 0.13391866 0.10370862
0.88334598 0.13614695 0.10653649
0.91395173 0.13904964 0.11018624
0.94880559 0.14243744 0.11440095
0.98680028 0.14622530 0.11906078
0.04867286 0.12561669 0.04616443
0.05937284 0.12561669 0.04616425
0.09264418 0.12561668 0.04616352
0.12412168 0.12561668 0.04616259
0.15487229 0.12594598 0.04689998
0.18476479 0.12635468 0.04780755
0.21393128 0.12682701 0.04884612
0.24247899 0.12736226 0.05001022
0.27048912 0.12795966 0.05129402
0.29802510 0.12861834 0.05269145
0.32513779 0.12933738 0.05419631
0.35186876 0.13011579 0.05580237
0.37825261 0.13095250 0.05750341
0.40812023 0.13198242 0.05956324
0.43884163 0.13313391 0.06182463
0.46952463 0.13437744 0.06422082
0.50017148 0.13571268 0.06674442
0.53078421 0.13713901 0.06938796
0.56136463 0.13865561 0.07214406
0.59191436 0.14026140 0.07500551
0.62243490 0.14195511 0.07796530
0.65292758 0.14373529 0.08101675
0.68339364 0.14560033 0.08415348
0.71383420 0.14754849 0.08736947
0.74425030 0.14957792 0.09065906
0.77464290 0.15168664 0.09401692
0.80501288 0.15387262 0.09743812
0.83536107 0.15613376 0.10091804
0.85933044 0.15797250 0.10370695
0.88334598 0.15986046 0.10653486
0.91395173 0.16233110 0.11018466
0.94880559 0.16523023 0.11439942
0.98680028 0.16849078 0.11905931
0.04943447 0.15664344 0.04694857
0.06003732 0.15664344 0.04694839
0.09310981 0.15664344 0.04694768
0.12447722 0.15664344 0.04694675
0.15489028 0.15664343 0.04694561
0.18476478 0.15695404 0.04780376
0.21393127 0.15733396 0.04884239
0.24247898 0.15776501 0.05000654
0.27048911 0.15824676 0.05129040
0.29802510 0.15877871 0.05268790
0.32513778 0.15936034 0.05419283
0.35186875 0.15999109 0.05579896
0.37825260 0.16067033 0.05750007
0.40812022 0.16150816 0.05955998
0.43884163 0.16244718 0.06182146
0.46952463 0.16346390 0.06421774
0.50017148 0.16455862 0.06674143
0.53078421 0.16573144 0.06938506
0.56136462 0.16698226 0.07214125
0.59191436 0.16831083 0.07500278
0.62243490 0.16971671 0.07796266
0.65292758 0.17119933 0.08101419
0.68339363 0.17275795 0.08415100
0.71383419 0.17439174 0.08736707
0.74425029 0.17609972 0.09065673
0.77464289 0.17788083 0.09401467
0.80501288 0.17973389 0.09743594
0.83536107 0.18165765 0.10091593
0.85933043 0.18322715 0.10370488
0.88334598 0.18484333 0.10653285
0.91395173 0.18696526 0.11018271
0.94880559 0.18946501 0.11439754
0.98680028 0.19228857 0.11905750
0.05033074 0.18678913 0.04787080
0.06082107 0.18678912 0.04787062
0.09366122 0.18678912 0.04786991
0.12489901 0.18678912 0.04786900
0.15522923 0.18678912 0.04786787
0.18478533 0.18678911 0.04786654
0.21393126 0.18708488 0.04883794
0.24247897 0.18744377 0.05000216
0.27048910 0.18784520 0.05128610
0.29802509 0.18828886 0.05268367
0.32513777 0.18877443 0.05418868
0.35186875 0.18930154 0.05579490
0.37825260 0.18986983 0.05749609
0.40812022 0.19057172 0.05955611
0.43884162 0.19135954 0.06181769
0.46952462 0.19221395 0.06421407
0.50017148 0.19313551 0.06673787
0.53078420 0.19412462 0.06938160
0.56136462 0.19518158 0.07213790
0.59191436 0.19630650 0.07499953
0.62243489 0.19749941 0.07795951
0.65292757 0.19876019 0.08101114
0.68339363 0.20008862 0.08414805
0.71383419 0.20148437 0.08736421
0.74425029 0.20294700 0.09065396
0.77464289 0.20447600 0.09401199
0.80501287 0.20607073 0.09743334
0.83536107 0.20773052 0.10091341
0.85933043 0.20908778 0.10370243
0.88334598 0.21048826 0.10653045
0.91395173 0.21233134 0.11018039
0.94880558 0.21450876 0.11439529
0.98680027 0.21697607 0.11905534
0.05135687 0.21620253 0.04892593
0.06172072 0.21620253 0.04892575
0.09429707 0.21620253 0.04892505
0.12538640 0.21620252 0.04892416
0.15562133 0.21620252 0.04892305
0.18511160 0.21620252 0.04892173
0.21395432 0.21620251 0.04892019
0.24247896 0.21648595 0.04999709
0.27048909 0.21682867 0.05128111
0.29802508 0.21720766 0.05267877
0.32513777 0.21762271 0.05418388
0.35186874 0.21807359 0.05579019
0.37825259 0.21856004 0.05749148
0.40812021 0.21916136 0.05955161
0.43884162 0.21983697 0.06181331
0.46952462 0.22057047 0.06420982
0.50017147 0.22136253 0.06673374
0.53078420 0.22221370 0.06937760
0.56136462 0.22312443 0.07213402
0.59191435 0.22409505 0.07499577
0.62243489 0.22512581 0.07795586
0.65292757 0.22621686 0.08100760
0.68339363 0.22736824 0.08414462
0.71383419 0.22857993 0.08736089
0.74425029 0.22985181 0.09065075
0.77464289 0.23118367 0.09400888
0.80501287 0.23257527 0.09743033
0.83536106 0.23402624 0.10091049
0.85933043 0.23521470 0.10369958
0.88334598 0.23644282 0.10652767
0.91395173 0.23806185 0.11017770
0.94880558 0.23997855 0.11439270
0.98680027 0.24215555 0.11905284
0.05250761 0.24499183 0.05010832
0.06273253 0.24499183 0.05010815
0.09501586 0.24499183 0.05010746
0.12593862 0.24499183 0.05010657
0.15606616 0.24499183 0.05010548
0.18548201 0.24499182 0.05010418
0.21427042 0.24499182 0.05010267
0.24250448 0.24499182 0.05010096
0.27048908 0.24526468 0.05127543
0.29802507 0.24559446 0.05267319
0.32513776 0.24595578 0.05417841
0.35186873 0.24634847 0.05578483
0.37825258 0.24677235 0.05748624
0.40812020 0.24729664 0.05954650
0.43884161 0.24788609 0.06180834
0.46952461 0.24852654 0.06420499
0.50017146 0.24921867 0.06672904
0.53078420 0.24996310 0.06937304
0.56136461 0.25076033 0.07212960
0.59191435 0.25161082 0.07499148
0.62243489 0.25251492 0.07795171
0.65292757 0.25347291 0.08100358
0.68339362 0.25448500 0.08414073
0.71383418 0.25555134 0.08735712
0.74425029 0.25667198 0.09064710
0.77464288 0.25784695 0.09400534
0.80501287 0.25907618 0.09742690
0.83536106 0.26035956 0.10090717
0.85933043 0.26141201 0.10369634
0.88334597 0.26250078 0.10652451
0.91395173 0.26393792 0.11017463
0.94880558 0.26564193 0.11438974
0.98680027 0.26758076 0.11904999
0.05377739 0.27323895 0.05141197
0.06385244 0.27323895 0.05141181
0.09581590 0.27323894 0.05141113
0.12655486 0.27323894 0.05141026
0.15656323 0.27323894 0.05140919
0.18589628 0.27323894 0.05140791
0.21462415 0.27323893 0.05140643
0.24281217 0.27323893 0.05140474
0.27051700 0.27323893 0.05140285
0.29802506 0.27350250 0.05266694
0.32513775 0.27382164 0.05417228
0.35186872 0.27416860 0.05577882
0.37825257 0.27454327 0.05748036
0.40812019 0.27500686 0.05954077
0.43884160 0.27552835 0.06180276
0.46952460 0.27609524 0.06419957
0.50017146 0.27670824 0.06672378
0.53078419 0.27736796 0.06936793
0.56136461 0.27807495 0.07212464
0.59191434 0.27882970 0.07498668
0.62243488 0.27963261 0.07794706
0.65292756 0.28048405 0.08099908
0.68339362 0.28138430 0.08413636
0.71383418 0.28233361 0.08735289
0.74425028 0.28333216 0.09064300
0.77464288 0.28438008 0.09400137
0.80501287 0.28547743 0.09742306
0.83536106 0.28662426 0.10090345
0.85933042 0.28756558 0.10369271
0.88334597 0.28854019 0.10652097
0.91395172 0.28982787 0.11017120
0.94880558 0.29135647 0.11438642
0.98680027 0.29309805 0.11904680
0.05516037 0.30100787 0.05283067
0.06507618 0.30100787 0.05283050
0.09669539 0.30100787 0.05282984
0.12723418 0.30100786 0.05282899
0.15711204 0.30100786 0.05282793
0.18635409 0.30100786 0.05282668
0.21501528 0.30100786 0.05282522
0.24315255 0.30100785 0.05282357
0.27081757 0.30100785 0.05282172
0.29805535 0.30100785 0.05281966
0.32513773 0.30126312 0.05416549
0.35186871 0.30157329 0.05577217
0.37825256 0.30190832 0.05747384
0.40812018 0.30232300 0.05953442
0.43884159 0.30278962 0.06179658
0.46952460 0.30329709 0.06419356
0.50017145 0.30384606 0.06671795
0.53078418 0.30443715 0.06936227
0.56136460 0.30507090 0.07211915
0.58258665 0.31681152 0.13892960
0.61265533 0.31985800 0.14634896
0.65292756 0.30723283 0.08099408
0.68339362 0.30804166 0.08413153
0.71383418 0.30889512 0.08734821
0.74425028 0.30979345 0.09063846
0.77464288 0.31073685 0.09399698
0.80501286 0.31172548 0.09741880
0.83536105 0.31275946 0.10089932
0.85933042 0.31360875 0.10368869
0.88334597 0.31448861 0.10651705
0.91395172 0.31565198 0.11016739
0.94880557 0.31703427 0.11438275
0.98680026 0.31861079 0.11904326
0.05665059 0.32834988 0.05435803
0.06639931 0.32834988 0.05435787
0.09765238 0.32834988 0.05435722
0.12797561 0.32834988 0.05435639
0.15771202 0.32834988 0.05435535
0.18685509 0.32834987 0.05435412
0.21544359 0.32834987 0.05435270
0.24352545 0.32834987 0.05435107
0.27114696 0.32834987 0.05434926
0.29834976 0.32834986 0.05434724
0.32517036 0.32834986 0.05434503
0.35186870 0.32859759 0.05576486
0.37825255 0.32890008 0.05746669
0.40812017 0.32927457 0.05952745
0.43884159 0.32969609 0.06178980
0.46952459 0.33015465 0.06418697
0.50017144 0.33065087 0.06671154
0.53078418 0.33118535 0.06935606
0.56136459 0.33175862 0.07211313
0.58258662 0.34070046 0.13892638
0.61265530 0.34349481 0.14634591
0.64269724 0.34643849 0.15384213
0.67271353 0.34952965 0.16140560
0.71383417 0.33522259 0.08734307
0.74425027 0.33603745 0.09063348
0.77464287 0.33689365 0.09399215
0.80501286 0.33779141 0.09741413
0.83536105 0.33873090 0.10089479
0.85933042 0.33950299 0.10368427
0.88334596 0.34030328 0.10651274
0.91395172 0.34136204 0.11016322
0.94880557 0.34262094 0.11437872
0.98680026 0.34405791 0.11903938
0.05824199 0.35530693 0.05598767
0.06781726 0.35530693 0.05598751
0.09868483 0.35530693 0.05598688
0.12877807 0.35530693 0.05598606
0.15836255 0.35530692 0.05598505
0.18739890 0.35530692 0.05598384
0.21590883 0.35530692 0.05598244
0.24393070 0.35530692 0.05598086
0.27150505 0.35530692 0.05597907
0.29866990 0.35530691 0.05597710
0.32545936 0.35530691 0.05597494
0.35190362 0.35530690 0.05597258
0.37825254 0.35554772 0.05745891
0.40812016 0.35588866 0.05951986
0.43884158 0.35627250 0.06178241
0.46952458 0.35669017 0.06417979
0.50017144 0.35714226 0.06670457
0.53078417 0.35762934 0.06934930
0.56136459 0.35815192 0.07210657
0.58258659 0.36460047 0.13892288
0.61265528 0.36717621 0.14634258
0.64269721 0.36989315 0.15383897
0.67271350 0.37275003 0.16140260
0.70270518 0.37574538 0.16902533
0.74425027 0.36205740 0.09062806
0.77464287 0.36283994 0.09398690
0.80501285 0.36366082 0.09740904
0.83536105 0.36452025 0.10088987
0.85933041 0.36522686 0.10367946
0.88334596 0.36595956 0.10650805
0.91395171 0.36692936 0.11015867
0.94880557 0.36808312 0.11437433
0.98680026 0.36940096 0.11903516
0.05992858 0.38191391 0.05771323
0.06932542 0.38191390 0.05771307
0.09979060 0.38191390 0.05771245
0.12964044 0.38191390 0.05771165
0.15906299 0.38191390 0.05771066
0.18798511 0.38191390 0.05770948
0.21641073 0.38191390 0.05770811
0.24436811 0.38191390 0.05770656
0.27189171 0.38191389 0.05770481
0.29901568 0.38191389 0.05770288
0.32577157 0.38191389 0.05770076
0.35218782 0.38191388 0.05769845
0.37828973 0.38191388 0.05769596
0.40812015 0.38218966 0.05951165
0.43884157 0.38254161 0.06177443
0.46952457 0.38292463 0.06417203
0.50017143 0.38333930 0.06669704
0.53078416 0.38378617 0.06934198
0.56136458 0.38426573 0.07209948
0.58258656 0.38846810 0.13891909
0.61265524 0.39085315 0.14633899
0.64269718 0.39337164 0.15383555
0.67271347 0.39602280 0.16139935
0.70270516 0.39880564 0.16902224
0.73267319 0.40171897 0.17669720
0.76261845 0.40476140 0.18441814
0.80501285 0.38932802 0.09740354
0.83536104 0.39011891 0.10088453
0.85933041 0.39076939 0.10367426
0.88334596 0.39144411 0.10650298
0.91395171 0.39233748 0.11015376
0.94880556 0.39340082 0.11436959
0.98680025 0.39461602 0.11903059
0.06197230 0.41203409 0.05980214
0.07116005 0.41203409 0.05980199
0.10114611 0.41203409 0.05980138
0.13070165 0.41203409 0.05980060
0.15992680 0.41203409 0.05979963
0.18870903 0.41203409 0.05979848
0.21703107 0.41203409 0.05979715
0.24490907 0.41203408 0.05979564
0.27237012 0.41203408 0.05979394
0.29944364 0.41203408 0.05979206
0.32615809 0.41203408 0.05978999
0.35253973 0.41203407 0.05978774
0.37861235 0.41203407 0.05978531
0.40815990 0.41203406 0.05978229
0.43884155 0.41231569 0.06176452
0.46952456 0.41266502 0.06416240
0.50017142 0.41304329 0.06668769
0.53078415 0.41345100 0.06933292
0.56136457 0.41388864 0.07209068
0.58258651 0.41576182 0.13891439
0.61265521 0.41795665 0.14633453
0.64269714 0.42027663 0.15383132
0.67271344 0.42272140 0.16139532
0.70270513 0.42529039 0.16901840
0.73267316 0.42798284 0.17669353
0.76261842 0.43079784 0.18441465
0.79254174 0.43373429 0.19217646
0.82244390 0.43679095 0.19997438
0.85933040 0.41983323 0.10366782
0.88334595 0.42045093 0.10649669
0.91395170 0.42126911 0.11014766
0.94880556 0.42224335 0.11436370
0.98680025 0.42335728 0.11902493
0.06421764 0.44301528 0.06209473
0.07318428 0.44301528 0.06209459
0.10265458 0.44301528 0.06209400
0.13188778 0.44301527 0.06209323
0.16089471 0.44301527 0.06209230
0.18952144 0.44301527 0.06209118
0.21772796 0.44301527 0.06208988
0.24551722 0.44301527 0.06208841
0.27290821 0.44301527 0.06208676
0.29992518 0.44301526 0.06208493
0.32659312 0.44301526 0.06208292
0.35293590 0.44301526 0.06208073
0.37897560 0.44301526 0.06207836
0.40849116 0.44301525 0.06207543
0.43888394 0.44301525 0.06207213
0.46952454 0.44329295 0.06415155
0.50017140 0.44363910 0.06667715
0.53078414 0.44401226 0.06932269
0.56136456 0.44441288 0.07208077
0.58258647 0.44408633 0.13890909
0.61265516 0.44610963 0.14632950
0.64269710 0.44825015 0.15382654
0.67271340 0.45050785 0.16139077
0.70270509 0.45288247 0.16901407
0.73267312 0.45537361 0.17668940
0.76261839 0.45798070 0.18441070
0.79254171 0.46070304 0.19217269
0.82244387 0.46353978 0.19997077
0.84606114 0.46586194 0.20615649
0.86972407 0.46826038 0.21237579
0.91395170 0.45117993 0.11014079
0.94880555 0.45207472 0.11435707
0.98680024 0.45309822 0.11901854
0.06659861 0.47395772 0.06452323
0.07534010 0.47395771 0.06452309
0.10427553 0.47395771 0.06452251
0.13316829 0.47395771 0.06452178
0.16194248 0.47395771 0.06452086
0.19040236 0.47395771 0.06451978
0.21848447 0.47395771 0.06451852
0.24617790 0.47395771 0.06451709
0.27349311 0.47395771 0.06451548
0.30044882 0.47395770 0.06451370
0.32706633 0.47395770 0.06451175
0.35336694 0.47395770 0.06450962
0.37937092 0.47395770 0.06450733
0.40885173 0.47395769 0.06450448
0.43921385 0.47395769 0.06450126
0.46956957 0.47395768 0.06449776
0.50017139 0.47423161 0.06666567
0.53078412 0.47457495 0.06931155
0.56136455 0.47494360 0.07206997
0.59191429 0.47533797 0.07493368
0.61265512 0.47445681 0.14632403
0.64269706 0.47643936 0.15382134
0.67271336 0.47853199 0.16138582
0.70270505 0.48073472 0.16900935
0.73267308 0.48304740 0.17668491
0.76261835 0.48546974 0.18440641
0.79254168 0.48800133 0.19216858
0.82244384 0.49064161 0.19996683
0.84606111 0.49280470 0.20615269
0.86972404 0.49504045 0.21237211
0.89988061 0.49798853 0.22032703
0.93422319 0.50147967 0.22942184
0.98680024 0.48294929 0.11901158
0.06910801 0.50486369 0.06708006
0.07762204 0.50486369 0.06707992
0.10600698 0.50486369 0.06707936
0.13454275 0.50486369 0.06707864
0.16307034 0.50486369 0.06707776
0.19135233 0.50486369 0.06707670
0.21930124 0.50486369 0.06707548
0.24689181 0.50486369 0.06707409
0.27412551 0.50486368 0.06707253
0.30101525 0.50486368 0.06707080
0.32757838 0.50486368 0.06706891
0.35383349 0.50486368 0.06706685
0.37979889 0.50486368 0.06706461
0.40924215 0.50486367 0.06706185
0.43957114 0.50486367 0.06705873
0.46989827 0.50486366 0.06705533
0.50021905 0.50486366 0.06705165
0.53078411 0.50513392 0.06929947
0.56136453 0.50547475 0.07205825
0.59191428 0.50583940 0.07492233
0.62243482 0.50622822 0.07788471
0.64269701 0.50480353 0.15381570
0.67271331 0.50674987 0.16138046
0.70270501 0.50879995 0.16900424
0.73267304 0.51095383 0.17668003
0.76261831 0.51321142 0.18440175
0.79254164 0.51557255 0.19216413
0.82244380 0.51803689 0.19996257
0.84606108 0.52005722 0.20614856
0.86972401 0.52214671 0.21236812
0.89988058 0.52490390 0.22032320
0.93422316 0.52817187 0.22941818
0.97166076 0.53188857 0.23937165
0.07173857 0.53573525 0.06975759
0.08002439 0.53573525 0.06975746
0.10784663 0.53573525 0.06975692
0.13601047 0.53573525 0.06975622
0.16427833 0.53573525 0.06975536
0.19237174 0.53573525 0.06975434
0.22017883 0.53573525 0.06975315
0.24765955 0.53573525 0.06975181
0.27480604 0.53573524 0.06975029
0.30162508 0.53573524 0.06974862
0.32812987 0.53573524 0.06974678
0.35433612 0.53573524 0.06974478
0.38026006 0.53573523 0.06974261
0.40966293 0.53573523 0.06973993
0.43995629 0.53573523 0.06973691
0.47025265 0.53573522 0.06973361
0.50054666 0.53573522 0.06973004
0.53083440 0.53573522 0.06972618
0.56136452 0.53600192 0.07204561
0.59191426 0.53634049 0.07491008
0.62243480 0.53670154 0.07787283
0.65292749 0.53708541 0.08092718
0.67271326 0.53512654 0.16137467
0.70270496 0.53704049 0.16899872
0.73267300 0.53905251 0.17667477
0.76261827 0.54116268 0.18439672
0.79254160 0.54337099 0.19215932
0.82244376 0.54567731 0.19995797
0.84606104 0.54756919 0.20614411
0.86972397 0.54952687 0.21236381
0.89988055 0.55211174 0.22031907
0.93422312 0.55517777 0.22941423
0.97166073 0.55866783 0.23936788
0.07448306 0.56657422 0.07254831
0.08254128 0.56657422 0.07254818
0.10979187 0.56657422 0.07254766
0.13757048 0.56657422 0.07254699
0.16556631 0.56657422 0.07254615
0.19346082 0.56657421 0.07254516
0.22111767 0.56657421 0.07254401
0.24848165 0.56657421 0.07254270
0.27553525 0.56657421 0.07254124
0.30227886 0.56657421 0.07253961
0.32872134 0.56657421 0.07253783
0.35487535 0.56657420 0.07253589
0.38075493 0.56657420 0.07253379
0.41011458 0.56657420 0.07253119
0.44036975 0.56657420 0.07252826
0.47063315 0.56657419 0.07252506
0.50089845 0.56657419 0.07252160
0.53116101 0.56657418 0.07251786
0.56141744 0.56657418 0.07251384
0.59191425 0.56683740 0.07489691
0.62243479 0.56717393 0.07786007
0.65292748 0.56753175 0.08091482
0.68339354 0.56791116 0.08405475
0.70270491 0.56542609 0.16899280
0.73267295 0.56731090 0.17666911
0.76261823 0.56928867 0.18439132
0.79254156 0.57135952 0.19215415
0.82244372 0.57352346 0.19995302
0.84606100 0.57529944 0.20613933
0.86972393 0.57713804 0.21235918
0.89988051 0.57956697 0.22031462
0.93422309 0.58244993 0.22940998
0.97166070 0.58573405 0.23936384
0.07733438 0.59738224 0.07544487
0.08516683 0.59738224 0.07544475
0.11183986 0.59738224 0.07544424
0.13922160 0.59738224 0.07544359
0.16693394 0.59738224 0.07544278
0.19461967 0.59738224 0.07544182
0.22211807 0.59738223 0.07544070
0.24935854 0.59738223 0.07543944
0.27631362 0.59738223 0.07543802
0.30297709 0.59738223 0.07543644
0.32935329 0.59738223 0.07543471
0.35545167 0.59738223 0.07543283
0.38128398 0.59738222 0.07543080
0.41059753 0.59738222 0.07542828
0.44081197 0.59738222 0.07542544
0.47104017 0.59738221 0.07542234
0.50127481 0.59738221 0.07541898
0.53151047 0.59738221 0.07541536
0.56174314 0.59738220 0.07541147
0.59196979 0.59738220 0.07540730
0.62243478 0.59764201 0.07784641
0.65292746 0.59797669 0.08090158
0.68339353 0.59833158 0.08404193
0.71383409 0.59870696 0.08726144
0.74425020 0.59910309 0.09055442
0.76261818 0.59756098 0.18438554
0.79254151 0.59950778 0.19214862
0.82244368 0.60154305 0.19994772
0.84606096 0.60321416 0.20613421
0.86972389 0.60494488 0.21235423
0.89988047 0.60723235 0.22030987
0.93422305 0.60994895 0.22940544
0.97166067 0.61304559 0.23935951
0.08028561 0.62816081 0.07844017
0.08789516 0.62816081 0.07844005
0.11398754 0.62816081 0.07843956
0.14096243 0.62816081 0.07843892
0.16838071 0.62816081 0.07843814
0.19584826 0.62816080 0.07843721
0.22318024 0.62816080 0.07843613
0.25029055 0.62816080 0.07843490
0.27714156 0.62816080 0.07843353
0.30372022 0.62816080 0.07843200
0.33002617 0.62816080 0.07843033
0.35606553 0.62816080 0.07842851
0.38184765 0.62816079 0.07842654
0.41111222 0.62816079 0.07842410
0.44128333 0.62816079 0.07842134
0.47147409 0.62816078 0.07841834
0.50167611 0.62816078 0.07841509
0.53188313 0.62816078 0.07841158
0.56209049 0.62816077 0.07840781
0.59229465 0.62816077 0.07840377
0.62249294 0.62816077 0.07839946
0.65292745 0.62841724 0.08088745
0.68339351 0.62875022 0.08402825
0.71383408 0.62910244 0.08724818
0.74425019 0.62947417 0.09054159
0.77464279 0.62986561 0.09390315
0.79254147 0.62779082 0.19214272
0.82244363 0.62970945 0.19994207
0.84606091 0.63128539 0.20612874
0.86972385 0.63291810 0.21234894
0.89988043 0.63507691 0.22030479
0.93422301 0.63764199 0.22940059
0.97166063 0.64056758 0.23935488
0.08333013 0.65891128 0.08152742
0.09072049 0.65891128 0.08152730
0.11623172 0.65891128 0.08152682
0.14279140 0.65891128 0.08152621
0.16990597 0.65891128 0.08152545
0.19714643 0.65891128 0.08152455
0.22430432 0.65891128 0.08152351
0.25127796 0.65891128 0.08152232
0.27801942 0.65891128 0.08152098
0.30450863 0.65891127 0.08151951
0.33074039 0.65891127 0.08151789
0.35671735 0.65891127 0.08151612
0.38244633 0.65891127 0.08151421
0.41165903 0.65891127 0.08151185
0.44178423 0.65891126 0.08150918
0.47193529 0.65891126 0.08150628
0.50210269 0.65891126 0.08150313
0.53227932 0.65891125 0.08149973
0.56245982 0.65891125 0.08149608
0.59264009 0.65891125 0.08149217
0.62281703 0.65891124 0.08148799
0.65298823 0.65891124 0.08148355
0.68339350 0.65916443 0.08401368
0.71383407 0.65949585 0.08723408
0.74425017 0.65984564 0.09052793
0.77464278 0.66021401 0.09388992
0.80501277 0.66060120 0.09731509
0.82244358 0.65800058 0.19993605
