luts/Kodak_5207.cube
TITLE "Panasonic S9 Standard to Kodak Vision3 250D (5207)"
#LUMIXPHOTOSTYLE STD
# Film Emulation LUT
# Generated by lutex.py
# Grid: 33^3
LUT_3D_SIZE 9
DOMAIN_MIN 0.0 0.0 0.0
DOMAIN_MAX 1.0 1.0 1.0
0.04744154 0.04829062 0.04489573
0.15487232 0.05021394 0.04690610
0.27048913 0.05443044 0.05129979
0.37825262 0.06041607 0.05750874
0.50017149 0.06937280 0.06674919
0.62243490 0.08031023 0.07796952
0.74425030 0.09274510 0.09066277
0.85933044 0.10557812 0.10371024
0.98680028 0.12072718 0.11906220
0.04943447 0.15664344 0.04694857
0.15489028 0.15664343 0.04694561
0.27048911 0.15824676 0.05129040
0.37825260 0.16067033 0.05750007
0.50017148 0.16455862 0.06674143
0.62243490 0.16971671 0.07796266
0.74425029 0.17609972 0.09065673
0.85933043 0.18322715 0.10370488
0.98680028 0.19228857 0.11905750
0.05377739 0.27323895 0.05141197
0.15656323 0.27323894 0.05140919
0.27051700 0.27323893 0.05140285
0.37825257 0.27454327 0.05748036
0.50017146 0.27670824 0.06672378
0.62243488 0.27963261 0.07794706
0.74425028 0.28333216 0.09064300
0.85933042 0.28756558 0.10369271
0.98680027 0.29309805 0.11904680
0.05992858 0.38191391 0.05771323
0.15906299 0.38191390 0.05771066
0.27189171 0.38191389 0.05770481
0.37828973 0.38191388 0.05769596
0.50017143 0.38333930 0.06669704
0.61265524 0.39085315 0.14633899
0.73267319 0.40171897 0.17669720
0.85933041 0.39076939 0.10367426
0.98680025 0.39461602 0.11903059
0.06910801 0.50486369 0.06708006
0.16307034 0.50486369 0.06707776
0.27412551 0.50486368 0.06707253
0.37979889 0.50486368 0.06706461
0.50021905 0.50486366 0.06705165
0.62243482 0.50622822 0.07788471
0.73267304 0.51095383 0.17668003
0.84606108 0.52005722 0.20614856
0.97166076 0.53188857 0.23937165
0.08028561 0.62816081 0.07844017
0.16838071 0.62816081 0.07843814
0.27714156 0.62816080 0.07843353
0.38184765 0.62816079 0.07842654
0.50167611 0.62816078 0.07841509
0.62249294 0.62816077 0.07839946
0.74425019 0.62947417 0.09054159
0.84606091 0.63128539 0.20612874
0.97166063 0.64056758 0.23935488
0.09296170 0.75100605 0.09127811
0.17494393 0.75100605 0.09127633
0.28095504 0.75100604 0.09127227
0.38445609 0.75100604 0.09126612
0.50353733 0.75100603 0.09125606
0.62390793 0.75100602 0.09124231
0.74431877 0.75100600 0.09122468
0.85933031 0.75220368 0.10356446
0.97166058 0.75223864 0.23934923
0.10601732 0.86705907 0.10447345
0.18226287 0.86705907 0.10447345
0.28531620 0.86705907 0.10447345
0.38746337 0.86705907 0.10447345
0.50569155 0.86705907 0.10447345
0.62554879 0.86705907 0.10447345
0.74562507 0.86705907 0.10447345
0.85940884 0.86705907 0.10447345
0.98493445 0.86729667 0.13998272
0.13547248 0.99438264 0.13426184
0.20119353 0.99425650 0.13564237
0.29778134 0.99396966 0.13872966
0.39664825 0.99353490 0.14327970
0.51233486 0.99282242 0.15042983
0.62982662 0.99184854 0.15966322
0.74711298 0.99059748 0.17074903
0.85748001 0.98913955 0.18275408
0.97871851 0.98719143 0.19754742
0.00000000 0.00000000 0.00000000
0.15488487 0.05024694 0.15255184
0.27049594 0.05446175 0.15420308
0.37825719 0.06044521 0.15667045
0.50017474 0.06939918 0.16062602
0.62243738 0.08033382 0.16586806
0.74425228 0.09276614 0.17234720
0.85933210 0.10559703 0.17957278
0.98680168 0.12074405 0.18874644
0.04945941 0.15665272 0.15255195
0.15559944 0.15734442 0.15325649
0.27087333 0.15894030 0.15488185
0.37851010 0.16135285 0.15733799
0.50035341 0.16522406 0.16127621
0.62257252 0.17036057 0.16649637
0.74435940 0.17671845 0.17295011
0.85942074 0.18381970 0.18014930
0.98687541 0.19285039 0.18929211
0.05380116 0.27324401 0.15420342
0.15726420 0.27361852 0.15489974
0.27090096 0.27361844 0.15488547
0.37850992 0.27492059 0.15729073
0.50035329 0.27708197 0.16123015
0.62257242 0.28000157 0.16645182
0.74435932 0.28369522 0.17290731
0.85942067 0.28792209 0.18010833
0.98687536 0.29344626 0.18925327
0.05995088 0.38191734 0.15667114
0.15975197 0.38216813 0.15735544
0.27227309 0.38216807 0.15734139
0.37854682 0.38216800 0.15732011
0.50035310 0.38359216 0.16116034
0.61327623 0.39194490 0.20551268
0.73316562 0.40277386 0.22759391
0.85942058 0.39101584 0.18004624
0.98687528 0.39485925 0.18919442
0.06912846 0.50486618 0.16062727
0.16374079 0.50504313 0.16129297
0.27450274 0.50504310 0.16127928
0.38005438 0.50504304 0.16125853
0.50040044 0.50504295 0.16122456
0.62257205 0.50640680 0.16627369
0.73316478 0.51173455 0.22751805
0.84646812 0.52082007 0.25050011
0.97199949 0.53262916 0.27781275
0.08030426 0.62816274 0.16587001
0.16902779 0.62829636 0.16651225
0.27751330 0.62829633 0.16649901
0.38210097 0.62829629 0.16647895
0.50185649 0.62829622 0.16644609
0.62262989 0.62829613 0.16640122
0.74435877 0.62960906 0.17259103
0.84646718 0.63188000 0.25040724
0.97199870 0.64115045 0.27773037
0.09297874 0.75100764 0.17234999
0.17556386 0.75111333 0.17296496
0.28131999 0.75111330 0.17295224
0.38470669 0.75111327 0.17293297
0.50371642 0.75111322 0.17290141
0.62404415 0.75111314 0.17285831
0.74442708 0.75111305 0.17280301
0.85942003 0.75231049 0.17967812
0.97199844 0.75271163 0.27770361
0.10603296 0.86706043 0.17961224
0.18285491 0.86714773 0.18020443
0.28567386 0.86714773 0.18020443
0.38771112 0.86714773 0.18020443
0.50586943 0.86714773 0.18020443
0.62568442 0.86714773 0.18020443
0.74573311 0.86714773 0.18020443
0.85949854 0.86714773 0.18020443
0.98500235 0.86740091 0.20265658
0.13592305 0.99434415 0.19822501
0.20216902 0.99431385 0.19981153
0.29841321 0.99403184 0.20184539
0.39710383 0.99360440 0.20488434
0.51267581 0.99290394 0.20975595
0.63009891 0.99194650 0.21621135
0.74734179 0.99071659 0.22418938
0.85768131 0.98928335 0.23308553
0.97889904 0.98736830 0.24437884
0.00467239 0.02458555 0.16418018
0.06867837 0.00506173 0.16434351
0.27049594 0.05446175 0.26965289
0.37825719 0.06044521 0.27097137
0.50017474 0.06939918 0.27311442
0.62243738 0.08033382 0.27600916
0.74425228 0.09276614 0.27967119
0.85933210 0.10559703 0.28386163
0.98680168 0.12074405 0.28933786
0.00467396 0.09326116 0.16412082
0.09711680 0.10760760 0.19307736
0.27089600 0.15898115 0.27002118
0.37852538 0.16139328 0.27133758
0.50036431 0.16526383 0.27347729
0.62258086 0.17039953 0.27636760
0.74436611 0.17675647 0.28002416
0.85942639 0.18385675 0.28420851
0.98688023 0.19288633 0.28967704
0.05380116 0.27324401 0.26960263
0.15728814 0.27363150 0.26998633
0.27179326 0.27450046 0.27084654
0.37910879 0.27579753 0.27213021
0.50077667 0.27795059 0.27426216
0.62289278 0.28085915 0.27714218
0.74461334 0.28453917 0.28078601
0.85963093 0.28875084 0.28495618
0.98705032 0.29425581 0.29040679
0.05995088 0.38191734 0.27086879
0.15977623 0.38217709 0.27125041
0.27315941 0.38275959 0.27210482
0.37914511 0.38275936 0.27207075
0.50077612 0.38418060 0.27414859
0.61472020 0.39447465 0.29809742
0.74461301 0.38868155 0.28067551
0.85963066 0.39158940 0.28484758
0.98705009 0.39542532 0.29030058
0.06912846 0.50486618 0.27292741
0.16376557 0.50504978 0.27330569
0.27537947 0.50546087 0.27415076
0.38064893 0.50546071 0.27411699
0.50082282 0.50546044 0.27406168
0.61471712 0.50560878 0.29793461
0.73430902 0.51354805 0.31274229
0.84741567 0.52259227 0.32897947
0.98704972 0.51346943 0.29012657
0.08030426 0.62816274 0.27570926
0.16905326 0.62830170 0.27608309
0.27837731 0.62861201 0.27691575
0.38269050 0.62861189 0.27688237
0.50227652 0.62861169 0.27682770
0.62294887 0.62861141 0.27675305
0.74461173 0.62992328 0.28024706
0.84741290 0.63326282 0.32878179
0.97278590 0.64250608 0.34905213
0.09297874 0.75100764 0.27923031
0.17559016 0.75111789 0.27959865
0.28216829 0.75136318 0.28041592
0.38528990 0.75136308 0.28038303
0.50413347 0.75136292 0.28032916
0.62436141 0.75136270 0.28025559
0.74467938 0.75136243 0.28016119
0.85962905 0.75255934 0.28421044
0.97278521 0.75381243 0.34899760
0.10603296 0.86706043 0.28333157
0.18288174 0.86715176 0.28370301
0.28650536 0.86735431 0.28452496
0.38828777 0.86735431 0.28452496
0.50628366 0.86735431 0.28452496
0.62600037 0.86735431 0.28452496
0.74598481 0.86735431 0.28452496
0.85964230 0.86728689 0.28479795
0.98516583 0.86765000 0.29851082
0.13693093 0.99425105 0.29475614
0.20285454 0.99422677 0.29575020
0.29990340 0.99418193 0.29804296
0.39817993 0.99377156 0.29992086
0.51348156 0.99309909 0.30296626
0.63074232 0.99217996 0.30706662
0.74788225 0.99099932 0.31223289
0.85815651 0.98962360 0.31811728
0.97932492 0.98778557 0.32576573
0.00000000 0.06705778 0.32070525
0.07654502 0.00000000 0.32082994
0.27186339 0.06053091 0.37958701
0.37827018 0.06052794 0.37954091
0.50017474 0.06939918 0.38092681
0.62243738 0.08033382 0.38282663
0.74425228 0.09276614 0.38524679
0.85933210 0.10559703 0.38803879
0.98680168 0.12074405 0.39172313
0.00000000 0.14416208 0.32064947
0.10924068 0.13843492 0.33104723
0.27226044 0.16142764 0.37980905
0.37853790 0.16142641 0.37976298
0.50036431 0.16526383 0.38114835
0.62258086 0.17039953 0.38304683
0.74436611 0.17675647 0.38546530
0.85942639 0.18385675 0.38825537
0.98688023 0.19288633 0.39193721
0.00000000 0.24016613 0.32052263
0.10924174 0.24381140 0.33092482
0.23323612 0.24496844 0.34183238
0.37914563 0.27585143 0.38026721
0.50079490 0.27798793 0.38165138
0.62290686 0.28089679 0.38354681
0.74462480 0.28457717 0.38596144
0.85964070 0.28878926 0.38874715
0.98705876 0.29429478 0.39242334
0.05995088 0.38191734 0.37935334
0.15977623 0.38217709 0.37960199
0.27317015 0.38276677 0.38016648
0.38005419 0.38365799 0.38101972
0.50142660 0.38508450 0.38238423
0.62338480 0.38705799 0.38427421
0.74500358 0.38957151 0.38668198
0.85995400 0.39247052 0.38945987
0.98731918 0.39629499 0.39312591
0.06912846 0.50486618 0.38060695
0.16376557 0.50504978 0.38085459
0.27539198 0.50546684 0.38141682
0.38155490 0.50609784 0.38226665
0.50147231 0.50610242 0.38219905
0.61692887 0.50844232 0.39560047
0.73606633 0.51632464 0.40619355
0.85995309 0.51133965 0.38921367
0.98731843 0.51409673 0.39288252
0.08030426 0.62816274 0.38231044
0.16905326 0.62830170 0.38255673
0.27839218 0.62861745 0.38311591
0.38359230 0.62909541 0.38396114
0.50292239 0.62909703 0.38389045
0.62343961 0.62909648 0.38378877
0.73605962 0.62836794 0.40588539
0.84886636 0.63538445 0.41780498
0.97399634 0.64458621 0.43306992
0.09297874 0.75100764 0.38448202
0.17559016 0.75111789 0.38472662
0.28218611 0.75136843 0.38528194
0.38618579 0.75174751 0.38612070
0.50477475 0.75174719 0.38604676
0.62484952 0.75174675 0.38594578
0.74506764 0.75174619 0.38581619
0.85995082 0.75294233 0.38859304
0.97399517 0.75550352 0.43299808
0.10603296 0.86706043 0.38710059
0.18288174 0.86715176 0.38735609
0.28652548 0.86735932 0.38793614
0.38917374 0.86767231 0.38880914
0.50692073 0.86767231 0.38880914
0.62648651 0.86767231 0.38880914
0.74637222 0.86767231 0.38880914
0.85986854 0.86750547 0.38927357
0.98543192 0.86805043 0.39855874
0.13846870 0.99410765 0.39486863
0.20385696 0.99408585 0.39552660
0.30054632 0.99405249 0.39707002
0.39987597 0.99404314 0.39952716
0.51475272 0.99341377 0.40154974
0.63175727 0.99255359 0.40429116
0.74873421 0.99144878 0.40777445
0.85890490 0.99016157 0.41178070
0.97999477 0.98844203 0.41704801
0.00000000 0.11408258 0.46642437
0.02945425 0.00000000 0.46649444
0.20766801 0.00000000 0.46645073
0.37979913 0.06975968 0.50455574
0.50021824 0.06975165 0.50445847
0.62243738 0.08033382 0.50569749
0.74425228 0.09276614 0.50733603
0.85933210 0.10559703 0.50923368
0.98680168 0.12074405 0.51174975
0.00000000 0.18019094 0.46635968
0.09542009 0.15967413 0.47552011
0.19961618 0.09793188 0.47553354
0.38006515 0.16542392 0.50468524
0.50040719 0.16542030 0.50458801
0.62258086 0.17039953 0.50582721
0.74436611 0.17675647 0.50746522
0.85942639 0.18385675 0.50936226
0.98688023 0.19288633 0.51187753
0.00000000 0.27433299 0.46621257
0.09544777 0.26813923 0.47537181
0.23415492 0.26237176 0.47954770
0.38066904 0.27807497 0.50497947
0.50083640 0.27807294 0.50488231
0.62290686 0.28089679 0.50612193
0.74462480 0.28457717 0.50775874
0.85964070 0.28878926 0.50965440
0.98705876 0.29429478 0.51216786
0.00000000 0.36954470 0.46598960
0.09548967 0.37153869 0.47514703
0.23416267 0.37007695 0.47932920
0.35068934 0.36517476 0.48281604
0.50148575 0.38516664 0.50532775
0.62340033 0.38708627 0.50656801
0.74501648 0.38960086 0.50820301
0.85996523 0.39250110 0.51009658
0.98732915 0.39632717 0.51260730
0.06912846 0.50486618 0.50396267
0.16376557 0.50504978 0.50412960
0.27539198 0.50546684 0.50450881
0.38155490 0.50609784 0.50508262
0.50251082 0.50712898 0.50602046
0.62419762 0.50852000 0.50728478
0.74564854 0.51031165 0.50891517
0.86048807 0.51238581 0.51080343
0.98776372 0.51513463 0.51330718
0.08030426 0.62816274 0.50496470
0.16905326 0.62830170 0.50513121
0.27839218 0.62861745 0.50550947
0.38359230 0.62909541 0.50608185
0.50395959 0.62987708 0.50701736
0.62425215 0.62989964 0.50691645
0.73895563 0.63191862 0.51920602
0.85126895 0.63888203 0.52794971
0.98776183 0.63489213 0.51286984
0.09297874 0.75100764 0.50624636
0.17559016 0.75111789 0.50641234
0.28218611 0.75136843 0.50678940
0.38618645 0.75174780 0.50735994
0.50581031 0.75236847 0.50829249
0.62565770 0.75238292 0.50818617
0.74571096 0.75238208 0.50804753
0.86048405 0.75357691 0.51002377
0.97599728 0.75829707 0.53925734
0.10603296 0.86706043 0.50790960
0.18288174 0.86715176 0.50809182
0.28652548 0.86735932 0.50850573
0.38917746 0.86767364 0.50913198
0.50795243 0.86818804 0.51015538
0.62729162 0.86819931 0.51017780
0.74701408 0.86819931 0.51017780
0.86028959 0.86791329 0.51074580
0.98591144 0.86875940 0.51709587
0.14098175 0.99386979 0.51309044
0.20550744 0.99385209 0.51351559
0.30156490 0.99382807 0.51451853
0.40055808 0.99383458 0.51613377
0.51690244 0.99395688 0.51902473
0.63350437 0.99321088 0.52083152
0.75019936 0.99223169 0.52308891
0.86019013 0.99109104 0.52569936
0.98114298 0.98956765 0.52915420
0.00000000 0.15836420 0.60353952
0.00000000 0.06972135 0.60358134
0.18837679 0.00000000 0.60353002
0.31983830 0.00000000 0.60345227
0.50170878 0.08109732 0.63033285
0.62251610 0.08108152 0.63017007
0.74425228 0.09276614 0.63125172
0.85933210 0.10559703 0.63259665
0.98680168 0.12074405 0.63438396
0.00000000 0.21366516 0.60346357
0.05026625 0.17743165 0.61457532
0.15283992 0.05461151 0.61454444
0.31035411 0.05465199 0.61446526
0.50189666 0.17077098 0.63040293
0.62265883 0.17076320 0.63024018
0.74436611 0.17675647 0.63132239
0.85942639 0.18385675 0.63266712
0.98688023 0.19288633 0.63445418
0.00000000 0.30104884 0.60329086
0.05036160 0.28426842 0.61439945
0.22410690 0.27640578 0.61597946
0.31377647 0.22741192 0.61594256
0.50232342 0.28110500 0.63056220
0.62298312 0.28110054 0.63039951
0.74462480 0.28457717 0.63148299
0.85964070 0.28878926 0.63282729
0.98705876 0.29429478 0.63461376
0.00000000 0.39392114 0.60302910
0.05050581 0.38864168 0.61413290
0.22413626 0.38426578 0.61571600
0.34685015 0.37664165 0.61710648
0.50296907 0.38722347 0.63080340
0.62347401 0.38722044 0.63064078
0.74501648 0.38960086 0.63172621
0.85996523 0.39250110 0.63306983
0.98732915 0.39632717 0.63485543
0.00000000 0.50479688 0.60260014
0.05074128 0.50873982 0.61369610
0.22418428 0.50676570 0.61528427
0.34687222 0.50278376 0.61667931
0.47868354 0.49447201 0.61723938
0.62427676 0.50862278 0.63103562
0.74565728 0.51032587 0.63212421
0.86049631 0.51240193 0.63346675
0.98777171 0.51515324 0.63525091
0.08040209 0.62817288 0.62916592
0.16910054 0.62831163 0.62928342
0.27841795 0.62862689 0.62955041
0.38360848 0.62910410 0.62995462
0.50396952 0.62988455 0.63061580
0.62531283 0.63094811 0.63151710
0.74653103 0.63230531 0.63266710
0.86122073 0.63388606 0.63400816
0.98837440 0.63598363 0.63578837
0.09297874 0.75100764 0.62985629
0.17559016 0.75111789 0.62997384
0.28218611 0.75136843 0.63024094
0.38618645 0.75174780 0.63064531
0.50581031 0.75236847 0.63130676
0.62671385 0.75321483 0.63220843
0.74659743 0.75325832 0.63214818
0.85455728 0.75474363 0.64343249
0.97875086 0.76212963 0.65249308
0.10603296 0.86706043 0.63094336
0.18288174 0.86715176 0.63108154
0.28652548 0.86735932 0.63139550
0.38917746 0.86767364 0.63187075
0.50795243 0.86818804 0.63264801
0.62834531 0.86888971 0.63370724
0.74789854 0.86892578 0.63376165
0.86096433 0.86856874 0.63429986
0.98665126 0.86982935 0.63880168
0.14437687 0.99354148 0.63419262
0.20776097 0.99352944 0.63446474
0.30296367 0.99351830 0.63511191
0.40148933 0.99354435 0.63616769
0.51750553 0.99369867 0.63809114
0.63593408 0.99413313 0.64110283
0.75232729 0.99338858 0.64264093
0.86205342 0.99244972 0.64429767
0.98280345 0.99119622 0.64649788
0.00000000 0.20132352 0.73648397
0.00000000 0.13985794 0.73650760
0.14904228 0.00000000 0.73644812
0.30364232 0.00000000 0.73635801
0.50362820 0.09404996 0.75616217
0.62397461 0.09402910 0.75596946
0.74436929 0.09400233 0.75572217
0.85933210 0.10559703 0.75657848
0.98680168 0.12074405 0.75787051
0.00000000 0.24779267 0.73639596
0.00000000 0.20601982 0.74757126
0.05377717 0.00000000 0.74778809
0.28029943 0.00000000 0.74769976
0.50381470 0.17743801 0.75618950
0.62411654 0.17742681 0.75599680
0.74448223 0.17741245 0.75574952
0.85942639 0.18385675 0.75660663
0.98688023 0.19288633 0.75789860
0.00000000 0.32723188 0.73619583
0.00000000 0.30362472 0.74737502
0.20372303 0.28945435 0.75042875
0.27713005 0.20748943 0.75035068
0.43896549 0.20751799 0.75020073
0.62443904 0.28496378 0.75605893
0.74473889 0.28495535 0.75581168
0.85964070 0.28878926 0.75667064
0.98705876 0.29429478 0.75796246
0.00000000 0.41577612 0.73589250
0.00000000 0.40401365 0.74707760
0.20378307 0.39593007 0.75012065
0.33694943 0.38721672 0.75046187
0.44212304 0.34118752 0.75032161
0.62492720 0.38985929 0.75615305
0.74512751 0.38985350 0.75590584
0.85996523 0.39250110 0.75676758
0.98732915 0.39632717 0.75805919
0.00000000 0.52416643 0.73539544
0.00000000 0.52204785 0.74659023
0.20388132 0.51832380 0.74961578
0.33699804 0.51282691 0.74995961
0.47319079 0.50295471 0.74974422
0.62572552 0.51050258 0.75630715
0.74576330 0.51049844 0.75606000
0.86049631 0.51240193 0.75692630
0.98777171 0.51515324 0.75821756
0.00000000 0.63736038 0.73471608
0.00000000 0.64265789 0.74592413
0.20401530 0.64197633 0.74892575
0.33706434 0.63852247 0.74927318
0.47322898 0.63203865 0.74906057
0.60496220 0.62197599 0.74771268
0.74663024 0.63242834 0.75627041
0.86122073 0.63388606 0.75714294
0.98837552 0.63598562 0.75846611
0.09329763 0.75103740 0.75394681
0.17576024 0.75114739 0.75403138
0.28228408 0.75139734 0.75422359
0.38625166 0.75177581 0.75451466
0.50585453 0.75239502 0.75499098
0.62674501 0.75323938 0.75564068
0.74767411 0.75432262 0.75666638
0.86214877 0.75555685 0.75789563
0.98914933 0.75723000 0.75956207
0.10603296 0.86706043 0.75465078
0.18288174 0.86715176 0.75476033
0.28652548 0.86735932 0.75500930
0.38917746 0.86767364 0.75538628
0.50795243 0.86818804 0.75600306
0.62834531 0.86888971 0.75684412
0.74894859 0.86978867 0.75792118
0.86199822 0.86957587 0.75835757
0.98096231 0.87227863 0.77102335
0.14865297 0.99311648 0.75613659
0.21063712 0.99311178 0.75629933
0.30476217 0.99311732 0.75669233
0.40269029 0.99316867 0.75734856
0.51828451 0.99336447 0.75858091
0.63643178 0.99385559 0.76057772
0.75504050 0.99486304 0.76366455
0.86461762 0.99433803 0.76484223
0.98508206 0.99343228 0.76611964
0.00000000 0.24172698 0.86147297
0.00000000 0.19367921 0.86148382
0.07233761 0.00000000 0.86141632
0.27828959 0.00000000 0.86131403
0.43118019 0.00000000 0.86114650
0.62569293 0.10754511 0.87615254
0.74573634 0.10751208 0.87586851
0.85949781 0.10747364 0.87553796
0.98680168 0.12074405 0.87632059
0.00000000 0.28148811 0.86137307
0.00000000 0.24555136 0.87049263
0.00000000 0.09903734 0.87065144
0.24682944 0.00000000 0.87055059
0.41961512 0.00000000 0.87038540
0.62583394 0.18497353 0.87614774
0.74584867 0.18495438 0.87586371
0.85959108 0.18493211 0.87553316
0.98688023 0.19288633 0.87631677
0.00000000 0.35344550 0.86114590
0.00000000 0.33021198 0.87026859
0.17227546 0.30213441 0.87755742
0.21826879 0.17685624 0.87745403
0.41052657 0.17690750 0.87728324
0.62615432 0.28945234 0.87613684
0.74610395 0.28944079 0.87585280
0.85980305 0.28942737 0.87552225
0.98705876 0.29429478 0.87630809
0.00000000 0.43703976 0.86080161
0.00000000 0.42315277 0.86992904
0.17238391 0.40635634 0.87720654
0.32184461 0.39725828 0.87704217
0.41325538 0.32637696 0.87686506
0.62663930 0.39295043 0.87612032
0.74649046 0.39294244 0.87583628
0.86012406 0.39293315 0.87550572
0.98732915 0.39632717 0.87629494
0.00000000 0.54193039 0.86023742
0.00000000 0.53598643 0.86937264
0.17256130 0.52774734 0.87663158
0.32192637 0.52160420 0.87646867
0.46437883 0.51101089 0.87581602
0.57026005 0.46966581 0.87555216
0.74712283 0.51270756 0.87580922
0.86064937 0.51270089 0.87547865
0.98777171 0.51515324 0.87627341
0.00000000 0.65309093 0.85946633
0.00000000 0.65328024 0.86861221
0.17280313 0.65118626 0.87584576
0.32203790 0.64689889 0.87568487
0.46444447 0.63944285 0.87503391
0.58374857 0.61663962 0.88272450
0.74798509 0.63410757 0.87577228
0.86136592 0.63410248 0.87544168
0.98837552 0.63598562 0.87639462
0.10682114 0.75238159 0.87382956
0.18333719 0.75249122 0.87389111
0.28679752 0.75274037 0.87403100
0.32218081 0.77202400 0.87467815
0.46452859 0.76667243 0.87402937
0.58387761 0.75924931 0.88174572
0.72280298 0.74235986 0.87592977
0.86229079 0.75572567 0.87606178
0.98914933 0.75723000 0.87730159
0.10675981 0.86712379 0.87330367
0.18330349 0.86721511 0.87339414
0.28677986 0.86742265 0.87359975
0.38935358 0.86773694 0.87391112
0.50807883 0.86825129 0.87442069
0.62844168 0.86895289 0.87511579
0.74911360 0.86978694 0.87593447
0.85115826 0.86150159 0.86783540
0.98913053 0.87330606 0.87932594
0.15355319 0.99261355 0.87293461
0.21398331 0.99261753 0.87301661
0.30687304 0.99264283 0.87322221
0.40410493 0.99272413 0.87358446
0.51920387 0.99296902 0.87430949
0.63701974 0.99352723 0.87556285
0.75538874 0.99462071 0.87761324
0.86746786 0.99642402 0.88061847
0.98796473 0.99626287 0.88159813
0.00000000 0.28543036 0.99663698
0.00000000 0.24670942 0.99663680
0.00000000 0.11020331 0.99656036
0.23671700 0.00000000 0.99644454
0.40961998 0.00000000 0.99625485
0.63237588 0.19283154 1.00000000
0.74745921 0.19030129 1.00000000
0.85774727 0.18731126 1.00000000
0.98120678 0.18324283 1.00000000
0.00000000 0.31939834 0.99652386
0.09484346 0.30494547 1.00000000
0.09654459 0.21349593 1.00000000
0.21974312 0.09478630 1.00000000
0.40276731 0.09184298 1.00000000
0.55173949 0.08768574 1.00000000
0.74774818 0.24130611 1.00000000
0.85794070 0.23901812 1.00000000
0.98132343 0.23592850 1.00000000
0.00000000 0.38383335 0.99626664
0.09083423 0.37260025 1.00000000
0.24165984 0.36920681 1.00000000
0.24414571 0.25967924 1.00000000
0.40659609 0.24304065 1.00000000
0.55437065 0.24152254 1.00000000
0.74842218 0.32603120 1.00000000
0.85838838 0.32442619 1.00000000
0.98158914 0.32227154 1.00000000
0.00000000 0.46171519 0.99587680
0.08444849 0.45333023 1.00000000
0.23935640 0.45057327 1.00000000
0.35865875 0.44639231 1.00000000
0.41220407 0.36190994 1.00000000
0.55825933 0.36096289 1.00000000
0.74949455 0.41873796 1.00000000
0.85909050 0.41755616 1.00000000
0.98199336 0.41597415 1.00000000
0.00000000 0.56207314 0.99523798
0.07300432 0.55662691 1.00000000
0.23552900 0.55439527 1.00000000
0.35629390 0.55100257 1.00000000
0.48551417 0.54542193 1.00000000
0.56433711 0.48978292 1.00000000
0.75141772 0.53108956 1.00000000
0.86031824 0.53021287 1.00000000
0.98266083 0.52904122 1.00000000
0.00000000 0.67025219 0.99436490
0.05456735 0.66776885 1.00000000
0.23018641 0.66591644 1.00000000
0.35303400 0.66309076 1.00000000
0.48329637 0.65840830 1.00000000
0.61038841 0.65188248 1.00000000
0.70504449 0.61569453 1.00000000
0.86222169 0.64708727 1.00000000
0.98329095 0.64680475 1.00000000
0.00000000 0.78241603 0.99324349
0.02363460 0.78328227 1.00000000
0.22312116 0.78172523 1.00000000
0.34879831 0.77934450 1.00000000
0.48043269 0.77537930 1.00000000
0.60871744 0.76992112 1.00000000
0.73454104 0.76285069 1.00000000
0.86567836 0.76696996 1.00000000
0.98367364 0.76696996 1.00000000
0.16689593 0.86634109 1.00000000
0.22353737 0.86644515 1.00000000
0.31336787 0.86669553 1.00000000
0.40903891 0.86711606 1.00000000
0.48037986 0.88839784 1.00000000
0.60871744 0.88384190 1.00000000
0.73454104 0.87795220 1.00000000
0.85238094 0.87103492 1.00000000
0.98469583 0.88138125 1.00000000
0.16689593 0.99150655 1.00000000
0.22353737 0.99151258 1.00000000
0.31336787 0.99152708 1.00000000
0.40903891 0.99155146 1.00000000
0.52338546 0.99159913 1.00000000
0.64123662 0.99168647 1.00000000
0.76033210 0.99186608 1.00000000
0.87374229 0.99232782 1.00000000
0.98220708 0.99234168 1.00000000
