luts/Kodak_gold200.cube
TITLE "Panasonic S9 Standard to Kodak Gold 200 (Warm Golden) v2"
#LUMIXPHOTOSTYLE STD
# Film Emulation LUT
# Generated by lutex.py
# Grid: 33^3
LUT_3D_SIZE 33
DOMAIN_MIN 0.0 0.0 0.0
DOMAIN_MAX 1.0 1.0 1.0
0.05817493 0.05515139 0.04480413
0.06615255 0.05825531 0.04423733
0.10334111 0.06402092 0.04075156
0.13797315 0.07088291 0.03607630
0.17123898 0.07866247 0.03031972
0.20344569 0.08713725 0.02349206
0.23478982 0.09612945 0.01559718
0.26540783 0.10550148 0.00663856
0.29486116 0.11609308 0.00000000
0.32277910 0.12871372 0.00000000
0.35036509 0.14129866 0.00000000
0.37763204 0.15382098 0.00000000
0.40832853 0.16799306 0.00000000
0.43976316 0.18256894 0.00000000
0.47116246 0.19717781 0.00000000
0.50251865 0.21180550 0.00000000
0.53382616 0.22644164 0.00000000
0.56508095 0.24107846 0.00000000
0.59628005 0.25571006 0.00000000
0.62742123 0.27033186 0.00000000
0.65850279 0.28494027 0.00000000
0.68952343 0.29953243 0.00000000
0.72048207 0.31410602 0.00000000
0.75137785 0.32865914 0.00000000
0.78221000 0.34319018 0.00000000
0.81297786 0.35769782 0.00000000
0.84368080 0.37218089 0.00000000
0.87431822 0.38663838 0.00000000
0.89943694 0.39849519 0.00000000
0.92618962 0.41112646 0.00000000
0.95725182 0.42579619 0.00000000
0.99094478 0.44171239 0.00000000
1.00000000 0.50473144 0.27474722
0.05788461 0.06311261 0.04446228
0.06615083 0.06293714 0.04423996
0.10333897 0.07146771 0.04075444
0.13797059 0.07780307 0.03607938
0.17123601 0.08505616 0.03032298
0.20344233 0.09302900 0.02349553
0.23478606 0.10155652 0.01560089
0.26540368 0.11050594 0.00664255
0.29485731 0.12064833 0.00000000
0.32277483 0.13277303 0.00000000
0.35036041 0.14495480 0.00000000
0.37762696 0.15714315 0.00000000
0.40832302 0.17099862 0.00000000
0.43975721 0.18530115 0.00000000
0.47115607 0.19967741 0.00000000
0.50251183 0.21410506 0.00000000
0.53381891 0.22856755 0.00000000
0.56507327 0.24305241 0.00000000
0.59627194 0.25755003 0.00000000
0.62741270 0.27205294 0.00000000
0.65849385 0.28655524 0.00000000
0.68951407 0.30105217 0.00000000
0.72047230 0.31553990 0.00000000
0.75136766 0.33001525 0.00000000
0.78219940 0.34447558 0.00000000
0.81296685 0.35891867 0.00000000
0.84366938 0.37334261 0.00000000
0.87430639 0.38774577 0.00000000
0.89942477 0.39956116 0.00000000
0.92617709 0.41215110 0.00000000
0.95723887 0.42677612 0.00000000
0.99093138 0.44264743 0.00000000
1.00000000 0.50540649 0.27467396
0.05514710 0.09943811 0.04120205
0.06385015 0.09943789 0.04120285
0.10332617 0.09921224 0.04077163
0.13795530 0.11148254 0.03609781
0.17121828 0.11684829 0.03034247
0.20342220 0.12292287 0.02351627
0.23476358 0.12960340 0.01562308
0.26537890 0.13679578 0.00666639
0.29483430 0.14497599 0.00000000
0.32274929 0.15482394 0.00000000
0.35033244 0.16508634 0.00000000
0.37759663 0.17563676 0.00000000
0.40829007 0.18789851 0.00000000
0.43972162 0.20079294 0.00000000
0.47111787 0.21394766 0.00000000
0.50247104 0.22730779 0.00000000
0.53377556 0.24083111 0.00000000
0.56502738 0.25448465 0.00000000
0.59622353 0.26824232 0.00000000
0.62736177 0.28208323 0.00000000
0.65844042 0.29599045 0.00000000
0.68945815 0.30995012 0.00000000
0.72041389 0.32395081 0.00000000
0.75130678 0.33798301 0.00000000
0.78213605 0.35203869 0.00000000
0.81290103 0.36611108 0.00000000
0.84360110 0.38019441 0.00000000
0.87423565 0.39428368 0.00000000
0.89935202 0.40585919 0.00000000
0.92610219 0.41820935 0.00000000
0.95716147 0.43257446 0.00000000
0.99085126 0.44818415 0.00000000
1.00000000 0.50941863 0.27423575
0.05149265 0.13325176 0.03681977
0.06057590 0.13325149 0.03682061
0.10136853 0.13324992 0.03682562
0.13793571 0.13297763 0.03612143
0.17119556 0.14832254 0.03036744
0.20339640 0.15315915 0.02354286
0.23473477 0.15856257 0.01565153
0.26534713 0.16447096 0.00669695
0.29480480 0.17111641 0.00000000
0.32271655 0.17905206 0.00000000
0.35029658 0.18762248 0.00000000
0.37755774 0.19666735 0.00000000
0.40824783 0.20740712 0.00000000
0.43967598 0.21890856 0.00000000
0.47106889 0.23081748 0.00000000
0.50241875 0.24306021 0.00000000
0.53371999 0.25557838 0.00000000
0.56496855 0.26832507 0.00000000
0.59616146 0.28126215 0.00000000
0.62729648 0.29435835 0.00000000
0.65837192 0.30758777 0.00000000
0.68938645 0.32092882 0.00000000
0.72033901 0.33436336 0.00000000
0.75122872 0.34787606 0.00000000
0.78205483 0.36145386 0.00000000
0.81281665 0.37508558 0.00000000
0.84351356 0.38876159 0.00000000
0.87414497 0.40247353 0.00000000
0.89925875 0.41375943 0.00000000
0.92600616 0.42581903 0.00000000
0.95706224 0.43986803 0.00000000
0.99074855 0.45515832 0.00000000
1.00000000 0.51450809 0.27367281
0.04674286 0.16572462 0.03140979
0.05636234 0.16572432 0.03141064
0.09863593 0.16572252 0.03141575
0.13616465 0.16572020 0.03142231
0.17116760 0.16540319 0.03039816
0.20336467 0.18348420 0.02357556
0.23469933 0.18797061 0.01568652
0.26530804 0.19292494 0.00673454
0.29476851 0.19837011 0.00000000
0.32267628 0.20472166 0.00000000
0.35025246 0.21184420 0.00000000
0.37750990 0.21956036 0.00000000
0.40819586 0.22891560 0.00000000
0.43961985 0.23911164 0.00000000
0.47100864 0.24982116 0.00000000
0.50235443 0.26096200 0.00000000
0.53365163 0.27246765 0.00000000
0.56489618 0.28428348 0.00000000
0.59608510 0.29636409 0.00000000
0.62721616 0.30867148 0.00000000
0.65828765 0.32117352 0.00000000
0.68929825 0.33384295 0.00000000
0.72024690 0.34665646 0.00000000
0.75113270 0.35959403 0.00000000
0.78195491 0.37263838 0.00000000
0.81271284 0.38577452 0.00000000
0.84340588 0.39898942 0.00000000
0.87403341 0.41227164 0.00000000
0.89914401 0.42322606 0.00000000
0.92588804 0.43495171 0.00000000
0.95694018 0.44863579 0.00000000
0.99062221 0.46355577 0.00000000
1.00000000 0.52068787 0.27297857
0.04067276 0.19715962 0.02499339
0.05105604 0.19715928 0.02499426
0.09530409 0.19715725 0.02499950
0.13371514 0.19715465 0.02500620
0.16953344 0.19715145 0.02501445
0.20332701 0.19679150 0.02361435
0.23465727 0.19477888 0.01572803
0.26526167 0.22163986 0.00677913
0.29472545 0.22613996 0.00000000
0.32262850 0.23118074 0.00000000
0.35020012 0.23708094 0.00000000
0.37745314 0.24365132 0.00000000
0.40813420 0.25178538 0.00000000
0.43955325 0.26080269 0.00000000
0.47093716 0.27040459 0.00000000
0.50227811 0.28050642 0.00000000
0.53357052 0.29103889 0.00000000
0.56481031 0.30194427 0.00000000
0.59599450 0.31317385 0.00000000
0.62712086 0.32468612 0.00000000
0.65818767 0.33644541 0.00000000
0.68919361 0.34842096 0.00000000
0.72013761 0.36058602 0.00000000
0.75101878 0.37291730 0.00000000
0.78183636 0.38539441 0.00000000
0.81258968 0.39799945 0.00000000
0.84327811 0.41071664 0.00000000
0.87390105 0.42353203 0.00000000
0.89900788 0.43412439 0.00000000
0.92574788 0.44548358 0.00000000
0.95679535 0.45876533 0.00000000
0.99047230 0.47327501 0.00000000
1.00000000 0.52790905 0.27215233
0.03319432 0.22774999 0.01757429
0.04441562 0.22774962 0.01757519
0.09131787 0.22774736 0.01758056
0.13082615 0.22774447 0.01758744
0.16726394 0.22774091 0.01759591
0.20180047 0.22773669 0.01760595
0.23460862 0.22733552 0.01577603
0.26520803 0.22539088 0.00683070
0.29467564 0.25409449 0.00000000
0.32257322 0.25803846 0.00000000
0.35013957 0.26290459 0.00000000
0.37738747 0.26849248 0.00000000
0.40806288 0.27556265 0.00000000
0.43947621 0.28353470 0.00000000
0.47085447 0.29213671 0.00000000
0.50218983 0.30128422 0.00000000
0.53347669 0.31090801 0.00000000
0.56471098 0.32095009 0.00000000
0.59588970 0.33136102 0.00000000
0.62701062 0.34209819 0.00000000
0.65807201 0.35312452 0.00000000
0.68907256 0.36440756 0.00000000
0.72001118 0.37591874 0.00000000
0.75088699 0.38763284 0.00000000
0.78169922 0.39952749 0.00000000
0.81244721 0.41158281 0.00000000
0.84313031 0.42378107 0.00000000
0.87374793 0.43610646 0.00000000
0.89885040 0.44631664 0.00000000
0.92558575 0.45728713 0.00000000
0.95662781 0.47013998 0.00000000
0.99029888 0.48420999 0.00000000
1.00000000 0.53611900 0.27119308
0.02470378 0.25762965 0.00915588
0.03610566 0.25762924 0.00915680
0.08660222 0.25762676 0.00916233
0.12746995 0.25762358 0.00916942
0.16464879 0.25761967 0.00917813
0.19965504 0.25761504 0.00918847
0.23317019 0.25760968 0.00920043
0.26514712 0.25716894 0.00688924
0.29461910 0.25498706 0.00000000
0.32251047 0.28505948 0.00000000
0.35007083 0.28904287 0.00000000
0.37731293 0.29378555 0.00000000
0.40798191 0.29993086 0.00000000
0.43938874 0.30698255 0.00000000
0.47076059 0.31469200 0.00000000
0.50208960 0.32297570 0.00000000
0.53337016 0.33176569 0.00000000
0.56459821 0.34100503 0.00000000
0.59577072 0.35064509 0.00000000
0.62688546 0.36064363 0.00000000
0.65794070 0.37096360 0.00000000
0.68893512 0.38157223 0.00000000
0.71986764 0.39244038 0.00000000
0.75073736 0.40354199 0.00000000
0.78154353 0.41485371 0.00000000
0.81228546 0.42635455 0.00000000
0.84296251 0.43802562 0.00000000
0.87357409 0.44984983 0.00000000
0.89867161 0.45966690 0.00000000
0.92540168 0.47023559 0.00000000
0.95643760 0.48264280 0.00000000
0.99010200 0.49625353 0.00000000
1.00000000 0.54526264 0.27009949
0.01545797 0.28685413 0.00000000
0.02684640 0.28685384 0.00000000
0.08117134 0.28685208 0.00000000
0.12366907 0.28684983 0.00000000
0.16169586 0.28684705 0.00000000
0.19722739 0.28684377 0.00000000
0.23110085 0.28683996 0.00000000
0.26375768 0.28683564 0.00000000
0.29455583 0.28594572 0.00000000
0.32244025 0.28328365 0.00000000
0.34999391 0.31532168 0.00000000
0.37722952 0.31933180 0.00000000
0.40789130 0.32467044 0.00000000
0.43929087 0.33091232 0.00000000
0.47065554 0.33782837 0.00000000
0.50197744 0.34533585 0.00000000
0.53325097 0.35336817 0.00000000
0.56447201 0.36186997 0.00000000
0.59563758 0.37079403 0.00000000
0.62674540 0.38009929 0.00000000
0.65779377 0.38974959 0.00000000
0.68878134 0.39971273 0.00000000
0.71970702 0.40995983 0.00000000
0.75056994 0.42046484 0.00000000
0.78136931 0.43120422 0.00000000
0.81210446 0.44215658 0.00000000
0.84277475 0.45330246 0.00000000
0.87337957 0.46462415 0.00000000
0.89847154 0.47404484 0.00000000
0.92519570 0.48420640 0.00000000
0.95622475 0.49615974 0.00000000
0.98988169 0.50930019 0.00000000
1.00000000 0.55528361 0.26886996
0.01506851 0.31405181 0.00000000
0.02622817 0.31405146 0.00000000
0.07997694 0.31404940 0.00000000
0.12213172 0.31404676 0.00000000
0.15984567 0.31404352 0.00000000
0.19508222 0.31403966 0.00000000
0.22867296 0.31403521 0.00000000
0.26105620 0.31403015 0.00000000
0.29249540 0.31402450 0.00000000
0.32236258 0.31323653 0.00000000
0.34990883 0.31105215 0.00000000
0.37713725 0.34499812 0.00000000
0.40779107 0.34962885 0.00000000
0.43918260 0.35515610 0.00000000
0.47053933 0.36136688 0.00000000
0.50185338 0.36817862 0.00000000
0.53311911 0.37552580 0.00000000
0.56433242 0.38335452 0.00000000
0.59549030 0.39161914 0.00000000
0.62659048 0.40028010 0.00000000
0.65763123 0.40930253 0.00000000
0.68861121 0.41865528 0.00000000
0.71952934 0.42831029 0.00000000
0.75038472 0.43824209 0.00000000
0.78117658 0.44842746 0.00000000
0.81190423 0.45884515 0.00000000
0.84256703 0.46947568 0.00000000
0.87316438 0.48030115 0.00000000
0.89825022 0.48932831 0.00000000
0.92496784 0.49908375 0.00000000
0.95598930 0.51058205 0.00000000
0.98963797 0.52324851 0.00000000
1.00000000 0.56612540 0.26750260
0.01475084 0.34093209 0.00000000
0.02573838 0.34093170 0.00000000
0.07905342 0.34092936 0.00000000
0.12095236 0.34092636 0.00000000
0.15843097 0.34092266 0.00000000
0.19344482 0.34091828 0.00000000
0.22682167 0.34091322 0.00000000
0.25899768 0.34090747 0.00000000
0.29023495 0.34090103 0.00000000
0.32070564 0.34089392 0.00000000
0.34981558 0.34018842 0.00000000
0.37703613 0.33836351 0.00000000
0.40768123 0.33674551 0.00000000
0.43906395 0.37959314 0.00000000
0.47041197 0.38517540 0.00000000
0.50171741 0.39136329 0.00000000
0.53297460 0.39809185 0.00000000
0.56417943 0.40530833 0.00000000
0.59532888 0.41296853 0.00000000
0.62642068 0.42103437 0.00000000
0.65745310 0.42947239 0.00000000
0.68842477 0.43825275 0.00000000
0.71933462 0.44734844 0.00000000
0.75018174 0.45673491 0.00000000
0.78096536 0.46638963 0.00000000
0.81168479 0.47629186 0.00000000
0.84233939 0.48642245 0.00000000
0.87292855 0.49676370 0.00000000
0.89800767 0.50540487 0.00000000
0.92471812 0.51476014 0.00000000
0.95573125 0.52580792 0.00000000
0.98937088 0.53800266 0.00000000
1.00000000 0.57773226 0.26599517
0.01447973 0.36750582 0.00000000
0.02533361 0.36750538 0.00000000
0.07831503 0.36750277 0.00000000
0.12001859 0.36749942 0.00000000
0.15731546 0.36749531 0.00000000
0.19215650 0.36749042 0.00000000
0.22536697 0.36748477 0.00000000
0.25738153 0.36747836 0.00000000
0.28846131 0.36747119 0.00000000
0.31877780 0.36746326 0.00000000
0.34845102 0.36745457 0.00000000
0.37692616 0.36681714 0.00000000
0.40756177 0.36507947 0.00000000
0.43893491 0.36367509 0.00000000
0.47027347 0.40915617 0.00000000
0.50156954 0.41478342 0.00000000
0.53281744 0.42095308 0.00000000
0.56401306 0.42761318 0.00000000
0.59515335 0.43472062 0.00000000
0.62623603 0.44223868 0.00000000
0.65725937 0.45013524 0.00000000
0.68822201 0.45838175 0.00000000
0.71912285 0.46695243 0.00000000
0.74996100 0.47582375 0.00000000
0.78073566 0.48497410 0.00000000
0.81144616 0.49438347 0.00000000
0.84209183 0.50403331 0.00000000
0.87267208 0.51390633 0.00000000
0.89774389 0.52217246 0.00000000
0.92444656 0.53113724 0.00000000
0.95545062 0.54174335 0.00000000
0.98908041 0.55347337 0.00000000
1.00000000 0.59005004 0.26434512
0.01420759 0.39742560 0.00000000
0.02494167 0.39742512 0.00000000
0.07763021 0.39742221 0.00000000
0.11916329 0.39741849 0.00000000
0.15629913 0.39741391 0.00000000
0.19098606 0.39740848 0.00000000
0.22404764 0.39740220 0.00000000
0.25591741 0.39739507 0.00000000
0.28685576 0.39738709 0.00000000
0.31703364 0.39737827 0.00000000
0.34657068 0.39736861 0.00000000
0.37555476 0.39735810 0.00000000
0.40741397 0.39678345 0.00000000
0.43877526 0.39527025 0.00000000
0.47010210 0.39405887 0.00000000
0.50138658 0.44165223 0.00000000
0.53262299 0.44724932 0.00000000
0.56380720 0.45333662 0.00000000
0.59493615 0.45987194 0.00000000
0.62600756 0.46681974 0.00000000
0.65701967 0.47414928 0.00000000
0.68797113 0.48183338 0.00000000
0.71886083 0.48984759 0.00000000
0.74968786 0.49816964 0.00000000
0.78045144 0.50677903 0.00000000
0.81115087 0.51565674 0.00000000
0.84178551 0.52478506 0.00000000
0.87235474 0.53414741 0.00000000
0.89741750 0.54200255 0.00000000
0.92411052 0.55053755 0.00000000
0.95510338 0.56065530 0.00000000
0.98872098 0.57186890 0.00000000
1.00000000 0.60488460 0.26228763
0.01395160 0.42806764 0.00000000
0.02458705 0.42806710 0.00000000
0.07704275 0.42806391 0.00000000
0.11844112 0.42805981 0.00000000
0.15544690 0.42805478 0.00000000
0.19000825 0.42804880 0.00000000
0.22294791 0.42804189 0.00000000
0.25469880 0.42803405 0.00000000
0.28552081 0.42802527 0.00000000
0.31558451 0.42801557 0.00000000
0.34500927 0.42800494 0.00000000
0.37388274 0.42799338 0.00000000
0.40619256 0.42797908 0.00000000
0.43859549 0.42745890 0.00000000
0.46990915 0.42615819 0.00000000
0.50118058 0.42510006 0.00000000
0.53240405 0.47469579 0.00000000
0.56357541 0.48024985 0.00000000
0.59469159 0.48625010 0.00000000
0.62575030 0.49266189 0.00000000
0.65674977 0.49945560 0.00000000
0.68768864 0.50660528 0.00000000
0.71856579 0.51408773 0.00000000
0.74938031 0.52188193 0.00000000
0.78013141 0.52996851 0.00000000
0.81081839 0.53832955 0.00000000
0.84144060 0.54694826 0.00000000
0.87199741 0.55580894 0.00000000
0.89704999 0.56325839 0.00000000
0.92373216 0.57136736 0.00000000
0.95471239 0.58099874 0.00000000
0.98831628 0.59169541 0.00000000
1.00000000 0.62109197 0.25994955
0.01370903 0.45867701 0.00000000
0.02426344 0.45867643 0.00000000
0.07653710 0.45867295 0.00000000
0.11783080 0.45866850 0.00000000
0.15473254 0.45866301 0.00000000
0.18919226 0.45865651 0.00000000
0.22203266 0.45864898 0.00000000
0.25368641 0.45864044 0.00000000
0.28441314 0.45863089 0.00000000
0.31438320 0.45862033 0.00000000
0.34371576 0.45860875 0.00000000
0.37249830 0.45859617 0.00000000
0.40470595 0.45858060 0.00000000
0.43752004 0.45856308 0.00000000
0.46969826 0.45808919 0.00000000
0.50095541 0.45695824 0.00000000
0.53216474 0.45602489 0.00000000
0.56332206 0.50762075 0.00000000
0.59442429 0.51313310 0.00000000
0.62546912 0.51905416 0.00000000
0.65645478 0.52535512 0.00000000
0.68737988 0.53201103 0.00000000
0.71824331 0.53899977 0.00000000
0.74904416 0.54630143 0.00000000
0.77978162 0.55389775 0.00000000
0.81045498 0.56177182 0.00000000
0.84106360 0.56990786 0.00000000
0.87160685 0.57829102 0.00000000
0.89664830 0.58535264 0.00000000
0.92331860 0.59305267 0.00000000
0.95428503 0.60221516 0.00000000
0.98787394 0.61241109 0.00000000
1.00000000 0.63825787 0.25736736
0.01347309 0.48924529 0.00000000
0.02395933 0.48924467 0.00000000
0.07608949 0.48924091 0.00000000
0.11730129 0.48923610 0.00000000
0.15411845 0.48923018 0.00000000
0.18849435 0.48922315 0.00000000
0.22125230 0.48921503 0.00000000
0.25282501 0.48920581 0.00000000
0.28347203 0.48919549 0.00000000
0.31336359 0.48918409 0.00000000
0.34261876 0.48917159 0.00000000
0.37132492 0.48915800 0.00000000
0.40344663 0.48914120 0.00000000
0.43617276 0.48912228 0.00000000
0.46872812 0.48910162 0.00000000
0.50071068 0.48866719 0.00000000
0.53190463 0.48767357 0.00000000
0.56304669 0.48684282 0.00000000
0.59413375 0.54043386 0.00000000
0.62516349 0.54590542 0.00000000
0.65613413 0.55175342 0.00000000
0.68704427 0.55795366 0.00000000
0.71789280 0.56448493 0.00000000
0.74867878 0.57132824 0.00000000
0.77940141 0.57846631 0.00000000
0.81005998 0.58588322 0.00000000
0.84065383 0.59356410 0.00000000
0.87118233 0.60149499 0.00000000
0.89621168 0.60818782 0.00000000
0.92286908 0.61549756 0.00000000
0.95382052 0.62421073 0.00000000
0.98739313 0.63392471 0.00000000
1.00000000 0.65632456 0.25452809
0.01323897 0.51976636 0.00000000
0.02366657 0.51976569 0.00000000
0.07568301 0.51976166 0.00000000
0.11683055 0.51975650 0.00000000
0.15357797 0.51975015 0.00000000
0.18788353 0.51974261 0.00000000
0.22057168 0.51973390 0.00000000
0.25207543 0.51972401 0.00000000
0.28265441 0.51971295 0.00000000
0.31247883 0.51970072 0.00000000
0.34166768 0.51968731 0.00000000
0.37030831 0.51967274 0.00000000
0.40235625 0.51965472 0.00000000
0.43500678 0.51963443 0.00000000
0.46748657 0.51961227 0.00000000
0.49981468 0.51958820 0.00000000
0.53162329 0.51918769 0.00000000
0.56274884 0.51830633 0.00000000
0.59381949 0.51756060 0.00000000
0.62483292 0.57313986 0.00000000
0.65578731 0.57857125 0.00000000
0.68668127 0.58435105 0.00000000
0.71751367 0.59045875 0.00000000
0.74828357 0.59687614 0.00000000
0.77899016 0.60358680 0.00000000
0.80963273 0.61057564 0.00000000
0.84021060 0.61782866 0.00000000
0.87072315 0.62533273 0.00000000
0.89573941 0.63167627 0.00000000
0.92238286 0.63861513 0.00000000
0.95331808 0.64689977 0.00000000
0.98687306 0.65615221 0.00000000
1.00000000 0.67523631 0.25141745
0.01300313 0.55023570 0.00000000
0.02337924 0.55023498 0.00000000
0.07530538 0.55023068 0.00000000
0.11640259 0.55022518 0.00000000
0.15309175 0.55021841 0.00000000
0.18733731 0.55021037 0.00000000
0.21996532 0.55020108 0.00000000
0.25140930 0.55019053 0.00000000
0.28192909 0.55017873 0.00000000
0.31169494 0.55016569 0.00000000
0.34082587 0.55015139 0.00000000
0.36940918 0.55013585 0.00000000
0.40139251 0.55011662 0.00000000
0.43397679 0.55009499 0.00000000
0.46639029 0.55007135 0.00000000
0.49865209 0.55004568 0.00000000
0.53077697 0.55001792 0.00000000
0.56242807 0.54964675 0.00000000
0.59348105 0.54885799 0.00000000
0.62447690 0.54818319 0.00000000
0.65541379 0.54759978 0.00000000
0.68629033 0.61113365 0.00000000
0.71710536 0.61684918 0.00000000
0.74785794 0.62287102 0.00000000
0.77854726 0.62918343 0.00000000
0.80917259 0.63577209 0.00000000
0.83973326 0.64262374 0.00000000
0.87022863 0.64972602 0.00000000
0.89523079 0.65573969 0.00000000
0.92185921 0.66232726 0.00000000
0.95277695 0.67020463 0.00000000
0.98631295 0.67901681 0.00000000
1.00000000 0.69494017 0.24801962
0.01276294 0.58064992 0.00000000
0.02309295 0.58064915 0.00000000
0.07494745 0.58064459 0.00000000
0.11600554 0.58063875 0.00000000
0.15264548 0.58063156 0.00000000
0.18683906 0.58062303 0.00000000
0.21941435 0.58061317 0.00000000
0.25080562 0.58060197 0.00000000
0.28127299 0.58058944 0.00000000
0.31098683 0.58057559 0.00000000
0.34006620 0.58056041 0.00000000
0.36859843 0.58054392 0.00000000
0.40052413 0.58052351 0.00000000
0.43304925 0.58050054 0.00000000
0.46540353 0.58047545 0.00000000
0.49760605 0.58044819 0.00000000
0.52967160 0.58041873 0.00000000
0.56161184 0.58038701 0.00000000
0.59311797 0.58004134 0.00000000
0.62409496 0.57932952 0.00000000
0.65501308 0.57871421 0.00000000
0.68587092 0.57817703 0.00000000
0.71666731 0.64359473 0.00000000
0.74740132 0.64924915 0.00000000
0.77807210 0.65519064 0.00000000
0.80867894 0.66140548 0.00000000
0.83922115 0.66788109 0.00000000
0.86969809 0.67460575 0.00000000
0.89468512 0.68030852 0.00000000
0.92129742 0.68656410 0.00000000
0.95219642 0.69405544 0.00000000
0.98571206 0.70244891 0.00000000
1.00000000 0.71538646 0.24431692
0.01251640 0.61100642 0.00000000
0.02280438 0.61100561 0.00000000
0.07460229 0.61100079 0.00000000
0.11563047 0.61099461 0.00000000
0.15222836 0.61098701 0.00000000
0.18637624 0.61097799 0.00000000
0.21890459 0.61096756 0.00000000
0.25024859 0.61095572 0.00000000
0.28066873 0.61094248 0.00000000
0.31033559 0.61092783 0.00000000
0.33936830 0.61091178 0.00000000
0.36785422 0.61089434 0.00000000
0.39972759 0.61087276 0.00000000
0.43219896 0.61084847 0.00000000
0.46449938 0.61082194 0.00000000
0.49664797 0.61079312 0.00000000
0.52865952 0.61076197 0.00000000
0.56054569 0.61072843 0.00000000
0.59231580 0.61069248 0.00000000
0.62368662 0.61036905 0.00000000
0.65458468 0.60972155 0.00000000
0.68542252 0.60915637 0.00000000
0.71619900 0.60865836 0.00000000
0.74691313 0.67595580 0.00000000
0.77756410 0.68155172 0.00000000
0.80815117 0.68741744 0.00000000
0.83867364 0.69354092 0.00000000
0.86913087 0.69991103 0.00000000
0.89410174 0.70532116 0.00000000
0.92069680 0.71126349 0.00000000
0.95157576 0.71838960 0.00000000
0.98506962 0.72638572 0.00000000
1.00000000 0.73652913 0.24028941
0.01226193 0.64130317 0.00000000
0.02251098 0.64130232 0.00000000
0.07426458 0.64129724 0.00000000
0.11527050 0.64129073 0.00000000
0.15183212 0.64128272 0.00000000
0.18593926 0.64127322 0.00000000
0.21842519 0.64126223 0.00000000
0.24972612 0.64124975 0.00000000
0.28010305 0.64123580 0.00000000
0.30972677 0.64122036 0.00000000
0.33871655 0.64120345 0.00000000
0.36715980 0.64118507 0.00000000
0.39898491 0.64116233 0.00000000
0.43140664 0.64113674 0.00000000
0.46365729 0.64110879 0.00000000
0.49575600 0.64107842 0.00000000
0.52771759 0.64104559 0.00000000
0.55955373 0.64101025 0.00000000
0.59127374 0.64097237 0.00000000
0.62288513 0.64093190 0.00000000
0.65412810 0.64062793 0.00000000
0.68494464 0.64003445 0.00000000
0.71569988 0.63951161 0.00000000
0.74639284 0.63904683 0.00000000
0.77702269 0.70821763 0.00000000
0.80758868 0.71375718 0.00000000
0.83809012 0.71955095 0.00000000
0.86852635 0.72558830 0.00000000
0.89347999 0.73072315 0.00000000
0.92005667 0.73637021 0.00000000
0.95091427 0.74315120 0.00000000
0.98438492 0.75077082 0.00000000
1.00000000 0.75832584 0.23591447
0.01199830 0.67153854 0.00000000
0.02221072 0.67153765 0.00000000
0.07393011 0.67153231 0.00000000
0.11492028 0.67152547 0.00000000
0.15145033 0.67151706 0.00000000
0.18552068 0.67150707 0.00000000
0.21796769 0.67149553 0.00000000
0.24922882 0.67148242 0.00000000
0.27956562 0.67146776 0.00000000
0.30914916 0.67145155 0.00000000
0.33809886 0.67143378 0.00000000
0.36650221 0.67141447 0.00000000
0.39828213 0.67139058 0.00000000
0.43065734 0.67136370 0.00000000
0.46286131 0.67133433 0.00000000
0.49491321 0.67130242 0.00000000
0.52682789 0.67126793 0.00000000
0.55861703 0.67123081 0.00000000
0.59028997 0.67119102 0.00000000
0.62185422 0.67114850 0.00000000
0.65331592 0.67110323 0.00000000
0.68443677 0.67081631 0.00000000
0.71516944 0.67026837 0.00000000
0.74583990 0.66978137 0.00000000
0.77644730 0.66934477 0.00000000
0.80699089 0.74038049 0.00000000
0.83746998 0.74586543 0.00000000
0.86788388 0.75159046 0.00000000
