luts/Kodak_gold200.cube
TITLE "Panasonic S9 Standard to Kodak Gold 200 (Warm Golden) v2"
#LUMIXPHOTOSTYLE STD
# Film Emulation LUT
# Generated by lutex.py
# Grid: 33^3
LUT_3D_SIZE 9
DOMAIN_MIN 0.0 0.0 0.0
DOMAIN_MAX 1.0 1.0 1.0
0.05817493 0.05515139 0.04480413
0.17123898 0.07866247 0.03031972
0.29486116 0.11609308 0.00000000
0.40832853 0.16799306 0.00000000
0.53382616 0.22644164 0.00000000
0.65850279 0.28494027 0.00000000
0.78221000 0.34319018 0.00000000
0.89943694 0.39849519 0.00000000
1.00000000 0.50473144 0.27474722
0.04674286 0.16572462 0.03140979
0.17116760 0.16540319 0.03039816
0.29476851 0.19837011 0.00000000
0.40819586 0.22891560 0.00000000
0.53365163 0.27246765 0.00000000
0.65828765 0.32117352 0.00000000
0.78195491 0.37263838 0.00000000
0.89914401 0.42322606 0.00000000
1.00000000 0.52068787 0.27297857
0.01545797 0.28685413 0.00000000
0.16169586 0.28684705 0.00000000
0.29455583 0.28594572 0.00000000
0.40789130 0.32467044 0.00000000
0.53325097 0.35336817 0.00000000
0.65779377 0.38974959 0.00000000
0.78136931 0.43120422 0.00000000
0.89847154 0.47404484 0.00000000
1.00000000 0.55528361 0.26886996
0.01420759 0.39742560 0.00000000
0.15629913 0.39741391 0.00000000
0.28685576 0.39738709 0.00000000
0.40741397 0.39678345 0.00000000
0.53262299 0.44724932 0.00000000
0.65701967 0.47414928 0.00000000
0.78045144 0.50677903 0.00000000
0.89741750 0.54200255 0.00000000
1.00000000 0.60488460 0.26228763
0.01323897 0.51976636 0.00000000
0.15357797 0.51975015 0.00000000
0.28265441 0.51971295 0.00000000
0.40235625 0.51965472 0.00000000
0.53162329 0.51918769 0.00000000
0.65578731 0.57857125 0.00000000
0.77899016 0.60358680 0.00000000
0.89573941 0.63167627 0.00000000
1.00000000 0.67523631 0.25141745
0.01226193 0.64130317 0.00000000
0.15183212 0.64128272 0.00000000
0.28010305 0.64123580 0.00000000
0.39898491 0.64116233 0.00000000
0.52771759 0.64104559 0.00000000
0.65412810 0.64062793 0.00000000
0.77702269 0.70821763 0.00000000
0.89347999 0.73072315 0.00000000
1.00000000 0.75832584 0.23591447
0.01114318 0.76186380 0.00000000
0.15034575 0.76183925 0.00000000
0.27804963 0.76178293 0.00000000
0.39631416 0.76169476 0.00000000
0.52434481 0.76155463 0.00000000
0.65031210 0.76136646 0.00000000
0.77451167 0.76094456 0.00000000
0.89344073 0.76022049 0.00000000
1.00000000 0.85141833 0.26172372
0.01061574 0.87671007 0.00000000
0.14967079 0.87676679 0.00000000
0.27733472 0.87689689 0.00000000
0.39584448 0.87710049 0.00000000
0.52467832 0.87742385 0.00000000
0.65221755 0.87785774 0.00000000
0.77916820 0.87840900 0.00000000
0.90011410 0.87885345 0.00000000
1.00000000 0.86363119 0.30063712
0.11921090 1.00000000 0.11340156
0.19648729 1.00000000 0.11424777
0.30365538 1.00000000 0.11616697
0.41345431 1.00000000 0.11911223
0.53686914 1.00000000 0.12365336
0.66069629 1.00000000 0.12950701
0.78450900 1.00000000 0.13659367
0.90267474 1.00000000 0.14441362
1.00000000 0.97167849 0.34381880
0.00000000 0.00000000 0.00000000
0.17104342 0.04164657 0.14835748
0.29528784 0.00792531 0.13645092
0.40945284 0.08587455 0.00000000
0.53461323 0.17683392 0.00000000
0.65908671 0.24918469 0.00000000
0.78265881 0.31534722 0.00000000
0.89979301 0.37559279 0.00000000
1.00000000 0.49037045 0.27621825
0.04597711 0.16546594 0.14873015
0.16767438 0.16178390 0.14465347
0.29340265 0.18576089 0.13241653
0.41290500 0.21341758 0.11066409
0.54334871 0.25050031 0.06417464
0.66973813 0.29635286 0.00000000
0.79116856 0.35206458 0.00000000
0.90685564 0.40569021 0.00000000
1.00000000 0.51968764 0.30544023
0.01437669 0.28675684 0.13778264
0.15794621 0.28493484 0.13374198
0.29314493 0.28443331 0.13274904
0.41256617 0.31963805 0.11109973
0.54291906 0.34398160 0.06496573
0.66928958 0.37571144 0.00000000
0.79061960 0.41724633 0.00000000
0.90621388 0.46085562 0.00000000
1.00000000 0.55425520 0.30193938
0.00000000 0.39891246 0.12978937
0.14077640 0.40160170 0.11394869
0.28505920 0.40156732 0.11405896
0.41203506 0.40090774 0.11177849
0.54224560 0.44749035 0.06618966
0.66315082 0.47021355 0.08047671
0.78975923 0.49933398 0.00000000
0.90520805 0.53348137 0.00000000
1.00000000 0.60381829 0.29636045
0.00000000 0.52078062 0.12817487
0.10814899 0.52890058 0.07336663
0.27086289 0.52885754 0.07353735
0.40322418 0.52879016 0.07380397
0.54117338 0.52796484 0.06809948
0.66186968 0.57961469 0.08201429
0.78734821 0.60244899 0.02235579
0.90360688 0.62805954 0.00000000
1.00000000 0.67412356 0.28723218
0.00000000 0.64202720 0.12816556
0.05662141 0.65334253 0.00000000
0.25321289 0.65330728 0.00000000
0.39097521 0.65325210 0.00000000
0.53187905 0.65316441 0.00000000
0.66596185 0.65165013 0.00000000
0.78654616 0.71289932 0.00000000
0.90145136 0.73153646 0.00000000
1.00000000 0.75717307 0.27441313
0.00000000 0.76239031 0.12897511
0.05034749 0.77163879 0.00000000
0.24705442 0.77159191 0.00000000
0.38293794 0.77151852 0.00000000
0.52167196 0.77140189 0.00000000
0.65498730 0.77124527 0.00000000
0.78419395 0.77007514 0.00000000
0.90149362 0.76395200 0.00000000
1.00000000 0.85042621 0.29632896
0.00000000 0.87715424 0.12924228
0.04778338 0.88499479 0.00000000
0.24432081 0.88510908 0.00000000
0.37968693 0.88528796 0.00000000
0.51834283 0.88557207 0.00000000
0.65229786 0.88595332 0.00000000
0.78405268 0.88643774 0.00000000
0.90786045 0.88595426 0.00000000
1.00000000 0.86395242 0.32973573
0.11957507 1.00000000 0.18010017
0.19751703 1.00000000 0.18146607
0.30428182 1.00000000 0.18257549
0.41388188 1.00000000 0.18429780
0.53716858 1.00000000 0.18699914
0.66090999 1.00000000 0.19056073
0.78465505 1.00000000 0.19498730
0.90276202 1.00000000 0.20001048
1.00000000 0.97172979 0.36798185
0.00000000 0.00000000 0.00000000
0.16389556 0.01796003 0.26529481
0.29526385 0.00793051 0.26360870
0.40942175 0.00000000 0.25601682
0.53457335 0.00000000 0.25262754
0.65903813 0.12261121 0.00000000
0.78260155 0.23354718 0.00000000
0.89972750 0.31301945 0.00000000
1.00000000 0.45255024 0.27582707
0.00000000 0.00000000 0.00000000
0.00000000 0.00000000 0.00000000
0.29293430 0.14993392 0.26127022
0.41258164 0.13090541 0.25158453
0.54310430 0.12345604 0.09339094
0.67195916 0.19682650 0.00459931
0.79309940 0.27920526 0.00000000
0.90840106 0.34775368 0.00000000
1.00000000 0.48761135 0.31113477
0.01436901 0.28674897 0.26455048
0.15673020 0.28430560 0.26193340
0.28862883 0.27976976 0.25709766
0.40957094 0.30254679 0.24722802
0.54077739 0.32836545 0.23058323
0.66998799 0.35951926 0.20591434
0.79763187 0.39479686 0.16899176
0.91829296 0.43138056 0.11099716
1.00000000 0.55199341 0.36638159
0.00000000 0.39890119 0.25729957
0.13945113 0.40119325 0.25335803
0.28036670 0.39848238 0.24883662
0.40902085 0.39781344 0.24797771
0.54009052 0.43625968 0.23144168
0.66222916 0.46125480 0.23362443
0.79666486 0.48529480 0.17039686
0.91719083 0.51400118 0.11332211
1.00000000 0.60143479 0.36224982
0.00000000 0.52076671 0.25422085
0.10652424 0.52861972 0.23903951
0.26583947 0.52665327 0.23412087
0.40010390 0.52658246 0.23435097
0.53899690 0.52574950 0.23279826
0.66093916 0.57271410 0.23491123
0.78658449 0.59585706 0.21936252
0.90541380 0.62132816 0.19962999
1.00000000 0.67159311 0.35556465
0.00000000 0.64201056 0.25374604
0.03566584 0.65435391 0.21820624
0.24482352 0.65280794 0.21262249
0.38692712 0.65272416 0.21288547
0.53003722 0.65259102 0.21330257
0.66607446 0.65162780 0.21079995
0.79305209 0.71209199 0.17552194
0.90308710 0.72710422 0.20191432
1.00000000 0.75451404 0.34634251
0.00000000 0.76237089 0.25454230
0.00000000 0.77389613 0.20991592
0.21482337 0.77737002 0.18135523
0.36940650 0.77727287 0.18167810
0.51747304 0.77711849 0.18218982
0.65664179 0.77691115 0.18287441
0.79052400 0.77589406 0.17899806
0.91332494 0.76863927 0.12111546
1.00000000 0.84815190 0.36299575
0.00000000 0.87719838 0.25462388
0.00000000 0.88687168 0.20812615
0.17476254 0.89615413 0.13111853
0.35019101 0.89637401 0.13017945
0.50634783 0.89672322 0.12867352
0.65086522 0.89719177 0.12662416
0.79043318 0.89778704 0.12397077
0.91965449 0.89663179 0.11436362
1.00000000 0.86475053 0.38815703
0.12019514 1.00000000 0.27715837
0.19818622 1.00000000 0.27809076
0.30583415 1.00000000 0.27987111
0.41494177 1.00000000 0.28071834
0.53790961 1.00000000 0.28205834
0.66143713 1.00000000 0.28384570
0.78501331 1.00000000 0.28609938
0.90297368 1.00000000 0.28869933
1.00000000 0.97186086 0.41822937
0.00384846 0.06996602 0.20563208
0.01014322 0.00384488 0.20576859
0.28900039 0.00000000 0.37393585
0.40937227 0.00000000 0.37167478
0.53450988 0.00000000 0.36700213
0.65896079 0.00000000 0.36519900
0.78251043 0.00000000 0.36463111
0.89962322 0.15861745 0.00000000
1.00000000 0.38243416 0.27520319
0.00492680 0.11188129 0.20663797
0.08441919 0.12047060 0.23614706
0.28734750 0.13793111 0.37563150
0.41253042 0.13090554 0.37368286
0.54303888 0.09340271 0.36393505
0.67187961 0.00465092 0.35036941
0.79300890 0.01715565 0.00000000
0.90829731 0.21549374 0.00000000
1.00000000 0.42475635 0.31059055
0.00488245 0.17405966 0.20767077
0.08934196 0.19640117 0.23865764
0.20122588 0.20907334 0.27452541
0.40879484 0.26941203 0.37045918
0.54020928 0.25404987 0.36062443
0.66953556 0.24611731 0.23163981
0.79725018 0.29721856 0.19914764
0.91795534 0.34580029 0.15209304
1.00000000 0.50594290 0.37750022
0.00000000 0.39888326 0.37383724
0.13942367 0.40117673 0.37533225
0.27874271 0.39742979 0.37147762
0.40416297 0.39282334 0.36680981
0.53663560 0.41759235 0.35685326
0.66650317 0.44115768 0.34297556
0.79450989 0.46892172 0.32436542
0.91536426 0.49873591 0.30104687
1.00000000 0.59804883 0.44426455
0.00000000 0.52074456 0.36950836
0.10649194 0.52859835 0.36728226
0.26421012 0.52594355 0.36334258
0.39507177 0.52304204 0.35912851
0.53550743 0.52219672 0.35841624
0.65945375 0.56149955 0.35733942
0.78536625 0.58516143 0.34843551
0.91359208 0.60614867 0.30323682
1.00000000 0.66784930 0.43963202
0.00000000 0.64198406 0.36872252
0.03560667 0.65432778 0.35617012
0.24317743 0.65230215 0.35210583
0.38162938 0.65000204 0.34757601
0.52643518 0.64986225 0.34804141
0.66335440 0.64888901 0.34694772
0.78331263 0.69805164 0.35057554
0.90202872 0.71873580 0.34004612
1.00000000 0.75045222 0.43331550
0.00000000 0.76233999 0.36964841
0.00000000 0.77386277 0.34996472
0.21312952 0.77700065 0.33723970
0.36372602 0.77506815 0.33226298
0.51371391 0.77490847 0.33276227
0.65383461 0.77469402 0.33343118
0.78857715 0.77375854 0.33151407
0.91178981 0.83846000 0.30543924
1.00000000 0.84472092 0.44563519
0.00000000 0.87726862 0.36944627
0.00000000 0.88694601 0.34650888
0.17282432 0.89594559 0.31499066
0.34434341 0.89465446 0.30854988
0.50274775 0.89501237 0.30743525
0.64833973 0.89549258 0.30593124
0.78855386 0.89610267 0.30400616
0.91792311 0.89472209 0.30043846
1.00000000 0.93500895 0.46342868
0.12117564 1.00000000 0.37854653
0.19880510 1.00000000 0.37907636
0.30674560 1.00000000 0.38042520
0.41680508 1.00000000 0.38210346
0.53920882 1.00000000 0.38264542
0.66235606 1.00000000 0.38337155
0.78563165 1.00000000 0.38429237
0.90333155 1.00000000 0.38536191
1.00000000 0.97210295 0.48541806
0.00000000 0.15550566 0.39059245
0.00000000 0.09162774 0.39070949
0.14749357 0.00000000 0.39097782
0.40513330 0.00000000 0.49222906
0.53440773 0.00000000 0.49111491
0.65883633 0.00000000 0.48876478
0.78236377 0.00000000 0.48800946
0.89945540 0.00000000 0.48809569
1.00000000 0.27419585 0.52855477
0.00000000 0.19797839 0.39136657
0.10387384 0.19073370 0.40158815
0.15482836 0.10386376 0.40184553
0.40681014 0.10876344 0.49956922
0.54293359 0.09342165 0.49752726
0.67175158 0.00473396 0.48877100
0.79286326 0.00000000 0.48142216
0.90813033 0.00000000 0.47782111
1.00000000 0.30971246 0.52985705
0.00000000 0.26940590 0.39225870
0.10927651 0.27046802 0.40301278
0.22422238 0.26196897 0.41724550
0.40293761 0.25975878 0.49761091
0.54010363 0.25404143 0.49562749
0.66940722 0.23164040 0.48684619
0.79709919 0.19916336 0.47543370
0.91778272 0.15213726 0.46175816
1.00000000 0.40410697 0.37679763
0.00000000 0.41808397 0.49392533
0.10905640 0.35571678 0.40434012
0.23195010 0.36007577 0.41946578
0.34029182 0.34832892 0.43273860
0.53564096 0.38180022 0.49264124
0.66572008 0.36838182 0.48382009
0.79385662 0.35048076 0.47235287
0.91479267 0.38077847 0.32822603
1.00000000 0.52992096 0.45920767
0.00000000 0.52070893 0.49452152
0.10643996 0.52856397 0.50099652
0.26414470 0.52591005 0.49842636
0.39316269 0.52172654 0.49437488
0.52982450 0.52298623 0.48936724
0.66080679 0.54077967 0.48046532
0.78942772 0.56229817 0.46888827
0.91061125 0.58600407 0.45500301
1.00000000 0.66276098 0.54360936
0.00000000 0.64194144 0.49343338
0.03551146 0.65428573 0.49464793
0.24310848 0.65226077 0.49205376
0.37981209 0.64907856 0.48796372
0.52056586 0.64543492 0.48347923
0.65894202 0.64444528 0.48308912
0.78132014 0.68382510 0.48294133
0.90032046 0.70498170 0.47640399
1.00000000 0.74448663 0.53970253
0.00000000 0.76229025 0.49454293
0.00000000 0.77380910 0.48883388
0.21305397 0.77695153 0.48384948
0.36203441 0.77440657 0.47970791
0.50758400 0.77133085 0.47488166
0.64927950 0.77110483 0.47565118
0.78543936 0.77031436 0.47402383
0.90142295 0.82108682 0.47518540
1.00000000 0.83980526 0.54820983
0.00000000 0.87738163 0.49374575
0.00000000 0.88706561 0.48352471
0.17300091 0.89605828 0.46920909
0.34272455 0.89423063 0.46368933
0.49690026 0.89225724 0.45697743
0.64425965 0.89275635 0.45534033
0.78552562 0.89339042 0.45324812
0.91524480 0.89175980 0.45073734
1.00000000 0.93010058 0.55946282
0.12273749 1.00000000 0.49337077
0.19979651 1.00000000 0.49361979
0.30742191 1.00000000 0.49428141
0.41809865 1.00000000 0.49560704
0.54167435 1.00000000 0.49723873
0.66408518 1.00000000 0.49716220
0.78677734 1.00000000 0.49706488
0.90397308 1.00000000 0.49695144
1.00000000 0.97259504 0.57371572
0.00000000 0.22521360 0.53737830
0.00000000 0.17840744 0.53750513
0.07871412 0.00000000 0.53779594
0.40187991 0.00000000 0.61069173
0.53198280 0.00000000 0.61130603
0.65866745 0.00000000 0.61101211
0.78216477 0.00000000 0.61007449
0.89922770 0.00000000 0.61016612
1.00000000 0.27282246 0.62959018
0.00000000 0.26147457 0.53805862
0.09766347 0.24820585 0.54596399
0.09761128 0.12619706 0.54625378
0.39608396 0.05035067 0.62256577
0.53777351 0.04974843 0.62320308
0.67157786 0.00484660 0.62122629
0.79266563 0.00000000 0.61222838
0.90790376 0.00000000 0.60767350
1.00000000 0.30851658 0.63069764
0.00000000 0.32786770 0.53902960
0.10408198 0.32260775 0.54717893
0.23101972 0.30914563 0.55396791
0.28637579 0.23098428 0.55440324
0.53482543 0.24087024 0.62205589
0.66923307 0.23164121 0.62015711
0.79689430 0.19918467 0.61227207
0.91754849 0.15219723 0.60296776
1.00000000 0.37584200 0.63325567
0.00000000 0.40760138 0.54054513
0.10361352 0.40719552 0.54868976
0.23888652 0.40332714 0.55592088
0.34872906 0.38593051 0.56333026
0.53017428 0.37359928 0.62025925
0.66554524 0.36836148 0.61848332
0.79365108 0.35046974 0.61059747
0.91455781 0.32822746 0.60129193
1.00000000 0.45844476 0.63731834
0.00000000 0.45634000 0.54294206
0.10286092 0.46132629 0.55108007
0.24910646 0.54430637 0.62435071
0.35836645 0.50488351 0.56616960
0.47704822 0.48297488 0.57345142
0.65964172 0.50579304 0.61582373
0.78847069 0.49386650 0.60793664
0.90978643 0.47956360 0.59862921
1.00000000 0.58134113 0.56040754
0.00000000 0.64188361 0.61678339
0.03538231 0.65422868 0.62758567
0.24301492 0.65220464 0.62577597
0.37969439 0.64902387 0.62293374
0.51851624 0.64393869 0.61839417
0.65288475 0.64477952 0.61361401
0.78239888 0.66181021 0.60567079
0.90406343 0.68087356 0.59629518
1.00000000 0.73808313 0.65152620
0.00000000 0.76222278 0.61809179
0.00000000 0.77373628 0.62159121
0.21295145 0.77688489 0.62123719
0.36191288 0.77434108 0.61839467
0.50574945 0.77028495 0.61385451
0.64302344 0.76619269 0.60957138
0.78117265 0.76562645 0.60740814
0.89982831 0.80586320 0.60424725
1.00000000 0.83482121 0.65675853
0.00000000 0.87753489 0.61627012
0.00000000 0.88722780 0.61408838
0.17324015 0.89621111 0.60938210
0.34297600 0.89438150 0.60509597
0.49516631 0.89145071 0.59818181
0.63869208 0.88904045 0.59136435
0.78140931 0.88970737 0.58897740
0.91182530 0.88796130 0.58647488
1.00000000 0.92448410 0.66291370
0.12482591 1.00000000 0.60882363
0.20113278 1.00000000 0.60887437
0.30833651 1.00000000 0.60905192
0.41883360 1.00000000 0.60952672
0.54351769 1.00000000 0.61091779
0.66710722 1.00000000 0.61218117
0.78873810 1.00000000 0.61130961
0.90502008 1.00000000 0.61029205
1.00000000 0.97352894 0.67083006
0.00000000 0.28926938 0.67229576
0.00000000 0.25261392 0.67243736
0.00000000 0.12831802 0.67276205
0.22873755 0.00000000 0.67326992
0.52965978 0.00000000 0.73003247
0.65704565 0.00000000 0.73100642
0.78190950 0.00000000 0.73143939
0.89893560 0.00000000 0.73153751
1.00000000 0.27104953 0.73502913
0.00000000 0.31984628 0.67296074
0.07240149 0.30231508 0.68144037
0.07228118 0.20763315 0.68176760
0.21416042 0.07209241 0.68227944
0.52830764 0.00000000 0.74221444
0.66431017 0.00000000 0.74316099
0.79241213 0.00000000 0.74027517
0.90761312 0.00000000 0.73479787
1.00000000 0.30697504 0.73600957
0.00000000 0.37913794 0.67404716
0.08097766 0.36934986 0.68265756
0.22788945 0.35516483 0.68629678
0.22894388 0.22781988 0.68679837
0.52494389 0.21400065 0.74534108
0.66427842 0.21362340 0.74634904
0.79663149 0.19921200 0.74472747
0.91724804 0.15227408 0.73806104
1.00000000 0.37461227 0.73826727
0.00000000 0.45399053 0.67574334
0.08011265 0.44963950 0.68437016
0.23610530 0.44310525 0.68823946
0.35040242 0.42419405 0.69260666
0.42363398 0.35031141 0.69338480
0.66040333 0.35785390 0.74545325
0.79338743 0.35045561 0.74398045
0.91425652 0.32822929 0.73732988
1.00000000 0.45746419 0.74183083
0.00000000 0.54834299 0.67842704
0.07871818 0.54918287 0.68708022
0.23528925 0.54535354 0.69089018
0.36003592 0.53793123 0.69556998
0.47993155 0.51389740 0.70040283
0.65419619 0.49839007 0.74403635
0.78820568 0.49382778 0.74280083
0.90948382 0.47953417 0.73617564
1.00000000 0.55962324 0.74759548
0.00000000 0.59146349 0.68200853
0.07680585 0.59662763 0.69069760
0.23418326 0.59930897 0.69442966
0.36698626 0.66880303 0.74937358
0.49080125 0.63924181 0.70417400
0.60700173 0.61226155 0.70819885
0.78119495 0.62812553 0.74123132
0.90303774 0.61764300 0.73464055
1.00000000 0.66894295 0.75551676
0.00000000 0.76213626 0.74091927
0.00000000 0.77364289 0.75149684
0.21281991 0.77679944 0.75453091
0.36175697 0.77425710 0.75248688
0.50555724 0.77020333 0.74923275
0.64105763 0.76473282 0.74485139
0.77473176 0.76558794 0.73734914
0.90166635 0.78404542 0.72473118
1.00000000 0.83323289 0.76833727
0.00000000 0.87773137 0.73750348
0.00000000 0.88743571 0.74127042
0.17354640 0.89640703 0.74327034
0.34329810 0.89457491 0.73962719
0.49555423 0.89164011 0.73377262
0.63673119 0.88765351 0.72578134
0.77611657 0.88497810 0.71864443
0.90780354 0.88346487 0.71551497
1.00000000 0.92016694 0.77040312
0.12745513 1.00000000 0.72409843
0.20283209 1.00000000 0.72399252
0.30950458 1.00000000 0.72378916
0.41977368 1.00000000 0.72359861
0.54434935 1.00000000 0.72371103
0.66988413 1.00000000 0.72508790
0.79237943 1.00000000 0.72590695
0.90685016 1.00000000 0.72413597
1.00000000 0.97541597 0.77308594
0.00000000 0.34827234 0.79661295
0.00000000 0.31821367 0.79677044
0.00000000 0.23182049 0.79713157
0.13623941 0.00000000 0.79769646
0.52822383 0.00000000 0.84418420
0.65530289 0.00000000 0.84530137
0.78072152 0.00000000 0.84671903
0.89859059 0.00000000 0.84777966
1.00000000 0.26893890 0.83904640
0.00000000 0.37443205 0.79729235
0.01577241 0.35331087 0.80709778
0.01550590 0.27552197 0.80746310
0.05486897 0.01508856 0.80803456
0.52190416 0.00000000 0.85441965
0.65644725 0.00000000 0.85551374
0.78750046 0.00000000 0.85690221
0.90726984 0.00000000 0.85554490
1.00000000 0.30514320 0.83995082
0.00000000 0.42713489 0.79850216
0.02970060 0.41333778 0.80838847
0.21768519 0.39974772 0.81057788
0.21757719 0.29037320 0.81114277
0.36673806 0.21740531 0.81203929
0.65531193 0.17571750 0.86460919
0.79212963 0.17496181 0.86607118
0.91689315 0.15236477 0.86487938
1.00000000 0.37315409 0.84202719
0.00000000 0.49629575 0.80039122
0.02779950 0.48827522 0.81030351
0.22640708 0.48098933 0.81261917
0.34701760 0.46227029 0.81541584
0.37958424 0.34689063 0.81629968
0.65132719 0.33833568 0.86437711
0.78869121 0.33789130 0.86584110
0.91390067 0.32823145 0.86482027
1.00000000 0.45630314 0.84528443
0.00000000 0.58613109 0.80338071
0.02477411 0.58391159 0.81333431
0.22535552 0.57874896 0.81561408
0.35674173 0.56994132 0.81858917
0.47926782 0.54558905 0.82195381
0.64494168 0.48552916 0.86401582
0.78319603 0.48515611 0.86548299
0.90912638 0.47949941 0.86473397
1.00000000 0.55869550 0.85048993
0.00000000 0.68424934 0.80737142
0.02070334 0.68707294 0.81738053
0.22393047 0.68354188 0.81961323
0.35537729 0.67735269 0.82253415
0.49002570 0.66617216 0.82608417
0.58871708 0.62557385 0.84118258
0.77575528 0.62124067 0.86501664
0.90267815 0.61758267 0.86463281
1.00000000 0.67047439 0.85518290
0.00000000 0.72241838 0.85704592
0.00000000 0.72771144 0.86708800
0.22209627 0.72846264 0.82466283
0.35362689 0.73013582 0.82751666
0.49447190 0.79054487 0.87135095
0.59546467 0.77259415 0.84800169
0.72423906 0.72659907 0.83890767
0.90124923 0.75096478 0.85212044
1.00000000 0.79659957 0.85965145
0.00000000 0.87796325 0.85292433
0.00000000 0.88768110 0.86134818
0.17390722 0.89663826 0.86841204
0.34367790 0.89480317 0.86512264
0.49601170 0.89186363 0.85984787
0.63727427 0.88787063 0.85267084
0.77413264 0.88244230 0.84331349
0.90358537 0.88979614 0.83555843
1.00000000 0.92385768 0.87571367
0.13049244 1.00000000 0.83429502
0.20481831 1.00000000 0.83405963
0.31087688 1.00000000 0.83354261
0.42088018 1.00000000 0.83280763
0.54532914 1.00000000 0.83188267
0.67082120 1.00000000 0.83136328
0.79690011 1.00000000 0.83315333
0.91054621 1.00000000 0.83341897
1.00000000 0.97956060 0.87411961
0.00000000 0.41055132 0.92786967
0.00000000 0.38561074 0.92804520
0.00000000 0.31930890 0.92844771
0.00000000 0.15539965 0.92907733
0.30931823 0.00000000 0.93007656
0.65394954 0.00000000 0.96904281
0.77913475 0.00000000 0.97065539
0.89740584 0.00000000 0.97252990
1.00000000 0.26617052 0.95372113
0.00000000 0.43293397 0.92858082
0.00000000 0.41366069 0.93725233
0.00000000 0.35115836 0.93764815
0.00000000 0.21007599 0.93826733
0.28598712 0.00000000 0.93925001
0.65093366 0.00000000 0.97773166
0.78100337 0.00000000 0.97931943
0.90300405 0.00000000 0.98116519
1.00000000 0.30274608 0.95458110
0.00000000 0.47936267 0.92993033
0.00000000 0.46472002 0.93917415
0.19894183 0.44886442 0.94289127
0.19877838 0.35548253 0.94352471
0.28517068 0.19851823 0.94453001
0.64339213 0.10670416 0.99236115
0.78267842 0.10511181 0.99402016
0.91165425 0.10322799 0.99594861
1.00000000 0.37125113 0.95654985
0.00000000 0.54233972 0.93203771
0.00000000 0.53245379 0.94123021
0.20850333 0.52292516 0.94509679
0.23677907 0.46843970 0.96935223
0.23131398 0.28584840 0.97120083
0.45789021 0.22365928 0.97368810
0.77914361 0.31007720 0.99437468
0.90844595 0.30937478 0.99630366
1.00000000 0.45479072 0.95962058
0.00000000 0.62653320 0.93537314
0.00000000 0.62163876 0.94448482
0.20149008 0.61461536 0.94930546
0.21969791 0.58346640 0.97812527
0.39524682 0.54163729 0.98143596
0.44893428 0.39453769 0.98284541
0.77349261 0.46765231 0.99494395
0.90332463 0.46711956 0.99687376
1.00000000 0.55748847 0.96447169
0.00000000 0.72050989 0.93982649
0.00000000 0.71998152 0.94883105
0.17233020 0.71605995 0.95744911
0.18913450 0.70428072 0.98637166
0.40802643 0.68291893 0.98599278
0.55533858 0.63919972 0.98517361
0.65269542 0.55458135 0.98699119
0.89640228 0.60792745 0.99765065
1.00000000 0.67245528 0.96324402
0.00000000 0.82054632 0.94544880
0.00000000 0.82373676 0.95431941
0.12271633 0.82647777 0.96789236
0.17754521 0.82924723 0.99268856
0.40376702 0.81335666 0.99140592
0.56990424 0.78948063 0.98610234
0.70206350 0.73826103 0.97924700
0.89729719 0.74495518 0.98327550
1.00000000 0.79826168 0.95369937
0.00000000 0.83472122 0.97553603
0.00000000 0.83979985 0.98364747
0.12225197 0.84784515 0.99586758
0.32342918 0.84953285 0.99285719
0.41462458 0.86923010 0.97732245
0.62919515 0.90811667 0.98149362
0.73179342 0.89308377 0.96230413
0.85716535 0.84473437 0.95160581
1.00000000 0.91909896 0.95755106
0.13433356 1.00000000 0.95260774
0.20736489 1.00000000 0.95224455
0.31264727 1.00000000 0.95141891
0.42231093 1.00000000 0.95015105
0.54659744 1.00000000 0.94821836
0.67203488 1.00000000 0.94587196
0.79811514 1.00000000 0.94375067
0.91908396 1.00000000 0.94583191
1.00000000 0.99735195 0.98508263
