luts/L-Log_to_Pure_VLog.cube
TITLE "Generated from Leica Pure/Leica_Pure_Rec2020_LLog_to_Rec709_Gamma24_65.cube"
#LUMIXPHOTOSTYLE VLOG
LUT_3D_SIZE 9
0.00000562 0.00000562 0.00000562
0.00333022 0.00000000 0.00000000
0.05295974 0.00000000 0.00000000
0.24562362 0.00096038 0.00044272
0.61501750 0.00831459 0.00534975
0.89685927 0.04429867 0.03126835
0.98332051 0.16226137 0.13326434
0.99794315 0.60705347 0.49174645
0.99957919 0.75296718 0.65714937
0.00000000 0.00273912 0.00000000
0.00239010 0.00302111 0.00000000
0.05675095 0.00019887 0.00000000
0.24887828 0.00258559 0.00044679
0.61497108 0.00960598 0.00534724
0.89682724 0.04428698 0.03125967
0.98331872 0.16225275 0.13325638
0.99794305 0.60704615 0.49173853
0.99957919 0.75296718 0.65714937
0.00042368 0.03936209 0.00053705
0.00164159 0.04307585 0.00062094
0.04654721 0.05240652 0.00016488
0.28201264 0.03438761 0.00067674
0.62638946 0.03428073 0.00557708
0.89687057 0.05521739 0.03126936
0.98331653 0.16224216 0.13324658
0.99794294 0.60703716 0.49172878
0.99957919 0.75296718 0.65714937
0.00605016 0.20756860 0.00477264
0.01372717 0.21110371 0.00494451
0.03397138 0.24543815 0.00671729
0.24101978 0.25742049 0.00638071
0.66404941 0.20421497 0.01103162
0.90367760 0.17629693 0.03377531
0.98331561 0.18906136 0.13324508
0.99794258 0.60701000 0.49169934
0.99957919 0.75296718 0.65714937
0.04059972 0.56268545 0.03219778
0.05726005 0.56321870 0.03233511
0.11092496 0.57509730 0.03495549
0.18250894 0.61540448 0.04531952
0.59391680 0.61367756 0.04765957
0.91257783 0.54891609 0.07085852
0.98449088 0.49670856 0.14306816
0.99794204 0.62696981 0.49163702
0.99957919 0.75296718 0.65714937
0.16830107 0.84876519 0.14590308
0.16822836 0.84868541 0.14583489
0.26955101 0.85000042 0.14715120
0.38158414 0.85852649 0.15589856
0.50653021 0.88196725 0.18255850
0.86507615 0.87653481 0.19586244
0.98451211 0.83863051 0.23934379
0.99817921 0.81029493 0.51186798
0.99958035 0.77926250 0.65722443
0.57801538 0.96844998 0.49407817
0.57796336 0.96844363 0.49402329
0.57789942 0.96843582 0.49395584
0.67016822 0.96898553 0.49910947
0.73465017 0.97134098 0.52195619
0.80531916 0.97731459 0.58640198
0.97347546 0.97631218 0.56625059
0.99832586 0.96798786 0.67433243
0.99990685 0.94095344 0.71302548
0.89123600 0.99512535 0.85223542
0.89122968 0.99512497 0.85222719
0.89122191 0.99512451 0.85221708
0.89119843 0.99512311 0.85218650
0.92187915 0.99524556 0.85505205
0.93882766 0.99572490 0.86629372
0.95889879 0.99695065 0.89493578
0.99649894 0.99701322 0.88726304
0.99956755 0.99642105 0.89393625
0.93570668 0.99775946 0.91109395
0.93570668 0.99775946 0.91109395
0.93570668 0.99775946 0.91109395
0.93570668 0.99775946 0.91109395
0.93570668 0.99775946 0.91109395
0.95975465 0.99794073 0.91546802
0.97223821 0.99856506 0.93025439
0.99482044 0.99932937 0.93721719
0.99910611 0.99908847 0.93678713
0.00000000 0.00000000 0.00245371
0.00230878 0.00000000 0.00207479
0.05304199 0.00000000 0.00046924
0.24836695 0.00099380 0.00196293
0.61578128 0.00835310 0.01032107
0.89674393 0.04426364 0.03438105
0.98331192 0.16221992 0.13322603
0.99794269 0.60701830 0.49170834
0.99957919 0.75296718 0.65714937
0.00000000 0.00208344 0.00179503
0.00829875 0.00832102 0.00832661
0.06874054 0.00000000 0.00067380
0.25194044 0.00244555 0.00197139
0.61534182 0.00833588 0.00983516
0.89669566 0.04424305 0.03305148
0.98331013 0.16221129 0.13321805
0.99794259 0.60701099 0.49170041
0.99957919 0.75296718 0.65714937
0.00047251 0.03925034 0.00197391
0.00275755 0.05011754 0.00381238
0.05657980 0.05903268 0.00118394
0.28436902 0.03110969 0.00217570
0.62487929 0.03278952 0.00988915
0.89666590 0.04886833 0.03143108
0.98330793 0.16220070 0.13320826
0.99794247 0.60700200 0.49169066
0.99957919 0.75296718 0.65714937
0.00604600 0.20635909 0.00871302
0.01368450 0.21022574 0.00964523
0.03377029 0.24346031 0.01217201
0.24138722 0.25452313 0.00981146
0.66328311 0.19863412 0.01397312
0.90334212 0.17398453 0.03363018
0.98330409 0.17659037 0.13319223
0.99794211 0.60697483 0.49166122
0.99957919 0.75296718 0.65714937
0.04024827 0.56087281 0.03191387
0.05371743 0.56117602 0.03200151
0.10852024 0.57264108 0.03450102
0.18080662 0.61334760 0.04484359
0.59313866 0.61182970 0.04722727
0.91249044 0.54649121 0.07042823
0.98447467 0.49550671 0.14291321
0.99794135 0.62127992 0.49158603
0.99957919 0.75296718 0.65714937
0.16802887 0.84846653 0.14564781
0.16795603 0.84838661 0.14557950
0.26509350 0.84956594 0.14675865
0.38022537 0.85812848 0.15552056
0.50577137 0.88166011 0.18221745
0.86495601 0.87625240 0.19556687
0.98450924 0.83818120 0.23908860
0.99817826 0.81009355 0.51176070
0.99958007 0.77649037 0.65720763
0.57782074 0.96842622 0.49387283
0.57776869 0.96841986 0.49381793
0.57770471 0.96841205 0.49375044
0.66932388 0.96895023 0.49879289
0.73436183 0.97131009 0.52166404
0.80517375 0.97729317 0.58616677
0.97346615 0.97629266 0.56605435
0.99832558 0.96795160 0.67420720
0.99990667 0.94088693 0.71295445
0.89121236 0.99512394 0.85220463
0.89120603 0.99512356 0.85219640
0.89119827 0.99512310 0.85218628
0.89117478 0.99512170 0.85215571
0.92181000 0.99524343 0.85500449
0.93880046 0.99572304 0.86625200
0.95888550 0.99694935 0.89490707
0.99649840 0.99701211 0.88723822
0.99956771 0.99641966 0.89391759
0.93570668 0.99775946 0.91109395
0.93570668 0.99775946 0.91109395
0.93570668 0.99775946 0.91109395
0.93570668 0.99775946 0.91109395
0.93570668 0.99775946 0.91109395
0.95974370 0.99794042 0.91546042
0.97223481 0.99856482 0.93024889
0.99481902 0.99932940 0.93721799
0.99910611 0.99908847 0.93678713
0.00000000 0.00039611 0.04315430
0.00053583 0.00040966 0.04501117
0.04818005 0.00032968 0.04148040
0.25502585 0.00154771 0.03344261
0.63153494 0.00933010 0.03963899
0.89848830 0.04535272 0.08488190
0.98330885 0.16225738 0.16020981
0.99794211 0.60697508 0.49166149
0.99957919 0.75296718 0.65714937
0.00000000 0.00193678 0.04229984
0.00045698 0.00274208 0.04972614
0.05237142 0.00125303 0.04482890
0.25655081 0.00261487 0.03272120
0.63094920 0.00928068 0.03848828
0.89837713 0.04528881 0.08365345
0.98330603 0.16223631 0.15717698
0.99794202 0.60696777 0.49165356
0.99957919 0.75296718 0.65714937
0.00130631 0.04344126 0.03947578
0.00562014 0.05133153 0.04802894
0.09048917 0.09071061 0.09101464
0.35550616 0.04840831 0.06442293
0.63109976 0.04473727 0.04946657
0.89823720 0.04520820 0.08209589
0.98330267 0.16221175 0.15345822
0.99794190 0.60695878 0.49164381
0.99957919 0.75296718 0.65714937
0.00814708 0.22252295 0.04086396
0.01642037 0.22539700 0.04233920
0.06768814 0.30114278 0.08507568
0.30877726 0.31611761 0.06641330
0.66313813 0.21747095 0.05870182
0.89999167 0.17912415 0.08895902
0.98329280 0.16214249 0.14225015
0.99794154 0.60693160 0.49161436
0.99957919 0.75296718 0.65714937
0.04257025 0.56834902 0.07792275
0.05302113 0.56818488 0.07799298
0.13436972 0.57133326 0.10299056
0.19524336 0.61215056 0.12036978
0.59309125 0.61019982 0.09800731
0.91229113 0.54381859 0.10682649
0.98445461 0.49401562 0.14272127
0.99794052 0.61429438 0.49152681
0.99957919 0.75296718 0.65714937
0.16769370 0.84809878 0.14533350
0.16762069 0.84801868 0.14526504
0.25924225 0.84902385 0.14626901
0.37853742 0.85763548 0.15505272
0.50483414 0.88128098 0.18179694
0.86480917 0.87590458 0.19520272
0.98450575 0.83762793 0.23877435
0.99817709 0.80984533 0.51162856
0.99957985 0.77264023 0.65718924
0.57758139 0.96839700 0.49362035
0.57752931 0.96839064 0.49356540
0.57746529 0.96838283 0.49349787
0.66826609 0.96890647 0.49840038
0.73400620 0.97127204 0.52130414
0.80499475 0.97726681 0.58587738
0.97345473 0.97626867 0.56581298
0.99832523 0.96790701 0.67405319
0.99990645 0.94080512 0.71286709
0.89118329 0.99512220 0.85216679
0.89117697 0.99512183 0.85215856
0.89116920 0.99512136 0.85214844
0.89114571 0.99511996 0.85211786
0.92172455 0.99524081 0.85494588
0.93876698 0.99572075 0.86620068
0.95886914 0.99694775 0.89487177
0.99649773 0.99701074 0.88720771
0.99956791 0.99641795 0.89389466
0.93570668 0.99775946 0.91109395
0.93570668 0.99775946 0.91109395
0.93570668 0.99775946 0.91109395
0.93570668 0.99775946 0.91109395
0.93570668 0.99775946 0.91109395
0.95973021 0.99794003 0.91545107
0.97223064 0.99856453 0.93024213
0.99481727 0.99932944 0.93721898
0.99910611 0.99908847 0.93678713
0.00156927 0.00436336 0.21972283
0.00279394 0.00438704 0.22070861
0.03793462 0.00500393 0.24673120
0.25147236 0.00635094 0.22369860
0.62228380 0.01408536 0.19419751
0.90429955 0.05258723 0.21186621
0.98361218 0.16662240 0.33111049
0.99794164 0.60706872 0.53664133
0.99957919 0.75296718 0.65714937
0.00154883 0.00432279 0.21822007
0.00267739 0.00434376 0.21910229
0.03723226 0.00494879 0.24494235
0.25082465 0.00629327 0.22206820
0.62212931 0.01402215 0.19273995
0.90426557 0.05250007 0.21061474
0.98360736 0.16656619 0.33026073
0.99794143 0.60704122 0.53441945
0.99957919 0.75296718 0.65714937
0.00269380 0.04130124 0.22263993
0.00434693 0.04052091 0.22367640
0.05920909 0.07944212 0.30362834
0.30737010 0.05477356 0.27738185
0.62274430 0.03980356 0.19830873
0.90422123 0.05239368 0.20909058
0.98360139 0.16649654 0.32920650
0.99794116 0.60701191 0.53170810
0.99957919 0.75296718 0.65714937
0.01393578 0.23579949 0.22200155
0.01759053 0.23516276 0.22231191
0.09027604 0.29920833 0.28827883
0.32148832 0.32227935 0.32301848
0.65695869 0.22772138 0.26921120
0.88626922 0.22102083 0.24613452
0.98358313 0.16628282 0.32595685
0.99794048 0.60692969 0.52354141
0.99957919 0.75296718 0.65714937
0.05638798 0.58071661 0.22857059
0.05625451 0.58023347 0.22817867
0.16440494 0.57875189 0.25389368
0.25697740 0.60027722 0.31950367
0.60307760 0.61071927 0.27596168
0.89833332 0.52948852 0.26954070
0.98067446 0.49586024 0.35782679
0.99793871 0.60672632 0.49692201
0.99957919 0.75296718 0.65714937
0.17666449 0.85518215 0.31536704
0.17656873 0.85508958 0.31509695
0.25334680 0.85498087 0.31690079
0.43682433 0.83880691 0.38209405
0.50518798 0.86638781 0.41704321
0.85189071 0.86303915 0.37897256
0.98381174 0.83287822 0.38505988
0.99817353 0.80909001 0.51122712
0.99957937 0.76022263 0.65715973
0.57685699 0.96830857 0.49285617
0.57680480 0.96830220 0.49280112
0.57674066 0.96829437 0.49273345
0.66493120 0.96877303 0.49720427
0.73292256 0.97115631 0.52021046
0.80445166 0.97718688 0.58500045
0.97342037 0.97619603 0.56508198
0.99832419 0.96777207 0.67358696
0.99990577 0.94055737 0.71260252
0.89109541 0.99511696 0.85205237
0.89108908 0.99511659 0.85204413
0.89108131 0.99511612 0.85203400
0.89105781 0.99511472 0.85200340
0.92146307 0.99523284 0.85476758
0.93866556 0.99571382 0.86604530
0.95881966 0.99694291 0.89476499
0.99649571 0.99700659 0.88711545
0.99956850 0.99641278 0.89382531
0.93570668 0.99775946 0.91109395
0.93570668 0.99775946 0.91109395
0.93570668 0.99775946 0.91109395
0.93570668 0.99775946 0.91109395
0.93570668 0.99775946 0.91109395
0.95968926 0.99793885 0.91542268
0.97221802 0.99856365 0.93022168
0.99481200 0.99932956 0.93722198
0.99910611 0.99908847 0.93678713
0.01249575 0.02509199 0.58253543
0.01248750 0.02507693 0.58239619
0.03418956 0.02544935 0.58555510
0.22991509 0.03339201 0.62383690
0.61554769 0.04194578 0.57864269
0.89208460 0.07851684 0.53622060
0.98407061 0.18602747 0.55447658
0.99799259 0.61833398 0.69865521
0.99958254 0.75365497 0.71762205
0.01245953 0.02502587 0.58192404
0.01245127 0.02501078 0.58178453
0.03369199 0.02536885 0.58483330
0.22918056 0.03328581 0.62321347
0.61532363 0.04184808 0.57801060
0.89206801 0.07842342 0.53560495
0.98407066 0.18596393 0.55399711
0.99799235 0.61829201 0.69844668
0.99958247 0.75364007 0.71710112
0.01241493 0.02494443 0.58117110
0.01240665 0.02492931 0.58103127
0.03308205 0.02526978 0.58394385
0.22827443 0.03315516 0.62244588
0.61504797 0.04172777 0.57723209
0.89204763 0.07830836 0.53484665
0.98406991 0.18588985 0.55341646
0.99799205 0.61824029 0.69818966
0.99958239 0.75362138 0.71644792
0.02317057 0.22895472 0.58402152
0.02303953 0.22761831 0.58388575
0.05458205 0.23270497 0.58458917
0.26065771 0.30939390 0.60778616
0.61216013 0.24761846 0.58059974
0.87872642 0.23773939 0.53037670
0.98406631 0.18567180 0.55166861
0.99799113 0.61808311 0.69740778
0.99958214 0.75356222 0.71437953
0.08422561 0.59055459 0.57328522
0.08408029 0.59008741 0.57314916
0.12604922 0.58998111 0.57360219
0.30738784 0.59518985 0.58420281
0.60807021 0.60883880 0.60962760
0.89047699 0.51601845 0.55937288
0.97719977 0.51419998 0.54620529
0.99798815 0.61757342 0.69481792
0.99958121 0.75337203 0.70645822
0.21127808 0.85849961 0.57316228
0.21111689 0.85842275 0.57301673
0.21091898 0.85832823 0.57283770
0.48177376 0.83927277 0.57803602
0.53987045 0.85461032 0.61021262
0.85561014 0.86105739 0.56999595
0.97946447 0.80596552 0.57438546
0.99727605 0.79170020 0.69975715
0.99957922 0.75297029 0.65856935
0.60030317 0.97046833 0.67133193
0.60023740 0.97046123 0.67125463
0.60015653 0.97045251 0.67115957
0.67926473 0.96925929 0.67374983
0.74301663 0.96312297 0.69282076
0.78431682 0.97088034 0.73017696
0.96698882 0.97014673 0.70182097
0.99795129 0.96305895 0.76744464
0.99990352 0.93973648 0.71172590
0.89080565 0.99509968 0.85167509
0.89079931 0.99509930 0.85166684
0.89079152 0.99509884 0.85165669
0.89076797 0.99509743 0.85162603
0.92057041 0.99520653 0.85417841
0.93832890 0.99569087 0.86553053
0.95865599 0.99692692 0.89441225
0.99648893 0.99699230 0.88680670
0.99957047 0.99639575 0.89359663
0.93570668 0.99775946 0.91109395
0.93570668 0.99775946 0.91109395
0.93570668 0.99775946 0.91109395
0.93570668 0.99775946 0.91109395
0.93570668 0.99775946 0.91109395
0.95955242 0.99793491 0.91532783
0.97217633 0.99856075 0.93015415
0.99479462 0.99932995 0.93723186
0.99910611 0.99908847 0.93678713
0.07314711 0.11231121 0.87162832
0.07313497 0.11229629 0.87160712
0.07312005 0.11227795 0.87158105
0.19818651 0.11513034 0.87489655
0.58853332 0.14749253 0.89172368
0.88399604 0.17204029 0.86095128
0.98037749 0.31117867 0.83260750
0.99805077 0.66177717 0.84845622
0.99966740 0.77455351 0.85872851
0.07309383 0.11224573 0.87153525
0.07308168 0.11223080 0.87151403
0.07306675 0.11221246 0.87148795
0.19764508 0.11503799 0.87477886
0.58826732 0.14740065 0.89163912
0.88396493 0.17196447 0.86084786
0.98037681 0.31104525 0.83249644
0.99805073 0.66173918 0.84837583
0.99966733 0.77453323 0.85866546
0.07302831 0.11216521 0.87142081
0.07301616 0.11215027 0.87139957
0.07300122 0.11213191 0.87137347
0.19697565 0.11492419 0.87463382
0.58794008 0.14728769 0.89153515
0.88392670 0.17187123 0.86072069
0.98037599 0.31088117 0.83235985
0.99805070 0.66169247 0.84827697
0.99966724 0.77450829 0.85858790
0.07283000 0.11192150 0.87107439
0.07281782 0.11190653 0.87105311
0.07280285 0.11188813 0.87102696
0.19492441 0.11457804 0.87419263
0.58694859 0.14694596 0.89122059
0.88381104 0.17158897 0.86033577
0.98037350 0.31038442 0.83194638
0.99805058 0.66155109 0.84797768
0.99966698 0.77443276 0.85835302
0.12055223 0.58194258 0.86754046
0.12041259 0.58144341 0.86752992
0.12024054 0.58082830 0.86751700
0.29313431 0.58424731 0.85658664
0.55075575 0.60004900 0.85946634
0.86210646 0.54021251 0.84032550
0.97345477 0.56173285 0.80698675
0.99805020 0.66108340 0.84698701
0.99966609 0.77418247 0.85757468
0.34113318 0.86456697 0.85410083
0.34095437 0.86449295 0.85407912
0.34073450 0.86440194 0.85405243
0.46005739 0.86131614 0.85115444
0.59365890 0.85059053 0.84293762
0.86025121 0.86087054 0.86139090
0.97772943 0.79645714 0.82966527
0.99707338 0.79981970 0.82409066
0.99966331 0.77340926 0.85502466
0.67431020 0.97104498 0.85560439
0.67426212 0.97103913 0.85557831
0.67420302 0.97103193 0.85554625
0.67402431 0.97101018 0.85544928
0.78421301 0.96319273 0.84291793
0.81320286 0.96873299 0.86420133
0.96951560 0.97096405 0.84155112
0.99764819 0.95675181 0.84935481
0.99990738 0.92285404 0.84799065
0.90058153 0.99555627 0.91553023
0.90057393 0.99555584 0.91552118
0.90056459 0.99555532 0.91551006
0.90053634 0.99555374 0.91547643
0.92713000 0.99454395 0.91283755
0.93562340 0.99388517 0.91495507
0.94959902 0.99564626 0.93188318
0.99502740 0.99569151 0.92339951
0.99944669 0.99496554 0.92760796
0.93570668 0.99775946 0.91109395
0.93570668 0.99775946 0.91109395
0.93570668 0.99775946 0.91109395
0.93570668 0.99775946 0.91109395
0.93570668 0.99775946 0.91109395
0.95908572 0.99792203 0.91501801
0.97203775 0.99855112 0.92992967
0.99473725 0.99933122 0.93726447
0.99910611 0.99908847 0.93678713
0.31080193 0.54813981 0.97552552
0.31078416 0.54812387 0.97552409
0.31076233 0.54810429 0.97552233
0.31069634 0.54804510 0.97551700
0.54216479 0.55708457 0.97639030
0.87019802 0.61056187 0.97958242
0.97804897 0.62902004 0.97229601
0.99734301 0.76207113 0.96574638
0.99953661 0.83189920 0.96425440
0.31072398 0.54806989 0.97551923
0.31070621 0.54805396 0.97551780
0.31068438 0.54803437 0.97551604
0.31061838 0.54797517 0.97551071
0.54194103 0.55699596 0.97638251
0.87015687 0.61049174 0.97957696
0.97804686 0.62896367 0.97228827
0.99734295 0.76204493 0.96573736
0.99953667 0.83188838 0.96424473
0.31062817 0.54798396 0.97551150
0.31061040 0.54796802 0.97551007
0.31058856 0.54794843 0.97550830
0.31052255 0.54788922 0.97550298
0.54166548 0.55688698 0.97637293
0.87010628 0.61040553 0.97957024
0.97804427 0.62889439 0.97227876
0.99734288 0.76201273 0.96572628
0.99953675 0.83187507 0.96423284
0.31033846 0.54772411 0.97548812
0.31032068 0.54770816 0.97548668
0.31029883 0.54768856 0.97548492
0.31023277 0.54762931 0.97547959
0.54082861 0.55655699 0.97634389
0.86995328 0.61014486 0.97954994
0.97803644 0.62868487 0.97224999
0.99734265 0.76191536 0.96569276
0.99953699 0.83183484 0.96419690
0.30938317 0.54686726 0.97541103
0.30936535 0.54685128 0.97540959
0.30934345 0.54683164 0.97540782
0.30927725 0.54677226 0.97540248
0.53802976 0.55546407 0.97624767
0.86944839 0.60928535 0.97948303
0.97801064 0.62799377 0.97215516
0.99734190 0.76159417 0.96558221
0.99953776 0.83170216 0.96407836
0.48092752 0.86683718 0.97359928
0.48080334 0.86676329 0.97359886
0.48065060 0.86667241 0.97359834
0.48018812 0.86639720 0.97359678
0.64675962 0.85434277 0.96667526
0.82279700 0.85753599 0.96994032
0.97102299 0.81867392 0.96525703
0.99602172 0.84498732 0.95568830
0.99954031 0.83126306 0.96368607
0.77057219 0.97326887 0.97063122
0.77053850 0.97326336 0.97062936
0.77049709 0.97325660 0.97062707
0.77037188 0.97323614 0.97062016
0.83031381 0.96905206 0.96620177
0.85544247 0.96818829 0.96615814
0.97162663 0.97178131 0.97190087
0.99741392 0.95541700 0.96481383
0.99986211 0.92873547 0.95721870
0.92730495 0.99578955 0.97297861
0.92730000 0.99578915 0.97297669
0.92729392 0.99578864 0.97297434
0.92727553 0.99578712 0.97296723
0.92721496 0.99578211 0.97294380
0.95122248 0.99402553 0.96732350
0.96012108 0.99545175 0.97328949
0.99586472 0.99615964 0.96898042
0.99993918 0.99525715 0.96707946
0.94940021 0.99828724 0.96769039
0.94939946 0.99828723 0.96768873
0.94939854 0.99828722 0.96768668
0.94939577 0.99828719 0.96768050
0.94938661 0.99828708 0.96766015
0.96491751 0.99752956 0.96215969
0.97023809 0.99817871 0.96654954
0.99283949 0.99938070 0.96794467
0.99895550 0.99892377 0.96393818
0.76099489 0.88690006 0.99629071
0.76099149 0.88689815 0.99629062
0.76098730 0.88689581 0.99629051
0.76097466 0.88688873 0.99629019
0.76093302 0.88686541 0.99628913
0.85724950 0.89060896 0.99648431
0.97630308 0.91015953 0.99731182
0.99719910 0.91675973 0.99611235
0.99948483 0.92962731 0.99560841
0.76097995 0.88689169 0.99629033
0.76097655 0.88688979 0.99629024
0.76097237 0.88688744 0.99629013
0.76095972 0.88688036 0.99628981
0.76091809 0.88685704 0.99628875
0.85721887 0.89059852 0.99648382
0.97630030 0.91015218 0.99731148
0.99719896 0.91675402 0.99611190
0.99948482 0.92962347 0.99560792
0.76096160 0.88688141 0.99628986
0.76095820 0.88687951 0.99628977
0.76095401 0.88687716 0.99628967
0.76094137 0.88687008 0.99628935
0.76089973 0.88684676 0.99628829
0.85718121 0.89058570 0.99648323
0.97629689 0.91014316 0.99731106
0.99719879 0.91674701 0.99611135
0.99948481 0.92961874 0.99560731
0.76090612 0.88685034 0.99628845
0.76090271 0.88684843 0.99628836
0.76089853 0.88684609 0.99628826
0.76088588 0.88683901 0.99628794
0.76084423 0.88681568 0.99628688
0.85706719 0.89054692 0.99648144
0.97628658 0.91011589 0.99730978
0.99719827 0.91672581 0.99610970
0.99948477 0.92960447 0.99560548
0.76072334 0.88674798 0.99628380
0.76071993 0.88674607 0.99628372
0.76071575 0.88674373 0.99628361
0.76070309 0.88673664 0.99628329
0.76066141 0.88671330 0.99628223
0.85668995 0.89041896 0.99647552
0.97625260 0.91002602 0.99730558
0.99719657 0.91665598 0.99610424
0.99948466 0.92955743 0.99559943
0.76012065 0.88641045 0.99626848
0.76011723 0.88640854 0.99626839
0.76011304 0.88640619 0.99626829
0.76010035 0.88639909 0.99626796
0.76005859 0.88637570 0.99626690
0.85543674 0.88999620 0.99645596
0.97614046 0.90972960 0.99729174
0.99719094 0.91642558 0.99608626
0.99948429 0.92940231 0.99557949
0.85310434 0.97528478 0.99611450
0.85308661 0.97527977 0.99611442
0.85306482 0.97527362 0.99611434
0.85299890 0.97525501 0.99611407
0.85278145 0.97519360 0.99611319
0.89819669 0.96965025 0.99444852
0.96289154 0.97170755 0.99572275
0.99613943 0.96281201 0.99495055
0.99932919 0.95573382 0.99369551
0.95537353 0.99647734 0.99600814
0.95537101 0.99647703 0.99600802
0.95536792 0.99647664 0.99600787
0.95535858 0.99647549 0.99600743
0.95532781 0.99647170 0.99600596
0.96819764 0.99515206 0.99454781
0.97206259 0.99556865 0.99515361
0.99653235 0.99655669 0.99657793
1.00000000 0.99500785 0.99586739
0.97196770 0.99866838 0.99585219
0.97196750 0.99866837 0.99585209
0.97196726 0.99866835 0.99585196
0.97196653 0.99866832 0.99585156
0.97196411 0.99866820 0.99585026
0.97195615 0.99866781 0.99584597
0.98202483 0.99834431 0.99470529
0.99420305 0.99949760 0.99629028
0.99972615 0.99958101 0.99539370
0.86907953 0.94259977 0.99884927
0.86907953 0.94259977 0.99884927
0.86907953 0.94259977 0.99884927
0.86907953 0.94259977 0.99884927
0.86907953 0.94259977 0.99884927
0.86907953 0.94259977 0.99884927
0.94737387 0.94704063 0.99910365
0.99681384 0.95742006 0.99938753
0.99957561 0.95945293 0.99892640
0.86907953 0.94259977 0.99884927
0.86907953 0.94259977 0.99884927
0.86907953 0.94259977 0.99884927
0.86907953 0.94259977 0.99884927
0.86907953 0.94259977 0.99884927
0.86907953 0.94259977 0.99884927
0.94736674 0.94703984 0.99910361
0.99681371 0.95742018 0.99938755
0.99957561 0.95945293 0.99892640
0.86907953 0.94259977 0.99884927
0.86907953 0.94259977 0.99884927
0.86907953 0.94259977 0.99884927
0.86907953 0.94259977 0.99884927
0.86907953 0.94259977 0.99884927
0.86907953 0.94259977 0.99884927
0.94735798 0.94703888 0.99910355
0.99681356 0.95742033 0.99938758
0.99957561 0.95945293 0.99892640
0.86907953 0.94259977 0.99884927
0.86907953 0.94259977 0.99884927
0.86907953 0.94259977 0.99884927
0.86907953 0.94259977 0.99884927
0.86907953 0.94259977 0.99884927
0.86907953 0.94259977 0.99884927
0.94733148 0.94703597 0.99910339
0.99681309 0.95742079 0.99938767
0.99957561 0.95945293 0.99892640
0.86907953 0.94259977 0.99884927
0.86907953 0.94259977 0.99884927
0.86907953 0.94259977 0.99884927
0.86907953 0.94259977 0.99884927
0.86907953 0.94259977 0.99884927
0.86907953 0.94259977 0.99884927
0.94724410 0.94702636 0.99910286
0.99681155 0.95742228 0.99938795
0.99957561 0.95945293 0.99892640
0.86907953 0.94259977 0.99884927
0.86907953 0.94259977 0.99884927
0.86907953 0.94259977 0.99884927
0.86907953 0.94259977 0.99884927
0.86907953 0.94259977 0.99884927
0.86907953 0.94259977 0.99884927
0.94695502 0.94699457 0.99910111
0.99680649 0.95742719 0.99938888
0.99957561 0.95945293 0.99892640
0.86907953 0.94259977 0.99884927
0.86907953 0.94259977 0.99884927
0.86907953 0.94259977 0.99884927
0.86907953 0.94259977 0.99884927
0.86907953 0.94259977 0.99884927
0.86907953 0.94259977 0.99884927
0.94601159 0.94689109 0.99909537
0.99678976 0.95744338 0.99939194
0.99957561 0.95945293 0.99892640
0.95402439 0.99515534 0.99891253
0.95402184 0.99515487 0.99891252
0.95401870 0.99515428 0.99891252
0.95400922 0.99515252 0.99891249
0.95397799 0.99514670 0.99891241
0.95387498 0.99512753 0.99891214
0.96816482 0.99318244 0.99847683
0.99467081 0.99433909 0.99962631
0.99983539 0.99224136 0.99930308
0.97904742 0.99918866 0.99901229
0.97904742 0.99918866 0.99901229
0.97904742 0.99918866 0.99901229
0.97904742 0.99918866 0.99901229
0.97904742 0.99918866 0.99901229
0.97904742 0.99918866 0.99901229
0.98538596 0.99881840 0.99855966
0.99254708 0.99968970 0.99959961
0.99997371 0.99997371 0.99997383
