luts/L-Log_to_Cine_VLog.cube
TITLE "Generated from Leica Cine/Leica_Cine_Rec2020_LLog_to_Rec709_Gamma24_65_.cube"
#LUMIXPHOTOSTYLE VLOG
LUT_3D_SIZE 9
0.02961910 0.02809441 0.03538356
0.01919463 0.01123376 0.01645587
0.06463862 0.01721863 0.02002206
0.26772579 0.03408923 0.01810999
0.61250778 0.06571946 0.05300612
0.88875880 0.11472000 0.08015691
0.94603355 0.19656080 0.16061276
0.96575155 0.56909316 0.45182593
0.95581484 0.69822443 0.57818484
0.01300089 0.01584263 0.01659824
0.01790354 0.01595524 0.01637069
0.06673919 0.02047327 0.01984777
0.26878347 0.03740734 0.01811208
0.61229681 0.06667616 0.05293714
0.88873249 0.11471048 0.08015084
0.94603254 0.19655454 0.16060601
0.96575165 0.56908594 0.45181940
0.95581484 0.69822443 0.57818484
0.01394230 0.04327296 0.02037055
0.01763013 0.04513700 0.02033835
0.05176467 0.05153363 0.01877001
0.29190608 0.06215093 0.01906555
0.61988298 0.08638918 0.05240184
0.88882812 0.12208925 0.07939030
0.94603129 0.19654685 0.16059771
0.96575177 0.56907706 0.45181137
0.95581484 0.69822443 0.57818484
0.01849930 0.16215182 0.02136727
0.02497033 0.16380543 0.02101756
0.04385368 0.18767071 0.02094927
0.22405742 0.21012000 0.02113171
0.66049806 0.19819440 0.05020691
0.89915790 0.21428001 0.07510602
0.94625640 0.21589095 0.16073107
0.96575212 0.56905024 0.45178711
0.95581484 0.69822443 0.57818484
0.07771978 0.42914858 0.05780901
0.08887402 0.43066850 0.05729427
0.13037284 0.44506701 0.05898332
0.19158498 0.48604822 0.07168185
0.57507554 0.53226896 0.06345704
0.87985587 0.52809875 0.08825406
0.94409630 0.49378953 0.17679596
0.96330737 0.58890484 0.45584975
0.95581484 0.69822443 0.57818484
0.18488612 0.64519703 0.16700195
0.18483234 0.64512631 0.16694266
0.26956335 0.67053414 0.16691300
0.38684201 0.70420323 0.17225748
0.52447604 0.74917106 0.20029417
0.84396777 0.79365785 0.20708558
0.93468470 0.78053312 0.26731743
0.96095578 0.79325600 0.52063354
0.95334619 0.72615385 0.58393681
0.57369316 0.83119704 0.45430743
0.57364118 0.83118067 0.45426135
0.57357729 0.83116055 0.45420472
0.68393257 0.84832393 0.47727417
0.76429961 0.86523941 0.51526129
0.84034615 0.88364537 0.58005524
0.94796241 0.90039639 0.57791134
0.96262771 0.89969888 0.65677651
0.96276459 0.88884186 0.66914256
0.84907030 0.90891572 0.74434185
0.84906521 0.90891418 0.74433496
0.84905895 0.90891228 0.74432650
0.84904002 0.90890654 0.74430092
0.90053082 0.91604266 0.76424147
0.91965598 0.92019405 0.78025342
0.93459389 0.92601200 0.80666645
0.95520842 0.92654764 0.79977434
0.95752654 0.92687259 0.80292690
0.88394129 0.91991705 0.79284424
0.88394129 0.91991705 0.79284424
0.88394129 0.91991705 0.79284424
0.88394129 0.91991705 0.79284424
0.88394129 0.91991705 0.79284424
0.92635219 0.92636277 0.81057034
0.93861007 0.93075418 0.82869249
0.95362720 0.93303019 0.83244528
0.95652437 0.93313634 0.83258933
0.01337792 0.01134121 0.02186084
0.01794145 0.01135072 0.02137600
0.06379895 0.01740677 0.02396767
0.26690329 0.03351239 0.02146168
0.61135282 0.06505331 0.05780188
0.88790025 0.11434413 0.08269527
0.94602867 0.19653070 0.16058028
0.96575201 0.56905844 0.45179452
0.95581484 0.69822443 0.57818484
0.01288611 0.01497161 0.02084334
0.03475914 0.03371262 0.04141161
0.07737343 0.02308897 0.02620517
0.26857661 0.03639830 0.02163555
0.61108667 0.06507618 0.05732396
0.88818049 0.11447281 0.08161403
0.94602765 0.19652444 0.16057353
0.96575211 0.56905121 0.45178799
0.95581484 0.69822443 0.57818484
0.01395166 0.04295915 0.02397814
0.01959708 0.05026060 0.02744517
0.05896209 0.05604057 0.02389342
0.29049383 0.05894636 0.02214036
0.61754067 0.08459214 0.05636987
0.88858484 0.11772193 0.07997282
0.94602640 0.19651674 0.16056523
0.96575223 0.56904234 0.45177996
0.95581484 0.69822443 0.57818484
0.01793522 0.16035269 0.02489514
0.02426525 0.16235789 0.02504500
0.04276567 0.18473715 0.02493749
0.22299236 0.20711534 0.02350006
0.65933803 0.19346998 0.05295954
0.89880277 0.21255939 0.07505625
0.94611075 0.20674251 0.16059007
0.96575258 0.56901551 0.45175569
0.95581484 0.69822443 0.57818484
0.07727056 0.42776937 0.05739837
0.08624034 0.42887134 0.05691098
0.12828910 0.44287931 0.05835330
0.19002861 0.48417977 0.07107961
0.57421263 0.53045635 0.06295903
0.88016038 0.52583315 0.08810171
0.94426237 0.49257081 0.17672135
0.96409169 0.58298732 0.45455295
0.95581484 0.69822443 0.57818484
0.18468481 0.64493230 0.16678002
0.18463094 0.64486146 0.16672062
0.26547164 0.66912176 0.16668534
0.38531942 0.70360278 0.17193806
0.52372853 0.74881180 0.19996217
0.84384772 0.79343280 0.20677931
0.93463790 0.78016561 0.26679253
0.96093248 0.79306148 0.52052800
0.95339855 0.72280976 0.58305068
0.57349866 0.83113578 0.45413503
0.57344666 0.83111941 0.45408893
0.57338273 0.83109927 0.45403227
0.68291672 0.84810665 0.47680153
0.76398023 0.86515288 0.51497746
0.84021579 0.88360591 0.57986236
0.94795855 0.90038548 0.57776196
0.96263316 0.89968078 0.65668799
0.96276769 0.88880688 0.66907644
0.84905124 0.90890995 0.74431609
0.84904615 0.90890840 0.74430920
0.84903989 0.90890650 0.74430074
0.84902096 0.90890076 0.74427516
0.90044695 0.91602538 0.76417469
0.91963708 0.92018654 0.78021945
0.93458748 0.92600760 0.80664651
0.95520836 0.92654441 0.79975815
0.95752698 0.92686981 0.80291400
0.88394129 0.91991705 0.79284424
0.88394129 0.91991705 0.79284424
0.88394129 0.91991705 0.79284424
0.88394129 0.91991705 0.79284424
0.88394129 0.91991705 0.79284424
0.92633825 0.92635932 0.81055801
0.93860746 0.93075287 0.82868666
0.95362634 0.93303021 0.83244567
0.95652437 0.93313634 0.83258933
0.01737128 0.01933373 0.06410503
0.02031965 0.01952241 0.06517458
0.05657644 0.01995611 0.05957444
0.25994279 0.02969780 0.04466070
0.61873974 0.06325663 0.08096110
0.87713682 0.11041223 0.12627112
0.94433530 0.19804288 0.18470641
0.96575258 0.56901576 0.45175591
0.95581484 0.69822443 0.57818484
0.01701211 0.02181435 0.06255559
0.02103881 0.02418920 0.06914688
0.05902938 0.02300670 0.06157762
0.26065526 0.03135459 0.04388314
0.61835630 0.06330056 0.08013402
0.87732695 0.11046148 0.12522569
0.94445637 0.19779082 0.18194019
0.96575268 0.56900854 0.45174938
0.95581484 0.69822443 0.57818484
0.01402125 0.04738748 0.05567024
0.01942243 0.05268641 0.06191055
0.08648305 0.09002678 0.09848085
0.34056724 0.07090206 0.07464005
0.61690632 0.08865717 0.08594839
0.87756902 0.11052431 0.12390021
0.94464587 0.19752267 0.17855792
0.96575279 0.56899966 0.45174135
0.95581484 0.69822443 0.57818484
0.01929066 0.17158192 0.05047767
0.02496256 0.17262639 0.05033320
0.07503140 0.23630625 0.08626671
0.28351760 0.26332759 0.06846416
0.65355415 0.19971529 0.08830324
0.88228159 0.21628607 0.12748322
0.94534639 0.19685844 0.16845093
0.96575315 0.56897283 0.45171707
0.95581484 0.69822443 0.57818484
0.07855228 0.43299937 0.09604298
0.08522499 0.43395656 0.09510120
0.14337532 0.44942432 0.10885311
0.20026997 0.49573106 0.12709418
0.58253751 0.54025546 0.10598193
0.87728335 0.52505663 0.12935308
0.94446832 0.49105858 0.17662912
0.96496593 0.57598405 0.45305609
0.95581484 0.69822443 0.57818484
0.18443693 0.64460633 0.16650674
0.18438293 0.64453533 0.16644722
0.26010767 0.66728398 0.16640780
0.38342948 0.70285791 0.17154299
0.52280532 0.74836819 0.19955285
0.84370076 0.79315569 0.20640198
0.93458039 0.77971321 0.26614649
0.96090376 0.79282170 0.52039798
0.95361902 0.71833044 0.58188670
0.57325950 0.83106047 0.45392304
0.57320746 0.83104408 0.45387690
0.57314349 0.83102393 0.45382021
0.68164349 0.84783483 0.47621211
0.76358624 0.86504616 0.51462763
0.84005530 0.88355733 0.57962505
0.94795380 0.90037207 0.57757822
0.96263987 0.89965852 0.65657914
0.96277149 0.88876385 0.66899512
0.84902782 0.90890284 0.74428443
0.84902272 0.90890130 0.74427754
0.84901646 0.90889940 0.74426908
0.84899753 0.90889366 0.74424349
0.90034323 0.91600403 0.76409222
0.91961384 0.92017731 0.78017766
0.93457959 0.92600219 0.80662200
0.95520830 0.92654044 0.79973826
0.95752753 0.92686638 0.80289815
0.88394129 0.91991705 0.79284424
0.88394129 0.91991705 0.79284424
0.88394129 0.91991705 0.79284424
0.88394129 0.91991705 0.79284424
0.88394129 0.91991705 0.79284424
0.92632110 0.92635508 0.81054282
0.93860424 0.93075126 0.82867949
0.95362529 0.93303024 0.83244615
0.95652437 0.93313634 0.83258933
0.00000000 0.04081255 0.22922835
0.00028138 0.04082964 0.22939102
0.02409684 0.04414236 0.24566865
0.22501931 0.05234489 0.22242404
0.58706920 0.05832866 0.20098467
0.86734246 0.11486115 0.23184029
0.95300655 0.23075290 0.34166770
0.96758285 0.58970537 0.49812485
0.95581484 0.69822443 0.57818484
0.00000000 0.04062759 0.22791950
0.00038565 0.04063663 0.22804418
0.02384477 0.04390636 0.24420156
0.22440164 0.05189099 0.22069055
0.58699489 0.05818782 0.19971995
0.86732005 0.11471456 0.23077971
0.95295494 0.23050066 0.34085999
0.96751683 0.58854506 0.49568625
0.95581484 0.69822443 0.57818484
0.00133377 0.06560745 0.22435568
0.00304805 0.06495549 0.22455458
0.04699501 0.10436275 0.28472061
0.27758123 0.10207347 0.27217803
0.59470512 0.07800773 0.20077237
0.86729483 0.11454023 0.22948939
0.95289093 0.23018782 0.33985794
0.96742961 0.58714143 0.49271513
0.95581484 0.69822443 0.57818484
0.02910912 0.20584009 0.21812203
0.03108693 0.20501786 0.21777702
0.09479484 0.26442506 0.27077569
0.29738170 0.30315521 0.29829528
0.65532490 0.23334982 0.26105960
0.86445228 0.26984486 0.26981044
0.95269292 0.22922443 0.33676939
0.96716890 0.58299607 0.48384323
0.95581484 0.69822443 0.57818484
0.09174396 0.46169439 0.22109676
0.09163647 0.46127397 0.22070823
0.16596277 0.48176398 0.23655601
0.27586451 0.53416215 0.30266778
0.61411648 0.57427984 0.26667306
0.86002328 0.51549280 0.30086247
0.94367448 0.52836375 0.39099920
0.96601480 0.57090601 0.45665990
0.95581484 0.69822443 0.57818484
0.19854931 0.67980847 0.32419151
0.19844427 0.67968388 0.32394700
0.26157498 0.70024769 0.32987725
0.47472289 0.73988532 0.38573689
0.56437144 0.77398440 0.42215943
0.85662912 0.81202901 0.40104259
0.94759541 0.80319710 0.41739218
0.96081630 0.79209198 0.52000276
0.95505343 0.70502237 0.57911446
0.57253565 0.83083251 0.45328142
0.57248350 0.83081609 0.45323520
0.57241940 0.83079590 0.45317839
0.67762633 0.84698472 0.47438856
0.76238528 0.86472090 0.51356337
0.83956826 0.88340992 0.57890584
0.94793947 0.90033149 0.57702177
0.96266019 0.89959117 0.65624961
0.96278302 0.88863354 0.66874886
0.84895699 0.90888137 0.74418870
0.84895189 0.90887982 0.74418181
0.84894562 0.90887792 0.74417334
0.84892668 0.90887218 0.74414774
0.90002524 0.91593873 0.76384011
0.91954337 0.92014935 0.78005109
0.93455572 0.92598584 0.80654787
0.95520809 0.92652845 0.79967808
0.95752917 0.92685603 0.80285022
0.88394129 0.91991705 0.79284424
0.88394129 0.91991705 0.79284424
0.88394129 0.91991705 0.79284424
0.88394129 0.91991705 0.79284424
0.88394129 0.91991705 0.79284424
0.92626902 0.92634219 0.81049671
0.93859452 0.93074640 0.82865780
0.95362210 0.93303031 0.83244759
0.95652437 0.93313634 0.83258933
0.00000000 0.09385120 0.52685546
0.00000000 0.09382223 0.52673279
0.00745408 0.09604594 0.53010856
0.20617991 0.13584770 0.57907175
0.57811734 0.16809544 0.58285810
0.85919496 0.19949254 0.54446358
0.96439337 0.32442056 0.57005239
0.96243116 0.67376938 0.67112229
0.95310099 0.72366709 0.64522661
0.00000000 0.09372399 0.52631682
0.00000000 0.09369496 0.52619391
0.00698997 0.09584252 0.52944275
0.20537783 0.13555142 0.57842891
0.57782727 0.16784302 0.58222338
0.85915807 0.19922909 0.54376556
0.96437159 0.32413713 0.56953257
0.96244174 0.67366711 0.67092785
0.95312779 0.72340283 0.64461136
0.00000000 0.09356733 0.52565348
0.00000000 0.09353823 0.52553028
0.00642114 0.09559253 0.52862298
0.20438824 0.13518650 0.57763704
0.57747020 0.16753230 0.58144190
0.85911267 0.19890461 0.54290582
0.96434273 0.32380349 0.56890386
0.96245478 0.67354107 0.67068820
0.95316138 0.72307148 0.64383989
0.05968700 0.25668765 0.52616195
0.05925035 0.25550318 0.52588420
0.08354973 0.26076165 0.53086738
0.25966879 0.34773434 0.57197574
0.63501333 0.35054518 0.58791035
0.89112390 0.35049255 0.55477767
0.96425180 0.32281619 0.56701266
0.96249443 0.67315770 0.66995912
0.95326777 0.72202224 0.64139699
0.13899405 0.53484369 0.54747976
0.13885763 0.53448616 0.54732253
0.16775577 0.54322874 0.55280196
0.34653057 0.59103317 0.57164619
0.64854947 0.65219462 0.61191413
0.88807302 0.57855973 0.55979694
0.94440136 0.59856745 0.56324017
0.96262606 0.67188658 0.66753198
0.95365736 0.71802141 0.63200325
0.25914522 0.73525706 0.55585176
0.25897451 0.73515504 0.55570534
0.25876454 0.73502958 0.55552523
0.54485066 0.77906293 0.56789787
0.61279710 0.79957595 0.60028166
0.87048093 0.82657416 0.56747712
0.93838015 0.80335831 0.59007176
0.94822896 0.80925415 0.68842983
0.95577858 0.69863049 0.57951642
0.64316095 0.86707763 0.64813027
0.64309250 0.86705860 0.64805677
0.64300834 0.86703519 0.64796639
0.73603361 0.87846908 0.66395634
0.79803238 0.87977734 0.68640966
0.83081025 0.89032047 0.72000727
0.93657191 0.89507829 0.69551652
0.95555157 0.90118781 0.73914464
0.96282121 0.88820178 0.66793288
0.84872344 0.90881056 0.74387306
0.84871833 0.90880901 0.74386615
0.84871205 0.90880711 0.74385767
0.84869307 0.90880136 0.74383201
0.89892146 0.91571572 0.76298278
0.91930919 0.92005660 0.77963148
0.93447664 0.92593184 0.80630319
0.95520748 0.92648870 0.79947630
0.95753458 0.92682189 0.80269216
0.88394129 0.91991705 0.79284424
0.88394129 0.91991705 0.79284424
0.88394129 0.91991705 0.79284424
0.88394129 0.91991705 0.79284424
0.88394129 0.91991705 0.79284424
0.92609499 0.92629913 0.81034265
0.93856243 0.93073034 0.82858616
0.95361160 0.93303055 0.83245235
0.95652437 0.93313634 0.83258933
0.08085898 0.20893842 0.77016303
0.08083833 0.20891957 0.77014457
0.08081295 0.20889641 0.77012190
0.21383673 0.24338464 0.79100986
0.59072962 0.31991195 0.84881073
0.87363466 0.36681643 0.86545221
0.96554433 0.52232691 0.83630491
0.95554011 0.74890911 0.79944820
0.94988158 0.79388945 0.79379054
0.08076835 0.20885570 0.77008205
0.08074769 0.20883684 0.77006358
0.08072229 0.20881367 0.77004089
0.21329280 0.24320165 0.79084540
0.59043371 0.31978030 0.84870706
0.87358472 0.36669025 0.86537387
0.96554207 0.52220068 0.83623086
0.95554383 0.74886467 0.79938639
0.94988187 0.79385840 0.79373391
0.08065691 0.20875399 0.76998247
0.08063623 0.20873512 0.76996399
0.08061082 0.20871192 0.76994129
0.21261983 0.24297543 0.79064242
0.59006962 0.31961840 0.84857957
0.87352334 0.36653523 0.86527753
0.96553929 0.52204544 0.83613980
0.95554841 0.74881002 0.79931038
0.94988223 0.79382021 0.79366426
0.08031959 0.20844611 0.76968106
0.08029887 0.20842720 0.76966254
0.08027340 0.20840395 0.76963979
0.21055462 0.24228254 0.79002297
0.58896623 0.31912837 0.84819351
0.87333772 0.36606697 0.86498588
0.96553086 0.52157547 0.83586414
0.95556228 0.74864459 0.79908026
0.94988332 0.79370456 0.79345332
0.18937731 0.59968267 0.79783615
0.18925411 0.59935010 0.79777857
0.18910233 0.59894029 0.79770766
0.32029010 0.63561624 0.80243337
0.60440458 0.69112593 0.80697984
0.87453808 0.67480244 0.79838989
0.93952585 0.69888111 0.77733101
0.95560816 0.74809709 0.79831853
0.94988692 0.79332128 0.79275431
0.38553474 0.80090779 0.81143539
0.38535979 0.80083668 0.81141718
0.38514470 0.80074925 0.81139480
0.52164104 0.82358250 0.81247579
0.67141715 0.83337528 0.79742996
0.87457700 0.86247684 0.81352510
0.93310466 0.83261012 0.78589987
0.94540302 0.82980746 0.77831453
0.94989226 0.79206561 0.79041833
0.72259492 0.89408527 0.80774403
0.72255519 0.89407519 0.80772482
0.72250636 0.89406279 0.80770121
0.72235867 0.89402530 0.80762980
0.83018398 0.89860778 0.80284349
0.84907614 0.90365698 0.81506084
0.93415921 0.90741277 0.79385002
0.95114254 0.90292369 0.79436530
0.95268521 0.88813666 0.78787881
0.87529714 0.92647496 0.84434843
0.87529146 0.92647302 0.84434107
0.87528448 0.92647064 0.84433204
0.87526336 0.92646345 0.84430471
0.90881651 0.92681772 0.84304197
0.91402114 0.92455908 0.84046982
0.92143827 0.92797776 0.85072606
0.94879493 0.92822600 0.83984915
0.95293401 0.92877711 0.84158069
0.88394129 0.91991705 0.79284424
0.88394129 0.91991705 0.79284424
0.88394129 0.91991705 0.79284424
0.88394129 0.91991705 0.79284424
0.88394129 0.91991705 0.79284424
0.92549197 0.92615414 0.80982714
0.93845573 0.93067696 0.82834803
0.95357692 0.93303133 0.83246806
0.95652437 0.93313634 0.83258933
0.31891340 0.59289029 0.87604860
0.31889964 0.59287628 0.87604579
0.31888274 0.59285907 0.87604233
0.31883166 0.59280703 0.87603189
0.58174697 0.65962478 0.89299870
0.88314017 0.74585666 0.89406530
0.94809675 0.76823275 0.88973733
0.94906409 0.82618586 0.87510579
0.95060708 0.84856409 0.87419232
0.31885305 0.59282882 0.87603626
0.31883930 0.59281482 0.87603345
0.31882240 0.59279760 0.87602999
0.31877130 0.59274556 0.87601954
0.58151453 0.65951002 0.89298874
0.88311498 0.74581220 0.89407004
0.94810184 0.76820219 0.88974037
0.94906447 0.82617264 0.87510005
0.95060687 0.84855677 0.87418589
0.31877889 0.59275328 0.87602109
0.31876513 0.59273927 0.87601828
0.31874822 0.59272205 0.87601482
0.31869712 0.59266999 0.87600437
0.58122828 0.65936878 0.89297646
0.88308401 0.74575755 0.89407587
0.94810809 0.76816462 0.88974412
0.94906494 0.82615637 0.87509299
0.95060660 0.84854777 0.87417797
0.31855461 0.59252484 0.87597523
0.31854085 0.59251082 0.87597241
0.31852393 0.59249359 0.87596895
0.31847279 0.59244150 0.87595849
0.58035903 0.65894033 0.89293913
0.88299033 0.74559226 0.89409347
0.94812702 0.76805101 0.88975546
0.94906637 0.82610720 0.87507165
0.95060580 0.84852056 0.87415404
0.31781508 0.59177159 0.87582398
0.31780129 0.59175754 0.87582116
0.31778433 0.59174027 0.87581769
0.31773309 0.59168807 0.87580721
0.57745262 0.65751293 0.89281369
0.88268093 0.74504694 0.89415149
0.94818942 0.76767622 0.88979292
0.94907109 0.82594502 0.87500126
0.95060317 0.84843082 0.87407513
0.53616013 0.83924220 0.89469746
0.53601961 0.83918731 0.89470151
0.53584677 0.83911979 0.89470649
0.53532340 0.83891532 0.89472157
0.72410190 0.85929617 0.87716774
0.85439399 0.87441476 0.88039057
0.92959664 0.86039385 0.86968829
0.94541481 0.86895398 0.86327787
0.95059445 0.84813384 0.87381396
0.80313182 0.91823117 0.88486909
0.80310879 0.91822611 0.88486675
0.80308049 0.91821989 0.88486389
0.80299490 0.91820106 0.88485522
0.86158217 0.91996600 0.88275421
0.87572585 0.91662259 0.87777866
0.93386814 0.92195840 0.87791359
0.94917736 0.91437804 0.87002244
0.95064087 0.90136903 0.86346444
0.89895247 0.93635528 0.88859761
0.89894955 0.93635465 0.88859648
0.89894596 0.93635387 0.88859508
0.89893512 0.93635153 0.88859087
0.89889939 0.93634381 0.88857700
0.92229467 0.93144045 0.87623090
0.92618856 0.93294540 0.87914651
0.94861520 0.93380340 0.87256800
0.95222762 0.93298972 0.87005094
0.90887199 0.93737727 0.88275531
0.90887130 0.93737696 0.88275391
0.90887045 0.93737657 0.88275220
0.90886789 0.93737539 0.88274702
0.90885945 0.93737150 0.88272995
0.92851628 0.93358595 0.87167924
0.93087836 0.93383296 0.87253269
0.94646783 0.93545487 0.87007545
0.95132653 0.93464309 0.86570535
0.73939054 0.84546936 0.90270895
0.73938768 0.84546792 0.90270876
0.73938415 0.84546615 0.90270852
0.73937351 0.84546080 0.90270781
0.73933844 0.84544318 0.90270547
0.86574165 0.87397669 0.90529467
0.93945089 0.89196534 0.90135472
0.95160961 0.89593052 0.89942763
0.95382276 0.90082887 0.89919374
0.73937797 0.84546304 0.90270811
0.73937510 0.84546160 0.90270792
0.73937158 0.84545983 0.90270768
0.73936093 0.84545448 0.90270697
0.73932586 0.84543686 0.90270463
0.86571702 0.87396892 0.90529511
0.93944928 0.89196202 0.90135426
0.95160934 0.89592809 0.89942704
0.95382265 0.90082712 0.89919316
0.73936251 0.84545527 0.90270708
0.73935964 0.84545383 0.90270689
0.73935612 0.84545206 0.90270665
0.73934547 0.84544671 0.90270594
0.73931040 0.84542909 0.90270360
0.86568672 0.87395936 0.90529564
0.93944731 0.89195795 0.90135368
0.95160902 0.89592510 0.89942632
0.95382251 0.90082496 0.89919245
0.73931579 0.84543179 0.90270396
0.73931292 0.84543035 0.90270377
0.73930939 0.84542858 0.90270354
0.73929874 0.84542323 0.90270283
0.73926367 0.84540560 0.90270049
0.86559501 0.87393046 0.90529725
0.93944136 0.89194563 0.90135194
0.95160804 0.89591607 0.89942412
0.95382209 0.90081845 0.89919031
0.73916187 0.84535443 0.90269370
0.73915900 0.84535299 0.90269351
0.73915547 0.84535122 0.90269327
0.73914481 0.84534586 0.90269256
0.73910972 0.84532822 0.90269022
0.86529147 0.87383495 0.90530260
0.93942173 0.89190507 0.90134620
0.95160482 0.89588631 0.89941690
0.95382072 0.90079701 0.89918324
0.73865433 0.84509935 0.90265986
0.73865145 0.84509790 0.90265967
0.73864792 0.84509613 0.90265943
0.73863724 0.84509076 0.90265872
0.73860207 0.84507308 0.90265637
0.86427897 0.87351780 0.90532064
0.93935698 0.89177131 0.90132731
0.95159418 0.89578814 0.89939307
0.95381619 0.90072630 0.89915994
0.85395759 0.92681837 0.90530487
0.85394512 0.92681512 0.90530451
0.85392980 0.92681111 0.90530407
0.85388344 0.92679901 0.90530274
0.85373050 0.92675907 0.90529834
0.89660661 0.92292442 0.89898028
0.92861761 0.92455375 0.89738154
0.94802553 0.92062226 0.89419489
0.95054365 0.91650653 0.89225950
0.91716853 0.94126986 0.90518315
0.91716711 0.94126956 0.90518309
0.91716536 0.94126919 0.90518301
0.91716006 0.94126809 0.90518276
0.91714263 0.94126443 0.90518194
0.93170782 0.93770070 0.89819774
0.93235971 0.93669276 0.89686747
0.94895044 0.93843531 0.89699509
0.95226702 0.93728155 0.89556810
0.92638075 0.94315395 0.90454765
0.92638062 0.94315391 0.90454755
0.92638045 0.94315387 0.90454743
0.92637996 0.94315374 0.90454708
0.92637835 0.94315330 0.90454591
0.92637303 0.94315186 0.90454207
0.93795096 0.93873613 0.89602766
0.94700168 0.94037382 0.89680609
0.95190699 0.94043322 0.89509149
0.82501864 0.88699907 0.90772092
0.82501864 0.88699907 0.90772092
0.82501864 0.88699907 0.90772092
0.82501864 0.88699907 0.90772092
0.82501864 0.88699907 0.90772092
0.82501864 0.88699907 0.90772092
0.92313224 0.90441865 0.90571487
0.95224534 0.91256366 0.90395278
0.95469630 0.91410285 0.90339953
0.82501864 0.88699907 0.90772092
0.82501864 0.88699907 0.90772092
0.82501864 0.88699907 0.90772092
0.82501864 0.88699907 0.90772092
0.82501864 0.88699907 0.90772092
0.82501864 0.88699907 0.90772092
0.92312759 0.90441775 0.90571516
0.95224524 0.91256370 0.90395282
0.95469630 0.91410285 0.90339953
0.82501864 0.88699907 0.90772092
0.82501864 0.88699907 0.90772092
0.82501864 0.88699907 0.90772092
0.82501864 0.88699907 0.90772092
0.82501864 0.88699907 0.90772092
0.82501864 0.88699907 0.90772092
0.92312187 0.90441663 0.90571552
0.95224512 0.91256375 0.90395286
0.95469630 0.91410285 0.90339953
0.82501864 0.88699907 0.90772092
0.82501864 0.88699907 0.90772092
0.82501864 0.88699907 0.90772092
0.82501864 0.88699907 0.90772092
0.82501864 0.88699907 0.90772092
0.82501864 0.88699907 0.90772092
0.92310459 0.90441327 0.90571661
0.95224475 0.91256389 0.90395300
0.95469630 0.91410285 0.90339953
0.82501864 0.88699907 0.90772092
0.82501864 0.88699907 0.90772092
0.82501864 0.88699907 0.90772092
0.82501864 0.88699907 0.90772092
0.82501864 0.88699907 0.90772092
0.82501864 0.88699907 0.90772092
0.92304760 0.90440217 0.90572019
0.95224353 0.91256434 0.90395346
0.95469630 0.91410285 0.90339953
0.82501864 0.88699907 0.90772092
0.82501864 0.88699907 0.90772092
0.82501864 0.88699907 0.90772092
0.82501864 0.88699907 0.90772092
0.82501864 0.88699907 0.90772092
0.82501864 0.88699907 0.90772092
0.92285905 0.90436546 0.90573205
0.95223952 0.91256585 0.90395496
0.95469630 0.91410285 0.90339953
0.82501864 0.88699907 0.90772092
0.82501864 0.88699907 0.90772092
0.82501864 0.88699907 0.90772092
0.82501864 0.88699907 0.90772092
0.82501864 0.88699907 0.90772092
0.82501864 0.88699907 0.90772092
0.92222667 0.90424235 0.90577176
0.95222629 0.91257082 0.90395993
0.95469630 0.91410285 0.90339953
0.91550942 0.94087892 0.90824481
0.91550780 0.94087853 0.90824486
0.91550580 0.94087804 0.90824491
0.91549977 0.94087659 0.90824506
0.91547990 0.94087180 0.90824556
0.91541436 0.94085600 0.90824721
0.93000306 0.93586928 0.90078576
0.94731421 0.93748047 0.90091277
0.95183108 0.93606293 0.89976786
0.93095219 0.94443667 0.90772593
0.93095219 0.94443667 0.90772593
0.93095219 0.94443667 0.90772593
0.93095219 0.94443667 0.90772593
0.93095219 0.94443667 0.90772593
0.93095219 0.94443667 0.90772593
0.94020653 0.94030622 0.90061774
0.94553790 0.94122472 0.90120126
0.95207721 0.94185370 0.90111667
