luts/L-Log_to_Pure_VLog.cube
TITLE "Generated from Leica Pure/Leica_Pure_Rec2020_LLog_to_Rec709_Gamma24_65.cube"
#LUMIXPHOTOSTYLE VLOG
LUT_3D_SIZE 5
0.00000562 0.00000562 0.00000562
0.05295974 0.00000000 0.00000000
0.61501750 0.00831459 0.00534975
0.98332051 0.16226137 0.13326434
0.99957919 0.75296718 0.65714937
0.00042368 0.03936209 0.00053705
0.04654721 0.05240652 0.00016488
0.62638946 0.03428073 0.00557708
0.98331653 0.16224216 0.13324658
0.99957919 0.75296718 0.65714937
0.04059972 0.56268545 0.03219778
0.11092496 0.57509730 0.03495549
0.59391680 0.61367756 0.04765957
0.98449088 0.49670856 0.14306816
0.99957919 0.75296718 0.65714937
0.57801538 0.96844998 0.49407817
0.57789942 0.96843582 0.49395584
0.73465017 0.97134098 0.52195619
0.97347546 0.97631218 0.56625059
0.99990685 0.94095344 0.71302548
0.93570668 0.99775946 0.91109395
0.93570668 0.99775946 0.91109395
0.93570668 0.99775946 0.91109395
0.97223821 0.99856506 0.93025439
0.99910611 0.99908847 0.93678713
0.00000000 0.00039611 0.04315430
0.04818005 0.00032968 0.04148040
0.63153494 0.00933010 0.03963899
0.98330885 0.16225738 0.16020981
0.99957919 0.75296718 0.65714937
0.00130631 0.04344126 0.03947578
0.09048917 0.09071061 0.09101464
0.63109976 0.04473727 0.04946657
0.98330267 0.16221175 0.15345822
0.99957919 0.75296718 0.65714937
0.04257025 0.56834902 0.07792275
0.13436972 0.57133326 0.10299056
0.59309125 0.61019982 0.09800731
0.98445461 0.49401562 0.14272127
0.99957919 0.75296718 0.65714937
0.57758139 0.96839700 0.49362035
0.57746529 0.96838283 0.49349787
0.73400620 0.97127204 0.52130414
0.97345473 0.97626867 0.56581298
0.99990645 0.94080512 0.71286709
0.93570668 0.99775946 0.91109395
0.93570668 0.99775946 0.91109395
0.93570668 0.99775946 0.91109395
0.97223064 0.99856453 0.93024213
0.99910611 0.99908847 0.93678713
0.01249575 0.02509199 0.58253543
0.03418956 0.02544935 0.58555510
0.61554769 0.04194578 0.57864269
0.98407061 0.18602747 0.55447658
0.99958254 0.75365497 0.71762205
0.01241493 0.02494443 0.58117110
0.03308205 0.02526978 0.58394385
0.61504797 0.04172777 0.57723209
0.98406991 0.18588985 0.55341646
0.99958239 0.75362138 0.71644792
0.08422561 0.59055459 0.57328522
0.12604922 0.58998111 0.57360219
0.60807021 0.60883880 0.60962760
0.97719977 0.51419998 0.54620529
0.99958121 0.75337203 0.70645822
0.60030317 0.97046833 0.67133193
0.60015653 0.97045251 0.67115957
0.74301663 0.96312297 0.69282076
0.96698882 0.97014673 0.70182097
0.99990352 0.93973648 0.71172590
0.93570668 0.99775946 0.91109395
0.93570668 0.99775946 0.91109395
0.93570668 0.99775946 0.91109395
0.97217633 0.99856075 0.93015415
0.99910611 0.99908847 0.93678713
0.31080193 0.54813981 0.97552552
0.31076233 0.54810429 0.97552233
0.54216479 0.55708457 0.97639030
0.97804897 0.62902004 0.97229601
0.99953661 0.83189920 0.96425440
0.31062817 0.54798396 0.97551150
0.31058856 0.54794843 0.97550830
0.54166548 0.55688698 0.97637293
0.97804427 0.62889439 0.97227876
0.99953675 0.83187507 0.96423284
0.30938317 0.54686726 0.97541103
0.30934345 0.54683164 0.97540782
0.53802976 0.55546407 0.97624767
0.97801064 0.62799377 0.97215516
0.99953776 0.83170216 0.96407836
0.77057219 0.97326887 0.97063122
0.77049709 0.97325660 0.97062707
0.83031381 0.96905206 0.96620177
0.97162663 0.97178131 0.97190087
0.99986211 0.92873547 0.95721870
0.94940021 0.99828724 0.96769039
0.94939854 0.99828722 0.96768668
0.94938661 0.99828708 0.96766015
0.97023809 0.99817871 0.96654954
0.99895550 0.99892377 0.96393818
0.86907953 0.94259977 0.99884927
0.86907953 0.94259977 0.99884927
0.86907953 0.94259977 0.99884927
0.94737387 0.94704063 0.99910365
0.99957561 0.95945293 0.99892640
0.86907953 0.94259977 0.99884927
0.86907953 0.94259977 0.99884927
0.86907953 0.94259977 0.99884927
0.94735798 0.94703888 0.99910355
0.99957561 0.95945293 0.99892640
0.86907953 0.94259977 0.99884927
0.86907953 0.94259977 0.99884927
0.86907953 0.94259977 0.99884927
0.94724410 0.94702636 0.99910286
0.99957561 0.95945293 0.99892640
0.86907953 0.94259977 0.99884927
0.86907953 0.94259977 0.99884927
0.86907953 0.94259977 0.99884927
0.94601159 0.94689109 0.99909537
0.99957561 0.95945293 0.99892640
0.97904742 0.99918866 0.99901229
0.97904742 0.99918866 0.99901229
0.97904742 0.99918866 0.99901229
0.98538596 0.99881840 0.99855966
0.99997371 0.99997371 0.99997383
