luts/L-Log_to_Pure_VLog.cube
TITLE "Generated from Leica Pure/Leica_Pure_Rec2020_LLog_to_Rec709_Gamma24_65.cube"
#LUMIXPHOTOSTYLE VLOG
LUT_3D_SIZE 33
0.00000562 0.00000562 0.00000562
0.00000562 0.00000562 0.00000562
0.00006464 0.00000000 0.00000000
0.00095133 0.00000000 0.00000000
0.00333022 0.00000000 0.00000000
0.00858250 0.00000000 0.00000000
0.01788021 0.00000000 0.00000000
0.03213672 0.00000000 0.00000000
0.05295974 0.00000000 0.00000000
0.08250469 0.00000000 0.00000000
0.12332556 0.00010681 0.00000000
0.17760711 0.00043330 0.00011020
0.24562362 0.00096038 0.00044272
0.32521089 0.00183092 0.00097660
0.41548619 0.00322704 0.00184072
0.51574437 0.00528312 0.00324384
0.61501750 0.00831459 0.00534975
0.70420996 0.01286152 0.00853400
0.78187595 0.01966351 0.01334283
0.84647988 0.02971224 0.02054913
0.89685927 0.04429867 0.03126835
0.93317174 0.06484310 0.04703275
0.95749926 0.09188089 0.06936949
0.97329732 0.12435717 0.09840164
0.98332051 0.16226137 0.13326434
0.98963578 0.23592576 0.17387322
0.99359909 0.36609038 0.23810929
0.99619718 0.49079678 0.36766251
0.99794315 0.60705347 0.49174645
0.99914940 0.71060968 0.60746670
0.99957919 0.75296718 0.65714937
0.99957919 0.75296718 0.65714937
0.99957919 0.75296718 0.65714937
0.00000562 0.00000562 0.00000562
0.00000562 0.00000562 0.00000562
0.00006004 0.00000000 0.00000000
0.00093339 0.00000000 0.00000000
0.00328962 0.00000000 0.00000000
0.00849741 0.00000000 0.00000000
0.01775812 0.00000000 0.00000000
0.03197926 0.00000000 0.00000000
0.05279669 0.00000000 0.00000000
0.08233950 0.00000000 0.00000000
0.12316271 0.00010595 0.00000000
0.17745278 0.00043230 0.00010956
0.24547691 0.00095896 0.00044183
0.32508806 0.00182925 0.00097561
0.41538496 0.00322524 0.00183955
0.51566246 0.00528123 0.00324254
0.61496134 0.00831259 0.00534836
0.70417445 0.01285898 0.00853221
0.78185319 0.01966082 0.01334091
0.84646598 0.02970941 0.02054709
0.89685127 0.04429575 0.03126618
0.93316810 0.06483980 0.04703011
0.95749741 0.09187794 0.06936693
0.97329641 0.12435463 0.09839932
0.98332006 0.16225922 0.13326235
0.98963560 0.23592050 0.17387143
0.99359900 0.36608661 0.23810540
0.99619713 0.49079412 0.36765971
0.99794313 0.60705164 0.49174447
0.99914938 0.71060848 0.60746533
0.99957919 0.75296718 0.65714937
0.99957919 0.75296718 0.65714937
0.99957919 0.75296718 0.65714937
0.00000000 0.00008951 0.00000141
0.00000000 0.00008110 0.00000184
0.00002960 0.00006710 0.00000000
0.00090104 0.00000000 0.00000000
0.00327923 0.00000000 0.00000000
0.00853003 0.00000000 0.00000000
0.01778629 0.00000000 0.00000000
0.03194153 0.00000000 0.00000000
0.05268490 0.00000000 0.00000000
0.08217410 0.00000000 0.00000000
0.12299970 0.00010509 0.00000000
0.17729833 0.00043130 0.00010893
0.24533012 0.00095753 0.00044095
0.32496518 0.00182759 0.00097461
0.41528369 0.00322344 0.00183837
0.51558053 0.00527934 0.00324123
0.61490516 0.00831059 0.00534697
0.70413894 0.01285644 0.00853042
0.78183043 0.01965813 0.01333900
0.84645208 0.02970658 0.02054504
0.89684326 0.04429282 0.03126401
0.93316446 0.06483650 0.04702747
0.95749557 0.09187498 0.06936436
0.97329550 0.12435209 0.09839700
0.98331961 0.16225706 0.13326036
0.98963543 0.23591525 0.17386964
0.99359891 0.36608283 0.23810150
0.99619708 0.49079145 0.36765691
0.99794310 0.60704981 0.49174249
0.99914937 0.71060728 0.60746397
0.99957919 0.75296718 0.65714937
0.99957919 0.75296718 0.65714937
0.99957919 0.75296718 0.65714937
0.00000000 0.00085811 0.00000000
0.00000000 0.00082207 0.00000000
0.00000000 0.00082716 0.00000000
0.00064410 0.00084522 0.00000000
0.00316445 0.00057736 0.00000000
0.00877251 0.00014081 0.00000000
0.01879462 0.00000000 0.00000000
0.03349106 0.00000000 0.00000000
0.05453574 0.00000000 0.00000000
0.08410910 0.00000000 0.00000000
0.12479475 0.00026888 0.00000000
0.17878422 0.00081072 0.00011044
0.24630866 0.00152669 0.00044241
0.32545509 0.00246519 0.00097561
0.41534429 0.00355293 0.00183814
0.51549857 0.00527745 0.00323993
0.61484897 0.00830859 0.00534557
0.70410342 0.01285390 0.00852863
0.78180767 0.01965543 0.01333708
0.84643818 0.02970374 0.02054299
0.89683525 0.04428990 0.03126184
0.93316082 0.06483320 0.04702482
0.95749372 0.09187203 0.06936179
0.97329459 0.12434955 0.09839469
0.98331917 0.16225491 0.13325837
0.98963525 0.23591000 0.17386785
0.99359882 0.36607906 0.23809761
0.99619704 0.49078878 0.36765411
0.99794308 0.60704798 0.49174051
0.99914936 0.71060608 0.60746261
0.99957919 0.75296718 0.65714937
0.99957919 0.75296718 0.65714937
0.99957919 0.75296718 0.65714937
0.00000000 0.00273912 0.00000000
0.00000000 0.00266415 0.00000000
0.00000000 0.00265555 0.00000000
0.00007136 0.00322799 0.00000477
0.00239010 0.00302111 0.00000000
0.00840389 0.00239467 0.00000000
0.01884694 0.00141830 0.00000000
0.03453032 0.00061645 0.00000000
0.05675095 0.00019887 0.00000000
0.08707115 0.00025287 0.00000000
0.12800800 0.00069799 0.00000000
0.18184592 0.00147542 0.00011332
0.24887828 0.00258559 0.00044679
0.32742016 0.00411499 0.00098126
0.41675396 0.00603061 0.00184579
0.51624027 0.00799092 0.00324668
0.61497108 0.00960598 0.00534724
0.70406790 0.01285136 0.00852685
0.78178491 0.01965274 0.01333517
0.84642427 0.02970091 0.02054095
0.89682724 0.04428698 0.03125967
0.93315718 0.06482990 0.04702218
0.95749188 0.09186908 0.06935923
0.97329368 0.12434701 0.09839237
0.98331872 0.16225275 0.13325638
0.98963507 0.23590475 0.17386606
0.99359873 0.36607528 0.23809372
0.99619699 0.49078612 0.36765131
0.99794305 0.60704615 0.49173853
0.99914935 0.71060488 0.60746124
0.99957919 0.75296718 0.65714937
0.99957919 0.75296718 0.65714937
0.99957919 0.75296718 0.65714937
0.00000000 0.00678484 0.00005389
0.00000000 0.00663700 0.00005175
0.00000000 0.00657248 0.00005134
0.00000000 0.00751827 0.00007179
0.00082811 0.00861173 0.00006115
0.00640495 0.00810386 0.00000000
0.01799769 0.00699436 0.00000000
0.03490832 0.00531256 0.00000000
0.05856082 0.00379938 0.00000000
0.09074077 0.00269759 0.00000000
0.13296841 0.00232315 0.00000000
0.18693265 0.00279747 0.00011600
0.25328165 0.00410340 0.00045332
0.33070255 0.00608475 0.00099055
0.41911584 0.00874109 0.00185918
0.51781081 0.01168801 0.00326177
0.61583561 0.01460346 0.00536180
0.70432442 0.01680949 0.00853420
0.78176214 0.01965005 0.01333325
0.84641037 0.02969808 0.02053890
0.89681923 0.04428405 0.03125750
0.93315354 0.06482660 0.04701954
0.95749004 0.09186613 0.06935666
0.97329276 0.12434447 0.09839005
0.98331827 0.16225060 0.13325438
0.98963489 0.23589949 0.17386426
0.99359864 0.36607151 0.23808983
0.99619695 0.49078345 0.36764851
0.99794303 0.60704432 0.49173654
0.99914933 0.71060368 0.60745988
0.99957919 0.75296718 0.65714937
0.99957919 0.75296718 0.65714937
0.99957919 0.75296718 0.65714937
0.00004419 0.01346215 0.00014899
0.00004238 0.01325973 0.00014615
0.00004606 0.01315473 0.00014508
0.00012964 0.01440041 0.00016865
0.00031557 0.01647976 0.00020819
0.00331292 0.01839266 0.00014418
0.01411954 0.01739222 0.00000000
0.03276062 0.01579214 0.00000000
0.05931029 0.01346348 0.00000000
0.09431782 0.01061925 0.00000000
0.13921570 0.00814685 0.00000000
0.19465392 0.00681280 0.00011907
0.26035362 0.00700504 0.00046125
0.33644928 0.00884010 0.00100627
0.42327186 0.01192013 0.00188434
0.52058825 0.01571561 0.00328934
0.61729973 0.01986742 0.00538743
0.70503084 0.02369443 0.00855594
0.78196763 0.02582063 0.01334475
0.84639637 0.02969523 0.02053684
0.89681117 0.04428111 0.03125532
0.93314988 0.06482327 0.04701688
0.95748818 0.09186316 0.06935408
0.97329185 0.12434191 0.09838771
0.98331782 0.16224843 0.13325238
0.98963471 0.23589420 0.17386246
0.99359855 0.36606771 0.23808591
0.99619690 0.49078077 0.36764569
0.99794301 0.60704248 0.49173455
0.99914932 0.71060247 0.60745850
0.99957919 0.75296718 0.65714937
0.99957919 0.75296718 0.65714937
0.99957919 0.75296718 0.65714937
0.00016167 0.02382812 0.00029677
0.00015861 0.02359527 0.00029336
0.00016958 0.02345374 0.00029170
0.00040245 0.02486340 0.00031995
0.00076053 0.02720740 0.00036814
0.00175445 0.03099606 0.00043628
0.00924387 0.03353631 0.00024788
0.02701277 0.03140608 0.00000000
0.05472346 0.02933055 0.00000000
0.09441191 0.02665484 0.00000000
0.14452131 0.02258355 0.00000000
0.20428482 0.01828084 0.00016813
0.27122140 0.01525578 0.00049366
0.34602336 0.01466278 0.00104510
0.43070918 0.01667512 0.00193834
0.52614357 0.02082066 0.00335087
0.62051629 0.02633909 0.00544770
0.70662456 0.03243975 0.00860751
0.78260327 0.03715598 0.01338204
0.84652191 0.03796650 0.02055092
0.89680124 0.04427749 0.03125263
0.93314537 0.06481918 0.04701360
0.95748589 0.09185950 0.06935090
0.97329072 0.12433876 0.09838484
0.98331727 0.16224576 0.13324991
0.98963448 0.23588769 0.17386024
0.99359844 0.36606303 0.23808108
0.99619684 0.49077746 0.36764222
0.99794298 0.60704022 0.49173209
0.99914930 0.71060099 0.60745681
0.99957919 0.75296718 0.65714937
0.99957919 0.75296718 0.65714937
0.99957919 0.75296718 0.65714937
0.00042368 0.03936209 0.00053705
0.00041902 0.03910941 0.00053305
0.00043745 0.03892762 0.00053052
0.00095600 0.04048148 0.00056412
0.00164159 0.04307585 0.00062094
0.00267091 0.04748421 0.00072051
0.00594245 0.05356615 0.00079073
0.01990742 0.05623666 0.00045402
0.04654721 0.05240652 0.00016488
0.08641415 0.04961668 0.00014340
0.14243727 0.04654464 0.00022949
0.20946245 0.04101095 0.00038825
0.28201264 0.03438761 0.00067674
0.35865274 0.02870933 0.00119287
0.44184432 0.02658659 0.00207688
0.53486187 0.02853383 0.00347609
0.62638946 0.03428073 0.00557708
0.71026074 0.04247687 0.00873774
0.78441254 0.05181138 0.01349514
0.84711414 0.05801738 0.02062075
0.89687057 0.05521739 0.03126936
0.93313929 0.06481367 0.04700919
0.95748281 0.09185457 0.06934661
0.97328919 0.12433452 0.09838097
0.98331653 0.16224216 0.13324658
0.98963419 0.23587892 0.17385725
0.99359829 0.36605673 0.23807458
0.99619676 0.49077301 0.36763755
0.99794294 0.60703716 0.49172878
0.99914928 0.71059899 0.60745453
0.99957919 0.75296718 0.65714937
0.99957919 0.75296718 0.65714937
0.99957919 0.75296718 0.65714937
0.00094766 0.06245290 0.00092733
0.00093882 0.06212863 0.00092142
0.00095112 0.06187001 0.00091702
0.00196192 0.06358710 0.00095726
0.00318418 0.06645657 0.00102499
0.00480452 0.07131694 0.00114314
0.00688216 0.07858271 0.00132919
0.01417000 0.08738430 0.00137278
0.03657865 0.08900403 0.00091014
0.07526767 0.08303963 0.00062907
0.13059459 0.07927770 0.00065695
0.20461039 0.07563352 0.00085633
0.28603702 0.06826402 0.00116846
0.36941658 0.05841204 0.00166939
0.45575847 0.04874948 0.00247503
0.54724682 0.04427697 0.00378773
0.63466225 0.04619532 0.00583003
0.71566754 0.05414185 0.00897721
0.78782905 0.06615554 0.01373929
0.84894197 0.08011485 0.02085451
0.89741590 0.08948201 0.03140752
0.93317545 0.07903228 0.04702746
0.95747867 0.09184794 0.06934084
0.97328714 0.12432880 0.09837575
0.98331552 0.16223731 0.13324210
0.98963378 0.23586711 0.17385322
0.99359809 0.36604824 0.23806583
0.99619666 0.49076701 0.36763125
0.99794288 0.60703305 0.49172433
0.99914925 0.71059629 0.60745146
0.99957919 0.75296718 0.65714937
0.99957919 0.75296718 0.65714937
0.99957919 0.75296718 0.65714937
0.00192177 0.09657067 0.00158929
0.00191146 0.09623683 0.00158196
0.00190113 0.09590222 0.00157461
0.00363421 0.09764140 0.00162296
0.00560847 0.10061732 0.00170658
0.00795559 0.10564735 0.00185252
0.01060634 0.11327409 0.00208750
0.01407535 0.12387366 0.00243573
0.02744477 0.13496523 0.00243102
0.06185819 0.13479960 0.00185005
0.11607298 0.12622761 0.00157381
0.18945228 0.12130636 0.00171261
0.27900606 0.11682900 0.00211094
0.37203895 0.10702579 0.00267227
0.46630725 0.09296292 0.00344907
0.56129264 0.07843191 0.00459803
0.64604216 0.06990447 0.00644301
0.72318111 0.07190925 0.00946141
0.79251127 0.08278033 0.01416980
0.85172257 0.09984393 0.02127476
0.89891926 0.11980902 0.03182793
0.93364550 0.13363546 0.04729245
0.95749592 0.10985155 0.06936011
0.97328438 0.12432111 0.09836873
0.98331417 0.16223078 0.13323607
0.98963324 0.23585119 0.17384780
0.99359782 0.36603680 0.23805403
0.99619652 0.49075893 0.36762277
0.99794281 0.60702751 0.49171832
0.99914921 0.71059266 0.60744733
0.99957919 0.75296718 0.65714937
0.99957919 0.75296718 0.65714937
0.99957919 0.75296718 0.65714937
0.00350020 0.14430962 0.00276371
0.00348826 0.14398007 0.00275434
0.00347629 0.14364996 0.00274497
0.00604603 0.14531081 0.00280527
0.00900249 0.14827089 0.00291317
0.01230639 0.15323992 0.00309902
0.01578299 0.16087726 0.00339711
0.01985375 0.17156143 0.00383678
0.02555325 0.18545277 0.00442358
0.04824418 0.19760922 0.00432965
0.09827857 0.19609406 0.00365638
0.17137230 0.18487479 0.00336628
0.26170576 0.17822816 0.00364807
0.36278046 0.17239973 0.00431607
0.46711379 0.16001274 0.00520689
0.56999649 0.14100949 0.00635320
0.65799846 0.12028016 0.00798146
0.73308411 0.10636031 0.01060154
0.79890135 0.10837823 0.01505984
0.85545937 0.12276636 0.02202410
0.90097428 0.14603249 0.03252651
0.93470812 0.17272539 0.04796728
0.95786261 0.18996165 0.06981049
0.97329219 0.14648663 0.09838749
0.98331234 0.16222198 0.13322793
0.98963251 0.23582975 0.17384049
0.99359745 0.36602139 0.23803814
0.99619633 0.49074805 0.36761134
0.99794271 0.60702005 0.49171023
0.99914916 0.71058777 0.60744176
0.99957919 0.75296718 0.65714937
0.99957919 0.75296718 0.65714937
0.99957919 0.75296718 0.65714937
0.00605016 0.20756860 0.00477264
0.00603647 0.20726105 0.00476185
0.00602276 0.20695310 0.00475104
0.00950892 0.20837895 0.00481785
0.01372717 0.21110371 0.00494451
0.01834756 0.21574429 0.00516311
0.02280929 0.22264763 0.00549905
0.02784674 0.23261246 0.00600987
0.03397138 0.24543815 0.00671729
0.04365703 0.26152246 0.00759191
0.07852586 0.27339087 0.00741733
0.14835308 0.27046249 0.00664244
0.24101978 0.25742049 0.00638071
0.34345865 0.24957532 0.00690089
0.45465081 0.24264609 0.00797415
0.56816003 0.22805973 0.00933992
0.66404941 0.20421497 0.01103162
0.74255850 0.17678702 0.01337732
0.80688724 0.15750489 0.01715525
0.86042718 0.15801190 0.02358812
0.90367760 0.17629693 0.03377531
0.93610098 0.20600984 0.04906192
0.95855369 0.23767685 0.07077638
0.97355036 0.25561965 0.09905209
0.98331561 0.18906136 0.13324508
0.98963152 0.23580087 0.17383064
0.99359695 0.36600063 0.23801674
0.99619608 0.49073339 0.36759594
0.99794258 0.60701000 0.49169934
0.99914909 0.71058118 0.60743425
0.99957919 0.75296718 0.65714937
0.99957919 0.75296718 0.65714937
0.99957919 0.75296718 0.65714937
0.01009059 0.28471876 0.00795422
0.01007523 0.28445567 0.00794214
0.01005987 0.28419232 0.00793004
0.01442436 0.28521609 0.00799728
0.02023158 0.28741758 0.00813868
0.02641333 0.29111704 0.00837821
0.03227780 0.29675616 0.00875241
0.03859091 0.30517366 0.00933662
0.04593206 0.31604784 0.01013968
0.05480472 0.32990338 0.01124669
0.07009732 0.34701115 0.01253982
0.12087836 0.35822889 0.01229490
0.21326651 0.35392203 0.01142309
0.32111716 0.33936817 0.01123088
0.43294096 0.33044621 0.01209655
0.55281701 0.32283945 0.01379181
0.65976598 0.30747044 0.01593467
0.74606427 0.28068041 0.01844160
0.81370686 0.24786980 0.02183240
0.86627419 0.22333852 0.02721405
0.90716156 0.22188506 0.03636752
0.93790035 0.24381809 0.05102355
0.95944803 0.27740394 0.07233739
0.97398117 0.31121073 0.10032963
0.98348739 0.32955913 0.13414193
0.98963318 0.26511447 0.17384600
0.99359629 0.36597267 0.23798790
0.99619574 0.49071364 0.36757520
0.99794240 0.60699646 0.49168466
0.99914899 0.71057230 0.60742415
0.99957919 0.75296718 0.65714937
0.99957919 0.75296718 0.65714937
0.99957919 0.75296718 0.65714937
0.01633303 0.37135909 0.01286877
0.01631613 0.37114500 0.01285545
0.01629921 0.37093077 0.01284213
0.02128609 0.37155188 0.01290269
0.02907968 0.37320343 0.01305551
0.03720942 0.37593959 0.01330846
0.04496075 0.38035778 0.01372244
0.05293976 0.38714598 0.01437919
0.06188559 0.39610477 0.01528874
0.07220627 0.40758360 0.01652759
0.08472899 0.42233369 0.01825310
0.10683402 0.44029512 0.02021654
0.17733223 0.45076455 0.01988337
0.29070443 0.44472122 0.01890277
0.40868336 0.42852831 0.01877928
0.52885759 0.41850578 0.02015994
0.64384168 0.41023062 0.02278366
0.74017341 0.39396280 0.02608607
0.81492575 0.36532672 0.02985024
0.87074098 0.32895176 0.03457558
0.91103938 0.30084521 0.04215324
0.94014144 0.29808225 0.05498470
0.96058754 0.32152914 0.07515958
0.97453386 0.35673804 0.10241219
0.98375144 0.39222792 0.13575103
0.98974582 0.42397354 0.17499317
0.99359702 0.39219344 0.23799860
0.99619528 0.49068704 0.36754726
0.99794215 0.60697822 0.49166489
0.99914886 0.71056034 0.60741053
0.99957919 0.75296718 0.65714937
0.99957919 0.75296718 0.65714937
0.99957919 0.75296718 0.65714937
0.02603560 0.46611552 0.02054056
0.02601346 0.46593923 0.02052296
0.02599131 0.46576283 0.02050536
0.03094212 0.46606538 0.02054912
0.04119990 0.46725181 0.02070682
0.05175326 0.46921180 0.02096659
0.06198194 0.47251899 0.02140841
0.07216185 0.47777077 0.02212628
0.08320015 0.48492866 0.02314911
0.09544913 0.49416982 0.02453249
0.10958575 0.50610816 0.02643361
0.12656350 0.52133921 0.02905136
0.15709019 0.53979069 0.03200243
0.24859318 0.54905872 0.03159809
0.37600333 0.54115746 0.03036998
0.50228215 0.52335415 0.03023533
0.62037244 0.51240252 0.03241147
0.72440889 0.50339382 0.03640523
0.80843498 0.48613571 0.04133496
0.87043510 0.45603307 0.04674567
0.91356913 0.41730278 0.05330971
0.94250271 0.38562423 0.06343064
0.96194593 0.38268375 0.08080144
0.97522096 0.40620742 0.10616583
0.98408605 0.44285288 0.13837990
0.98990891 0.48749414 0.17694577
0.99367349 0.53326726 0.24038033
0.99619571 0.51382893 0.36755245
0.99794183 0.60695364 0.49163825
0.99914869 0.71054423 0.60739219
0.99957919 0.75296718 0.65714937
0.99957919 0.75296718 0.65714937
0.99957919 0.75296718 0.65714937
0.04059972 0.56268545 0.03219778
0.04057630 0.56256465 0.03217886
0.04055287 0.56244380 0.03215993
0.04405906 0.56249417 0.03217682
0.05726005 0.56321870 0.03233511
0.07071318 0.56442631 0.03259624
0.08403476 0.56648491 0.03304130
0.09724053 0.57008210 0.03382930
0.11092496 0.57509730 0.03495549
0.12559261 0.58171140 0.03649411
0.14178415 0.59024862 0.03856889
0.16042859 0.60136101 0.04143691
0.18250894 0.61540448 0.04531952
0.22231810 0.63218425 0.04965792
0.33087646 0.63907203 0.04923966
0.46693500 0.63072305 0.04772049
0.59391680 0.61367756 0.04765957
0.70190323 0.60297005 0.05080417
0.79362771 0.59427820 0.05654935
0.86419264 0.57799912 0.06349110
0.91257783 0.54891609 0.07085852
0.94372803 0.51020283 0.07951098
0.96325554 0.47714363 0.09245334
0.97600340 0.47307693 0.11361670
0.98449088 0.49670856 0.14306816
0.99011345 0.53712020 0.18011934
0.99377959 0.58545176 0.24424154
0.99624896 0.63313294 0.36986701
0.99794204 0.62696981 0.49163702
0.99914845 0.71052252 0.60736748
0.99957919 0.75296718 0.65714937
0.99957919 0.75296718 0.65714937
0.99957919 0.75296718 0.65714937
0.06168984 0.64942239 0.04950408
0.06166597 0.64934139 0.04948422
0.06164209 0.64926037 0.04946436
0.06161821 0.64917933 0.04944450
0.07765637 0.64959342 0.04958934
0.09437135 0.65031162 0.04983620
0.11120298 0.65153709 0.05025490
0.12843617 0.65386309 0.05105306
0.14554373 0.65737322 0.05227740
0.16307045 0.66199857 0.05393024
0.18168060 0.66804258 0.05615774
0.20214456 0.67592022 0.05918195
0.22529181 0.68605716 0.06327905
0.25222256 0.69883035 0.06875641
0.30189903 0.71361755 0.07459784
0.41885049 0.71905712 0.07432768
0.55896193 0.71067056 0.07260599
0.67665339 0.69448486 0.07280636
0.77283900 0.68425195 0.07736694
0.85103276 0.67590627 0.08521343
0.90711090 0.66122790 0.09428642
0.94254759 0.63456474 0.10345427
0.96368950 0.59867516 0.11393719
0.97667357 0.56851216 0.12875365
0.98493162 0.56369139 0.15232749
0.99035646 0.58654846 0.18569367
0.99391185 0.62695532 0.25042176
0.99632102 0.67475234 0.37351278
0.99798076 0.72242627 0.49380741
0.99914859 0.72740147 0.60736362
0.99957919 0.75296718 0.65714937
0.99957919 0.75296718 0.65714937
0.99957919 0.75296718 0.65714937
0.09038522 0.72634878 0.07410833
0.09036241 0.72629517 0.07408842
0.09033959 0.72624156 0.07406851
0.09031677 0.72618793 0.07404859
0.10166369 0.72631405 0.07411977
0.12170593 0.72670991 0.07432802
0.14211864 0.72736810 0.07467050
0.16439668 0.72877949 0.07540222
0.18578977 0.73115587 0.07664383
0.20661709 0.73431064 0.07831668
0.22779802 0.73850053 0.08058343
0.24999084 0.74392673 0.08359209
0.27412095 0.75104112 0.08767189
0.30083322 0.76008565 0.09306785
0.33153787 0.77149734 0.10019742
0.38669464 0.78440148 0.10762915
0.51063517 0.78861986 0.10773145
0.64329943 0.78061244 0.10624180
0.74945460 0.76576664 0.10707523
0.83303510 0.75624347 0.11296736
0.89645563 0.74873056 0.12269281
0.93820566 0.73559755 0.13348921
0.96251474 0.71137528 0.14379817
0.97675202 0.67854578 0.15479348
0.98526678 0.65039925 0.17075474
0.99061425 0.64595817 0.19655660
0.99406810 0.66954183 0.26131096
0.99641108 0.70860388 0.37932344
0.99803244 0.75442302 0.49714785
0.99917799 0.79924005 0.60930275
0.99957968 0.77023690 0.65718208
0.99957919 0.75296718 0.65714937
0.99957919 0.75296718 0.65714937
0.12618973 0.79296778 0.10668777
0.12616805 0.79293557 0.10666767
0.12614636 0.79290334 0.10664758
0.12612467 0.79287112 0.10662747
0.12678077 0.79284459 0.10661148
0.14979934 0.79304395 0.10675797
0.17311471 0.79337954 0.10700273
0.20097211 0.79411777 0.10753940
0.22816602 0.79564015 0.10864959
0.25306258 0.79775024 0.11020151
0.27709874 0.80053168 0.11227196
0.30131520 0.80420392 0.11504985
0.32651501 0.80898364 0.11874257
0.35351939 0.81515519 0.12364608
0.38308248 0.82296119 0.13007222
0.41670503 0.83278115 0.13854250
0.47528575 0.84379492 0.14754215
0.59657631 0.84705704 0.14817612
0.71829188 0.83966546 0.14750918
0.81250617 0.82673034 0.14892531
0.88197457 0.81854121 0.15581383
0.93035478 0.81227317 0.16664251
0.95930877 0.80086308 0.17838636
0.97577706 0.77965788 0.18945340
0.98521193 0.75032477 0.20103115
0.99079524 0.72444115 0.21793045
0.99422982 0.72204376 0.28229070
0.99651892 0.74448312 0.38964901
0.99809844 0.78122622 0.50251266
0.99921725 0.82280808 0.61225786
0.99961096 0.83366694 0.65937997
0.99957994 0.77444740 0.65719797
0.99957919 0.75296718 0.65714937
0.16830107 0.84876519 0.14590308
0.16828290 0.84874525 0.14588603
0.16826472 0.84872530 0.14586898
0.16824654 0.84870535 0.14585194
0.16822836 0.84868541 0.14583489
0.17592325 0.84870237 0.14585422
0.20171519 0.84884854 0.14600124
0.23366401 0.84916726 0.14631987
0.26955101 0.85000042 0.14715120
0.30024696 0.85134677 0.14850233
0.32809945 0.85312563 0.15030487
0.35484764 0.85547018 0.15271100
0.38158414 0.85852649 0.15589856
0.40929190 0.86252663 0.16016543
0.43866442 0.86760865 0.16574027
0.47070578 0.87404672 0.17308342
0.50653021 0.88196725 0.18255850
0.56441259 0.89062441 0.19256266
0.67476719 0.89264426 0.19394283
0.78456821 0.88675613 0.19407383
0.86507615 0.87653481 0.19586244
0.91961436 0.87019575 0.20321814
0.95380821 0.86548131 0.21479600
0.97357024 0.85632669 0.22738094
0.98451211 0.83863051 0.23934379
0.99072568 0.81334359 0.25965827
0.99434287 0.79109522 0.32200761
0.99663321 0.78964205 0.40934774
0.99817921 0.81029493 0.51186798
0.99926837 0.84305411 0.61695207
0.99965248 0.85471157 0.66274490
0.99962219 0.84062608 0.66023016
0.99958035 0.77926250 0.65722443
0.22641162 0.89355596 0.19039060
0.22638456 0.89354414 0.19037672
0.22635749 0.89353231 0.19036285
0.22633043 0.89352049 0.19034897
0.22630335 0.89350866 0.19033510
0.22627628 0.89349683 0.19032122
0.23503032 0.89350872 0.19033992
0.26833962 0.89362463 0.19050197
0.31236483 0.89395773 0.19096401
0.35216314 0.89473028 0.19203670
0.38500247 0.89579662 0.19352834
0.41464907 0.89720481 0.19551906
0.44292082 0.89905924 0.19817782
0.47122707 0.90146642 0.20169385
0.49995849 0.90458157 0.20636025
0.52930816 0.90852246 0.21246030
0.55972872 0.91346349 0.22151388
0.59184397 0.91943856 0.23918208
0.64441684 0.92572514 0.25688014
0.74537449 0.92705694 0.25218602
0.84176715 0.92265450 0.24483931
0.90687526 0.91504789 0.24609955
0.94623632 0.91047948 0.25414618
0.96984652 0.90708569 0.26932653
0.98306340 0.90068920 0.30056869
0.99028021 0.88708478 0.33892790
0.99430007 0.86659052 0.38467136
0.99672277 0.84844532 0.44636287
0.99827142 0.84746384 0.52966847
0.99933329 0.86541528 0.62502344
