luts/L-Log_to_Cine_VLog.cube
TITLE "Generated from Leica Cine/Leica_Cine_Rec2020_LLog_to_Rec709_Gamma24_65_.cube"
#LUMIXPHOTOSTYLE VLOG
LUT_3D_SIZE 5
0.02961910 0.02809441 0.03538356
0.06463862 0.01721863 0.02002206
0.61250778 0.06571946 0.05300612
0.94603355 0.19656080 0.16061276
0.95581484 0.69822443 0.57818484
0.01394230 0.04327296 0.02037055
0.05176467 0.05153363 0.01877001
0.61988298 0.08638918 0.05240184
0.94603129 0.19654685 0.16059771
0.95581484 0.69822443 0.57818484
0.07771978 0.42914858 0.05780901
0.13037284 0.44506701 0.05898332
0.57507554 0.53226896 0.06345704
0.94409630 0.49378953 0.17679596
0.95581484 0.69822443 0.57818484
0.57369316 0.83119704 0.45430743
0.57357729 0.83116055 0.45420472
0.76429961 0.86523941 0.51526129
0.94796241 0.90039639 0.57791134
0.96276459 0.88884186 0.66914256
0.88394129 0.91991705 0.79284424
0.88394129 0.91991705 0.79284424
0.88394129 0.91991705 0.79284424
0.93861007 0.93075418 0.82869249
0.95652437 0.93313634 0.83258933
0.01737128 0.01933373 0.06410503
0.05657644 0.01995611 0.05957444
0.61873974 0.06325663 0.08096110
0.94433530 0.19804288 0.18470641
0.95581484 0.69822443 0.57818484
0.01402125 0.04738748 0.05567024
0.08648305 0.09002678 0.09848085
0.61690632 0.08865717 0.08594839
0.94464587 0.19752267 0.17855792
0.95581484 0.69822443 0.57818484
0.07855228 0.43299937 0.09604298
0.14337532 0.44942432 0.10885311
0.58253751 0.54025546 0.10598193
0.94446832 0.49105858 0.17662912
0.95581484 0.69822443 0.57818484
0.57325950 0.83106047 0.45392304
0.57314349 0.83102393 0.45382021
0.76358624 0.86504616 0.51462763
0.94795380 0.90037207 0.57757822
0.96277149 0.88876385 0.66899512
0.88394129 0.91991705 0.79284424
0.88394129 0.91991705 0.79284424
0.88394129 0.91991705 0.79284424
0.93860424 0.93075126 0.82867949
0.95652437 0.93313634 0.83258933
0.00000000 0.09385120 0.52685546
0.00745408 0.09604594 0.53010856
0.57811734 0.16809544 0.58285810
0.96439337 0.32442056 0.57005239
0.95310099 0.72366709 0.64522661
0.00000000 0.09356733 0.52565348
0.00642114 0.09559253 0.52862298
0.57747020 0.16753230 0.58144190
0.96434273 0.32380349 0.56890386
0.95316138 0.72307148 0.64383989
0.13899405 0.53484369 0.54747976
0.16775577 0.54322874 0.55280196
0.64854947 0.65219462 0.61191413
0.94440136 0.59856745 0.56324017
0.95365736 0.71802141 0.63200325
0.64316095 0.86707763 0.64813027
0.64300834 0.86703519 0.64796639
0.79803238 0.87977734 0.68640966
0.93657191 0.89507829 0.69551652
0.96282121 0.88820178 0.66793288
0.88394129 0.91991705 0.79284424
0.88394129 0.91991705 0.79284424
0.88394129 0.91991705 0.79284424
0.93856243 0.93073034 0.82858616
0.95652437 0.93313634 0.83258933
0.31891340 0.59289029 0.87604860
0.31888274 0.59285907 0.87604233
0.58174697 0.65962478 0.89299870
0.94809675 0.76823275 0.88973733
0.95060708 0.84856409 0.87419232
0.31877889 0.59275328 0.87602109
0.31874822 0.59272205 0.87601482
0.58122828 0.65936878 0.89297646
0.94810809 0.76816462 0.88974412
0.95060660 0.84854777 0.87417797
0.31781508 0.59177159 0.87582398
0.31778433 0.59174027 0.87581769
0.57745262 0.65751293 0.89281369
0.94818942 0.76767622 0.88979292
0.95060317 0.84843082 0.87407513
0.80313182 0.91823117 0.88486909
0.80308049 0.91821989 0.88486389
0.86158217 0.91996600 0.88275421
0.93386814 0.92195840 0.87791359
0.95064087 0.90136903 0.86346444
0.90887199 0.93737727 0.88275531
0.90887045 0.93737657 0.88275220
0.90885945 0.93737150 0.88272995
0.93087836 0.93383296 0.87253269
0.95132653 0.93464309 0.86570535
0.82501864 0.88699907 0.90772092
0.82501864 0.88699907 0.90772092
0.82501864 0.88699907 0.90772092
0.92313224 0.90441865 0.90571487
0.95469630 0.91410285 0.90339953
0.82501864 0.88699907 0.90772092
0.82501864 0.88699907 0.90772092
0.82501864 0.88699907 0.90772092
0.92312187 0.90441663 0.90571552
0.95469630 0.91410285 0.90339953
0.82501864 0.88699907 0.90772092
0.82501864 0.88699907 0.90772092
0.82501864 0.88699907 0.90772092
0.92304760 0.90440217 0.90572019
0.95469630 0.91410285 0.90339953
0.82501864 0.88699907 0.90772092
0.82501864 0.88699907 0.90772092
0.82501864 0.88699907 0.90772092
0.92222667 0.90424235 0.90577176
0.95469630 0.91410285 0.90339953
0.93095219 0.94443667 0.90772593
0.93095219 0.94443667 0.90772593
0.93095219 0.94443667 0.90772593
0.94020653 0.94030622 0.90061774
0.95207721 0.94185370 0.90111667
