luts/L-Log_to_Cine_VLog.cube
TITLE "Generated from Leica Cine/Leica_Cine_Rec2020_LLog_to_Rec709_Gamma24_65_.cube"
#LUMIXPHOTOSTYLE VLOG
LUT_3D_SIZE 33
0.02961910 0.02809441 0.03538356
0.02961910 0.02809441 0.03538356
0.02166015 0.01938660 0.02575160
0.01541309 0.01047987 0.01579764
0.01919463 0.01123376 0.01645587
0.02496068 0.01241217 0.01747688
0.03332658 0.01412293 0.01895035
0.04616004 0.01556529 0.01961221
0.06463862 0.01721863 0.02002206
0.09277102 0.01858328 0.01911349
0.13666301 0.02121095 0.01805098
0.19717630 0.02632460 0.01731804
0.26772579 0.03408923 0.01810999
0.34127326 0.04146211 0.02305639
0.42223929 0.04842926 0.03207040
0.51551130 0.05665200 0.04292277
0.61250778 0.06571946 0.05300612
0.70399698 0.07712347 0.06141554
0.78320151 0.08947769 0.06763504
0.84488959 0.10168808 0.07306692
0.88875880 0.11472000 0.08015691
0.91563059 0.12978909 0.09138003
0.93120058 0.14793347 0.10791539
0.94016780 0.16955684 0.13131269
0.94603355 0.19656080 0.16061276
0.95134572 0.25326020 0.19485157
0.95945649 0.34794570 0.24818246
0.96510732 0.45649376 0.35120446
0.96575155 0.56909316 0.45182593
0.95965256 0.66484498 0.54359901
0.95581484 0.69822443 0.57818484
0.95581484 0.69822443 0.57818484
0.95581484 0.69822443 0.57818484
0.02961910 0.02809441 0.03538356
0.02961910 0.02809441 0.03538356
0.02228029 0.02006508 0.02650209
0.01537501 0.01047234 0.01579106
0.01914013 0.01122273 0.01644632
0.02487727 0.01239506 0.01746198
0.03321907 0.01410111 0.01893177
0.04602285 0.01555232 0.01960787
0.06448749 0.01721079 0.02002681
0.09260487 0.01857454 0.01911850
0.13648224 0.02119841 0.01805454
0.19700437 0.02630761 0.01731896
0.26758833 0.03407426 0.01810320
0.34116345 0.04145273 0.02304549
0.42214703 0.04842110 0.03205933
0.51543382 0.05664512 0.04291395
0.61245171 0.06571383 0.05300049
0.70396029 0.07711811 0.06141255
0.78317905 0.08947374 0.06763331
0.84487669 0.10168513 0.07306556
0.88875222 0.11471762 0.08015539
0.91562819 0.12978680 0.09137814
0.93119944 0.14793151 0.10791333
0.94016729 0.16955511 0.13131079
0.94603330 0.19655923 0.16061107
0.95134541 0.25325651 0.19485008
0.95945628 0.34794263 0.24817936
0.96510726 0.45649128 0.35120222
0.96575158 0.56909135 0.45182430
0.95965266 0.66484394 0.54359797
0.95581484 0.69822443 0.57818484
0.95581484 0.69822443 0.57818484
0.95581484 0.69822443 0.57818484
0.01396795 0.01211504 0.01723490
0.01553556 0.01371552 0.01905265
0.01544998 0.01331030 0.01863714
0.01528269 0.01077041 0.01577264
0.01907145 0.01146098 0.01643115
0.02484715 0.01258288 0.01745350
0.03320447 0.01424464 0.01892322
0.04595278 0.01564544 0.01960230
0.06436707 0.01724510 0.02003046
0.09243849 0.01856579 0.01912352
0.13630128 0.02118585 0.01805810
0.19683231 0.02629062 0.01731989
0.26745079 0.03405927 0.01809640
0.34105359 0.04144333 0.02303458
0.42205473 0.04841294 0.03204825
0.51535633 0.05663824 0.04290513
0.61239563 0.06570819 0.05299486
0.70392359 0.07711276 0.06140957
0.78315658 0.08946979 0.06763159
0.84486380 0.10168217 0.07306420
0.88874564 0.11471524 0.08015388
0.91562579 0.12978450 0.09137626
0.93119831 0.14792955 0.10791127
0.94016679 0.16955339 0.13130888
0.94603304 0.19655767 0.16060938
0.95134509 0.25325281 0.19484859
0.95945607 0.34793955 0.24817625
0.96510719 0.45648880 0.35119999
0.96575160 0.56908955 0.45182267
0.95965276 0.66484289 0.54359693
0.95581484 0.69822443 0.57818484
0.95581484 0.69822443 0.57818484
0.95581484 0.69822443 0.57818484
0.01264127 0.01280499 0.01591865
0.01263254 0.01273079 0.01590234
0.01281780 0.01268733 0.01588581
0.01490348 0.01271996 0.01578070
0.01869951 0.01324479 0.01635773
0.02473069 0.01422374 0.01742244
0.03371061 0.01582150 0.01897181
0.04677085 0.01712312 0.01957992
0.06546264 0.01869272 0.01995431
0.09358539 0.02001931 0.01904293
0.13737820 0.02266890 0.01801465
0.19751822 0.02771056 0.01729765
0.26765801 0.03527569 0.01809349
0.34100785 0.04229856 0.02301332
0.42195561 0.04872671 0.03202560
0.51527881 0.05663136 0.04289630
0.61233954 0.06570255 0.05298923
0.70388688 0.07710740 0.06140659
0.78313411 0.08946585 0.06762987
0.84485090 0.10167922 0.07306284
0.88873907 0.11471286 0.08015236
0.91562339 0.12978221 0.09137437
0.93119718 0.14792759 0.10790921
0.94016628 0.16955166 0.13130697
0.94603279 0.19655611 0.16060769
0.95134477 0.25324912 0.19484710
0.95945586 0.34793648 0.24817315
0.96510712 0.45648632 0.35119775
0.96575162 0.56908774 0.45182103
0.95965287 0.66484185 0.54359589
0.95581484 0.69822443 0.57818484
0.95581484 0.69822443 0.57818484
0.95581484 0.69822443 0.57818484
0.01300089 0.01584263 0.01659824
0.01298902 0.01574443 0.01657589
0.01315179 0.01569113 0.01655672
0.01488480 0.01604026 0.01656729
0.01790354 0.01595524 0.01637069
0.02403207 0.01670852 0.01730278
0.03326990 0.01804410 0.01889832
0.04706038 0.01912427 0.01954409
0.06673919 0.02047327 0.01984777
0.09555231 0.02179378 0.01893187
0.13971630 0.02454557 0.01794210
0.19943749 0.02972784 0.01725441
0.26878347 0.03740734 0.01811208
0.34149591 0.04447235 0.02301405
0.42206125 0.05112858 0.03195953
0.51522212 0.05889752 0.04277492
0.61229681 0.06667616 0.05293714
0.70385017 0.07710204 0.06140360
0.78311164 0.08946190 0.06762814
0.84483801 0.10167627 0.07306149
0.88873249 0.11471048 0.08015084
0.91562099 0.12977992 0.09137249
0.93119605 0.14792563 0.10790714
0.94016578 0.16954994 0.13130506
0.94603254 0.19655454 0.16060601
0.95134445 0.25324543 0.19484560
0.95945566 0.34793340 0.24817004
0.96510705 0.45648384 0.35119552
0.96575165 0.56908594 0.45181940
0.95965297 0.66484080 0.54359485
0.95581484 0.69822443 0.57818484
0.95581484 0.69822443 0.57818484
0.95581484 0.69822443 0.57818484
0.01351225 0.02004362 0.01756475
0.01349590 0.01991179 0.01753384
0.01363708 0.01983195 0.01750922
0.01530548 0.02039326 0.01757868
0.01748541 0.02104821 0.01763293
0.02230488 0.02082707 0.01732277
0.03184446 0.02188788 0.01869076
0.04656901 0.02270701 0.01947732
0.06737053 0.02359343 0.01973986
0.09806779 0.02454919 0.01880365
0.14370268 0.02717495 0.01784436
0.20324917 0.03222591 0.01720375
0.27136207 0.03987372 0.01819426
0.34298472 0.04685841 0.02311398
0.42291093 0.05368388 0.03197788
0.51562456 0.06201347 0.04265156
0.61245737 0.07057977 0.05272856
0.70393362 0.07991133 0.06120147
0.78308917 0.08945795 0.06762642
0.84482511 0.10167331 0.07306013
0.88872591 0.11470810 0.08014932
0.91561859 0.12977762 0.09137060
0.93119491 0.14792366 0.10790508
0.94016527 0.16954821 0.13130316
0.94603228 0.19655298 0.16060432
0.95134414 0.25324174 0.19484411
0.95945545 0.34793033 0.24816694
0.96510698 0.45648136 0.35119328
0.96575167 0.56908413 0.45181777
0.95965307 0.66483976 0.54359382
0.95581484 0.69822443 0.57818484
0.95581484 0.69822443 0.57818484
0.95581484 0.69822443 0.57818484
0.01418719 0.02542877 0.01883619
0.01416759 0.02527356 0.01879950
0.01428808 0.02517487 0.01877020
0.01599964 0.02588875 0.01887176
0.01781990 0.02711851 0.01907813
0.02113616 0.02826595 0.01906637
0.02855026 0.02784235 0.01866134
0.04389065 0.02847574 0.01927564
0.06684882 0.02919871 0.01960268
0.10031629 0.02954424 0.01867118
0.14884074 0.03151779 0.01772748
0.20957571 0.03617314 0.01720508
0.27612226 0.04290994 0.01838796
0.34638627 0.04952868 0.02342034
0.42509868 0.05655157 0.03212127
0.51685748 0.06552980 0.04254591
0.61300334 0.07493673 0.05246262
0.70414357 0.08514842 0.06074558
0.78311544 0.09381231 0.06717312
0.84481213 0.10167034 0.07305876
0.88871929 0.11470570 0.08014780
0.91561617 0.12977531 0.09136870
0.93119377 0.14792169 0.10790300
0.94016476 0.16954647 0.13130124
0.94603203 0.19655140 0.16060262
0.95134382 0.25323802 0.19484261
0.95945524 0.34792723 0.24816382
0.96510691 0.45647886 0.35119103
0.96575170 0.56908232 0.45181612
0.95965318 0.66483871 0.54359277
0.95581484 0.69822443 0.57818484
0.95581484 0.69822443 0.57818484
0.95581484 0.69822443 0.57818484
0.01440079 0.03300764 0.01976156
0.01441119 0.03284637 0.01975803
0.01453184 0.03273484 0.01975109
0.01617803 0.03349236 0.01970570
0.01786057 0.03477668 0.01969771
0.01977865 0.03686101 0.01972720
0.02504097 0.03833330 0.01950381
0.03789619 0.03751064 0.01886179
0.06104142 0.03842610 0.01908625
0.09864584 0.03929002 0.01821094
0.15292183 0.04099105 0.01743839
0.21801316 0.04459065 0.01718522
0.28408313 0.04933635 0.01867451
0.35278997 0.05438933 0.02392856
0.42988704 0.06028123 0.03250440
0.52032047 0.06969946 0.04265711
0.61507135 0.08024778 0.05230097
0.70532312 0.09205247 0.06024791
0.78361952 0.10222484 0.06636493
0.84495365 0.10742810 0.07246300
0.88871114 0.11470275 0.08014592
0.91561319 0.12977247 0.09136637
0.93119237 0.14791926 0.10790044
0.94016413 0.16954434 0.13129887
0.94603171 0.19654946 0.16060053
0.95134343 0.25323344 0.19484076
0.95945498 0.34792342 0.24815997
0.96510683 0.45647579 0.35118826
0.96575173 0.56908008 0.45181410
0.95965331 0.66483741 0.54359148
0.95581484 0.69822443 0.57818484
0.95581484 0.69822443 0.57818484
0.95581484 0.69822443 0.57818484
0.01394230 0.04327296 0.02037055
0.01394872 0.04310820 0.02035880
0.01403847 0.04298002 0.02034588
0.01580431 0.04376756 0.02032269
0.01763013 0.04513700 0.02033835
0.01952731 0.04750372 0.02042762
0.02206796 0.05087350 0.02032300
0.03133185 0.05274013 0.01966860
0.05176467 0.05153363 0.01877001
0.08802734 0.05262984 0.01798232
0.14831034 0.05612364 0.01739234
0.22154468 0.05997403 0.01735442
0.29190608 0.06215093 0.01906555
0.36156444 0.06364205 0.02462695
0.43778662 0.06778350 0.03313570
0.52688221 0.07569255 0.04304550
0.61988298 0.08638918 0.05240184
0.70861220 0.09985792 0.05987748
0.78555672 0.11331647 0.06541505
0.84586762 0.12197422 0.07103992
0.88882812 0.12208925 0.07939030
0.91560918 0.12976864 0.09136322
0.93119048 0.14791599 0.10789700
0.94016329 0.16954145 0.13129569
0.94603129 0.19654685 0.16059771
0.95134290 0.25322728 0.19483827
0.95945464 0.34791829 0.24815479
0.96510671 0.45647165 0.35118453
0.96575177 0.56907706 0.45181137
0.95965348 0.66483567 0.54358975
0.95581484 0.69822443 0.57818484
0.95581484 0.69822443 0.57818484
0.95581484 0.69822443 0.57818484
0.01288255 0.05806080 0.02047862
0.01289703 0.05785790 0.02047852
0.01295245 0.05768970 0.02048043
0.01490665 0.05850169 0.02035678
0.01691223 0.05995998 0.02024925
0.01895917 0.06250665 0.02015855
0.02080588 0.06637514 0.02007896
0.02518657 0.07161030 0.01983657
0.04125091 0.07362777 0.01873786
0.07362166 0.07249193 0.01761315
0.13113474 0.07621094 0.01722174
0.21319129 0.08264733 0.01760555
0.29287714 0.08433665 0.01925159
0.36845387 0.08204000 0.02519445
0.44807463 0.08126014 0.03392229
0.53678171 0.08553473 0.04365211
0.62720294 0.09467489 0.05258664
0.71381165 0.10869857 0.05956361
0.78908386 0.12450247 0.06461040
0.84823453 0.13888947 0.06958208
0.89002094 0.14736290 0.07711576
0.91560037 0.13967772 0.09041103
0.93118793 0.14791157 0.10789236
0.94016215 0.16953757 0.13129140
0.94603072 0.19654333 0.16059391
0.95134219 0.25321897 0.19483492
0.95945417 0.34791137 0.24814780
0.96510656 0.45646607 0.35117951
0.96575182 0.56907300 0.45180770
0.95965371 0.66483332 0.54358741
0.95581484 0.69822443 0.57818484
0.95581484 0.69822443 0.57818484
0.95581484 0.69822443 0.57818484
0.01179613 0.07999434 0.02050679
0.01179809 0.07977207 0.02050505
0.01180005 0.07954929 0.02050330
0.01410400 0.08035870 0.02036615
0.01653241 0.08190864 0.02021965
0.01905200 0.08465675 0.02006653
0.02141682 0.08897151 0.02000817
0.02403597 0.09542740 0.02001700
0.03329801 0.10347387 0.01939417
0.05843432 0.10569098 0.01782199
0.10920203 0.10562419 0.01703217
0.19034351 0.11210672 0.01800708
0.28200633 0.11763661 0.01943960
0.36743829 0.11463871 0.02514578
0.45566810 0.10899127 0.03407597
0.54882016 0.10618776 0.04407392
0.63776623 0.10969180 0.05274913
0.72131066 0.12103063 0.05921735
0.79408815 0.13674884 0.06391607
0.85174981 0.15406575 0.06863460
0.89254364 0.17090574 0.07574738
0.91735871 0.18061881 0.08774060
0.93134145 0.16049406 0.10699187
0.94016062 0.16953234 0.13128562
0.94602995 0.19653859 0.16058879
0.95134123 0.25320778 0.19483040
0.95945354 0.34790205 0.24813840
0.96510635 0.45645856 0.35117273
0.96575189 0.56906753 0.45180275
0.95965402 0.66483016 0.54358427
0.95581484 0.69822443 0.57818484
0.95581484 0.69822443 0.57818484
0.95581484 0.69822443 0.57818484
0.01281269 0.11336818 0.02089005
0.01279482 0.11312635 0.02088662
0.01277693 0.11288410 0.02088319
0.01543093 0.11366323 0.02071383
0.01841294 0.11527220 0.02053953
0.02158234 0.11818807 0.02039330
0.02468934 0.12284266 0.02031779
0.02848638 0.13002260 0.02026018
0.03376623 0.13995512 0.02019849
0.04924930 0.15028264 0.01933668
0.08789543 0.15309597 0.01799993
0.16055393 0.15309719 0.01823771
0.25821063 0.15976591 0.02016530
0.35549448 0.16270446 0.02431833
0.45448634 0.15544056 0.03286158
0.55751052 0.14649151 0.04355174
0.65066724 0.14112115 0.05242346
0.73172350 0.14271799 0.05859548
0.80094249 0.15396349 0.06315502
0.85622861 0.17088096 0.06789650
0.89559034 0.19145993 0.07516178
0.92015190 0.21202430 0.08716834
0.93403344 0.22206863 0.10572353
0.94031148 0.18524475 0.13075083
0.94602891 0.19653220 0.16058190
0.95133993 0.25319271 0.19482432
0.95945269 0.34788950 0.24812573
0.96510607 0.45644843 0.35116361
0.96575199 0.56906017 0.45179609
0.95965445 0.66482589 0.54358003
0.95581484 0.69822443 0.57818484
0.95581484 0.69822443 0.57818484
0.95581484 0.69822443 0.57818484
0.01849930 0.16215182 0.02136727
0.01846089 0.16190245 0.02136471
0.01842244 0.16165275 0.02136216
0.02137518 0.16229063 0.02119195
0.02497033 0.16380543 0.02101756
0.02897097 0.16671973 0.02089258
0.03315820 0.17124582 0.02084915
0.03807573 0.17832565 0.02088231
0.04385368 0.18767071 0.02094927
0.05176197 0.19976499 0.02122279
0.07574029 0.21026346 0.02095829
0.13137554 0.21085998 0.02046979
0.22405742 0.21012000 0.02113171
0.33027278 0.21715574 0.02383072
0.43937079 0.21854142 0.02953323
0.55670350 0.20962001 0.04036674
0.66049806 0.19819440 0.05020691
0.74439443 0.18795337 0.05698159
0.81025479 0.18499533 0.06215243
0.86215039 0.19479925 0.06728993
0.89915790 0.21428001 0.07510602
0.92292802 0.23917195 0.08759819
0.93660130 0.26156469 0.10737881
0.94365017 0.27056393 0.13332844
0.94625640 0.21589095 0.16073107
0.95133819 0.25317240 0.19481612
0.95945155 0.34787259 0.24810866
0.96510570 0.45643480 0.35115132
0.96575212 0.56905024 0.45178711
0.95965501 0.66482015 0.54357432
0.95581484 0.69822443 0.57818484
0.95581484 0.69822443 0.57818484
0.95581484 0.69822443 0.57818484
0.03002582 0.22509286 0.02318978
0.02998311 0.22487938 0.02318014
0.02994036 0.22466568 0.02317048
0.03300555 0.22499391 0.02303833
0.03719002 0.22604678 0.02290924
0.04217056 0.22808133 0.02285158
0.04703369 0.23143291 0.02291442
0.05238271 0.23698733 0.02314778
0.05860341 0.24447218 0.02353119
0.06618793 0.25409697 0.02413117
0.07767463 0.26600394 0.02496712
0.11298578 0.27570602 0.02498027
0.19058488 0.27704890 0.02601940
0.29672257 0.27331271 0.02520807
0.40927020 0.27870591 0.02688374
0.53754169 0.28484658 0.03557141
0.65557183 0.27864290 0.04579994
0.75012026 0.26385975 0.05354938
0.81951786 0.24657654 0.06051710
0.86907821 0.23815678 0.06701043
0.90327484 0.24675199 0.07575510
0.92556785 0.26841698 0.08889280
0.93875862 0.29400473 0.10988135
0.94662959 0.31719279 0.13737489
0.95165563 0.32564554 0.16766952
0.95212914 0.27444484 0.19561619
0.95945001 0.34784981 0.24808567
0.96510519 0.45641642 0.35113477
0.96575230 0.56903687 0.45177501
0.95965578 0.66481242 0.54356663
0.95581484 0.69822443 0.57818484
0.95581484 0.69822443 0.57818484
0.95581484 0.69822443 0.57818484
0.04495574 0.28963579 0.02837756
0.04491777 0.28948500 0.02836277
0.04487977 0.28933410 0.02834798
0.04800113 0.28949159 0.02819707
0.05335239 0.29015839 0.02798689
0.05910248 0.29151336 0.02783768
0.06473078 0.29392021 0.02783898
0.07083381 0.29806257 0.02806303
0.07813053 0.30396322 0.02848764
0.08668061 0.31177161 0.02912723
0.09733635 0.32234311 0.03021066
0.11376183 0.33640731 0.03181224
0.16564186 0.35154806 0.03463823
0.26454729 0.35238413 0.03563413
0.37574065 0.34152859 0.02963246
0.50494708 0.35700871 0.03351717
0.62956382 0.36799184 0.04274438
0.73557183 0.36283881 0.05144557
0.81582149 0.34251359 0.05940746
0.87179523 0.31609155 0.06790909
0.90648897 0.30193798 0.07777962
0.92773849 0.30819590 0.09154657
0.94034929 0.33084514 0.11331594
0.94815377 0.35872995 0.14109445
0.95332492 0.38359496 0.17210044
0.95697649 0.40864371 0.20464027
0.96012908 0.36838262 0.25115630
0.96510451 0.45639168 0.35111247
0.96575254 0.56901886 0.45175871
0.95965681 0.66480200 0.54355626
0.95581484 0.69822443 0.57818484
0.95581484 0.69822443 0.57818484
0.95581484 0.69822443 0.57818484
0.06179142 0.35708727 0.03840216
0.06177221 0.35695887 0.03837024
0.06175298 0.35683041 0.03833831
0.06517697 0.35711005 0.03802556
0.07231561 0.35808171 0.03747810
0.07979126 0.35956965 0.03702297
0.08736899 0.36210994 0.03692622
0.09502502 0.36607305 0.03729452
0.10354471 0.37170864 0.03809910
0.11344621 0.37937028 0.03962617
0.12512064 0.38946199 0.04200992
0.13945661 0.40292309 0.04547164
0.16175130 0.42114109 0.05082616
0.23325292 0.44158442 0.05595566
0.34546214 0.44002479 0.04891042
0.47683163 0.43617207 0.04490539
0.59799025 0.45049351 0.04376183
0.70531140 0.46181280 0.05070725
0.79247639 0.45759283 0.06132270
0.85733550 0.43437097 0.07165646
0.90102707 0.40083264 0.08263773
0.92660700 0.37846055 0.09700625
0.93997208 0.38267898 0.11815419
0.94734840 0.40578613 0.14461233
0.95078650 0.43678442 0.17474994
0.95084212 0.47504880 0.20791512
0.95101454 0.50901362 0.27988108
0.96405518 0.47774166 0.35494206
0.96575286 0.56899459 0.45173676
0.95965820 0.66478796 0.54354231
0.95581484 0.69822443 0.57818484
0.95581484 0.69822443 0.57818484
0.95581484 0.69822443 0.57818484
0.07771978 0.42914858 0.05780901
0.07768984 0.42905666 0.05778165
0.07765989 0.42896471 0.05775427
0.07994020 0.42923449 0.05761927
0.08887402 0.43066850 0.05729427
0.09862838 0.43275862 0.05715294
0.10884764 0.43560930 0.05719797
0.11921512 0.43960348 0.05785081
0.13037284 0.44506701 0.05898332
0.14258509 0.45196371 0.06084148
0.15633513 0.46071541 0.06337787
0.17225985 0.47178603 0.06694834
0.19158498 0.48604822 0.07168185
0.22137498 0.50513590 0.07731920
0.31147818 0.52755046 0.07669360
0.44550644 0.53521789 0.07399008
0.57507554 0.53226896 0.06345704
0.68262200 0.54243404 0.05751359
0.76868432 0.55170085 0.06298653
0.83355946 0.54827386 0.07437273
0.87985587 0.52809875 0.08825406
0.91218984 0.49537881 0.10426955
0.93217034 0.46893026 0.12415655
0.94143530 0.47055080 0.14819385
0.94409630 0.49378953 0.17679596
0.94253109 0.52875798 0.20989199
0.94094808 0.56674392 0.29255747
0.94787835 0.60972430 0.38720632
0.96330737 0.58890484 0.45584975
0.95966007 0.66476905 0.54352350
0.95581484 0.69822443 0.57818484
0.95581484 0.69822443 0.57818484
0.95581484 0.69822443 0.57818484
0.10121063 0.49324161 0.07959562
0.10118711 0.49318340 0.07957295
0.10116357 0.49312517 0.07955027
0.10114003 0.49306692 0.07952759
0.11199672 0.49516734 0.07931202
0.12410115 0.49789910 0.07928245
0.13671543 0.50120988 0.07942629
0.15001525 0.50548564 0.08000401
0.16366115 0.51093076 0.08110062
0.17810050 0.51743967 0.08262269
0.19383001 0.52534663 0.08466625
0.21179846 0.53529326 0.08748786
0.23279880 0.54765167 0.09128202
0.25781341 0.56278438 0.09601172
0.29764442 0.58263700 0.10131688
0.40554612 0.60765742 0.10294294
0.54416906 0.61953613 0.10009872
0.66300163 0.61822890 0.08595743
0.75450733 0.62504031 0.08174823
0.82121588 0.63056839 0.08778631
0.86643093 0.62586661 0.09898519
0.89569877 0.60753724 0.11344114
0.91583297 0.57993085 0.13133857
0.92858561 0.55790112 0.15298325
0.93448549 0.55714895 0.17967547
0.93528317 0.57687421 0.21202714
0.93534219 0.60826946 0.30238755
0.94419309 0.65517615 0.39939076
0.95214438 0.69977415 0.48865413
0.95699705 0.68136094 0.54665617
0.95581484 0.69822443 0.57818484
0.95581484 0.69822443 0.57818484
0.95581484 0.69822443 0.57818484
0.12639039 0.54869879 0.10486079
0.12637161 0.54865988 0.10484140
0.12635281 0.54862097 0.10482202
0.12633402 0.54858206 0.10480262
0.13414475 0.55032930 0.10451254
0.14861000 0.55397783 0.10413258
0.16380536 0.55818068 0.10391474
0.18119134 0.56373695 0.10404371
0.19867378 0.57012666 0.10483992
0.21655607 0.57727903 0.10604226
0.23562330 0.58541550 0.10781253
0.25621122 0.59461646 0.11012146
0.27891398 0.60539063 0.11339085
0.30522289 0.61791811 0.11783515
0.33688031 0.63293062 0.12404067
0.38708107 0.65265899 0.13167549
0.50430249 0.67960438 0.13701850
0.63309637 0.69122258 0.13190659
0.73744188 0.69148274 0.11965113
0.81122761 0.69505287 0.11800901
0.86154324 0.69762665 0.12548104
0.89281609 0.69211426 0.13710303
0.91081644 0.67506648 0.15051777
0.92087779 0.65002425 0.16683606
0.92751627 0.62960120 0.18871529
0.93126495 0.62754747 0.21779625
0.93394655 0.64746891 0.31398391
0.94515432 0.68952693 0.40910182
0.95410447 0.73610505 0.50019767
0.95590314 0.77004251 0.57552525
0.95390734 0.71562614 0.58123163
0.95581484 0.69822443 0.57818484
0.95581484 0.69822443 0.57818484
0.15381415 0.59911676 0.13354413
0.15379816 0.59909121 0.13352724
0.15378216 0.59906566 0.13351034
0.15376617 0.59904011 0.13349343
0.15422272 0.59914139 0.13346190
0.17058885 0.60360545 0.13296270
0.18835738 0.60892877 0.13277387
0.21098895 0.61612899 0.13287139
0.23469620 0.62410264 0.13348481
0.25766605 0.63201076 0.13449191
0.28017831 0.63999410 0.13582561
0.30404233 0.64846661 0.13777851
0.33020799 0.65777091 0.14061066
0.35946753 0.66841856 0.14474043
0.39274393 0.68090082 0.15057554
0.43047995 0.69576274 0.15877190
0.48299327 0.71464768 0.16935301
0.59328464 0.73820230 0.17544872
0.71108554 0.74854351 0.16923568
0.79738760 0.74935495 0.16077219
0.85394672 0.75123867 0.16200184
0.89030111 0.75205988 0.17092853
0.91171981 0.74650202 0.18346795
0.92326777 0.73184995 0.19708450
0.92971458 0.71040542 0.21259938
0.93272421 0.69072372 0.25184559
0.93843345 0.69489151 0.33286792
0.94957685 0.72478185 0.42077268
0.95732027 0.76429475 0.50944630
0.95916631 0.79748744 0.58426990
0.95797835 0.79848669 0.60813495
0.95347561 0.72040884 0.58242378
0.95581484 0.69822443 0.57818484
0.18488612 0.64519703 0.16700195
0.18487268 0.64517935 0.16698713
0.18485924 0.64516167 0.16697231
0.18484579 0.64514399 0.16695749
0.18483234 0.64512631 0.16694266
0.19033767 0.64672226 0.16693311
0.21017493 0.65267852 0.16689379
0.23705871 0.66083104 0.16691471
0.26956335 0.67053414 0.16691300
0.29897523 0.67920440 0.16726105
0.32767990 0.68735263 0.16811021
0.35663845 0.69553355 0.16969135
0.38684201 0.70420323 0.17225748
0.41906650 0.71379215 0.17625238
0.45262583 0.72438409 0.18204266
0.48757144 0.73612972 0.19000491
0.52447604 0.74917106 0.20029417
0.57338051 0.76486187 0.21260421
0.67513712 0.78366731 0.21724848
0.77711373 0.79273304 0.21205448
0.84396777 0.79365785 0.20708558
0.88508893 0.79469836 0.21087772
0.91040560 0.79496766 0.22198517
0.92512785 0.79063834 0.23579631
0.93468470 0.78053312 0.26731743
0.94182625 0.76658194 0.31185507
0.94905775 0.75865309 0.36767497
0.95642024 0.76873400 0.44026417
0.96095578 0.79325600 0.52063354
0.96151394 0.81822351 0.59158108
0.96070569 0.82249610 0.61603343
0.95893901 0.80680688 0.61083313
0.95334619 0.72615385 0.58393681
0.23073607 0.68996668 0.20578310
0.23071315 0.68995168 0.20577110
0.23069022 0.68993668 0.20575911
0.23066730 0.68992167 0.20574711
0.23064437 0.68990666 0.20573511
0.23062144 0.68989166 0.20572310
0.23754803 0.69187289 0.20566466
0.26608399 0.69979955 0.20504902
0.30789836 0.71058474 0.20375633
0.34953146 0.72072873 0.20314177
0.38665110 0.72952492 0.20361706
0.42193998 0.73787370 0.20521174
0.45494578 0.74595043 0.20810653
0.48583973 0.75394334 0.21237815
0.51584148 0.76229409 0.21839372
0.54619450 0.77162537 0.23076527
0.57761404 0.78177243 0.24658283
0.61130007 0.79320789 0.27154999
0.65932125 0.80694123 0.29706953
0.75097859 0.82188961 0.29038670
0.83210549 0.82821750 0.27447808
0.88077771 0.82819438 0.26912802
0.90977611 0.82944589 0.28454735
0.92944326 0.83215251 0.31335989
0.94373118 0.83381017 0.34749786
0.95359106 0.83176977 0.38339551
0.95973888 0.82621021 0.42406281
0.96345800 0.82243928 0.47537871
0.96442227 0.82704048 0.53848064
0.96332922 0.83894886 0.60075594
