luts/Leica_m9_strong.cube
TITLE "Panasonic S9 V-Log to Leica M9 CCD Strong — S9 V-Log v1"
#LUMIXPHOTOSTYLE VLOG
# Film Emulation LUT
# Generated by lutex.py
# Grid: 33^3
LUT_3D_SIZE 33
DOMAIN_MIN 0.0 0.0 0.0
DOMAIN_MAX 1.0 1.0 1.0
0.00000000 0.00000000 0.00000000
0.00000000 0.00000000 0.00000000
0.00000000 0.00000000 0.00000000
0.00000000 0.00000000 0.00000000
0.00000000 0.00000000 0.00000000
0.06062371 0.00576427 0.00000000
0.10344937 0.01116792 0.00000000
0.14238314 0.01826762 0.00000000
0.18376705 0.02830824 0.00000000
0.22892190 0.04236543 0.00000000
0.28235269 0.06033570 0.00000000
0.34436379 0.08126506 0.00000000
0.41527364 0.10525228 0.00000000
0.49674672 0.13285387 0.00000000
0.59069472 0.16471334 0.00000000
0.69934332 0.20158275 0.00000000
0.82033025 0.24265760 0.00000000
0.96159772 0.29063239 0.00000000
1.00000000 0.32540923 0.11400021
1.00000000 0.32530493 0.11377024
1.00000000 0.32524443 0.11363670
1.00000000 0.32520982 0.11356025
1.00000000 0.32518985 0.11351612
1.00000000 0.32517817 0.11349030
1.00000000 0.32517125 0.11347500
1.00000000 0.32516711 0.11346584
1.00000000 0.32516460 0.11346031
1.00000000 0.32516308 0.11345695
1.00000000 0.32516215 0.11345490
1.00000000 0.32516159 0.11345364
1.00000000 0.32516124 0.11345287
1.00000000 0.32516102 0.11345239
1.00000000 0.32516089 0.11345210
0.00000000 0.00000000 0.00000000
0.00000000 0.00000000 0.00000000
0.00000000 0.00000000 0.00000000
0.00000000 0.00000000 0.00000000
0.00000000 0.00000000 0.00000000
0.06062371 0.00576427 0.00000000
0.10344937 0.01116792 0.00000000
0.14238314 0.01826762 0.00000000
0.18376705 0.02830824 0.00000000
0.22892190 0.04236543 0.00000000
0.28235269 0.06033570 0.00000000
0.34436379 0.08126506 0.00000000
0.41527364 0.10525228 0.00000000
0.49674672 0.13285387 0.00000000
0.59069472 0.16471334 0.00000000
0.69934332 0.20158275 0.00000000
0.82033025 0.24265760 0.00000000
0.96159772 0.29063239 0.00000000
1.00000000 0.32540923 0.11400021
1.00000000 0.32530493 0.11377024
1.00000000 0.32524443 0.11363670
1.00000000 0.32520982 0.11356025
1.00000000 0.32518985 0.11351612
1.00000000 0.32517817 0.11349030
1.00000000 0.32517125 0.11347500
1.00000000 0.32516711 0.11346584
1.00000000 0.32516460 0.11346031
1.00000000 0.32516308 0.11345695
1.00000000 0.32516215 0.11345490
1.00000000 0.32516159 0.11345364
1.00000000 0.32516124 0.11345287
1.00000000 0.32516102 0.11345239
1.00000000 0.32516089 0.11345210
0.00000000 0.00000000 0.00000000
0.00000000 0.00000000 0.00000000
0.00000000 0.00000000 0.00000000
0.00000000 0.00000000 0.00000000
0.00000000 0.00000000 0.00000000
0.06062371 0.00576427 0.00000000
0.10344937 0.01116792 0.00000000
0.14238314 0.01826762 0.00000000
0.18376705 0.02830824 0.00000000
0.22892190 0.04236543 0.00000000
0.28235269 0.06033570 0.00000000
0.34436379 0.08126506 0.00000000
0.41527364 0.10525228 0.00000000
0.49674672 0.13285387 0.00000000
0.59069472 0.16471334 0.00000000
0.69934332 0.20158275 0.00000000
0.82033025 0.24265760 0.00000000
0.96159772 0.29063239 0.00000000
1.00000000 0.32540923 0.11400021
1.00000000 0.32530493 0.11377024
1.00000000 0.32524443 0.11363670
1.00000000 0.32520982 0.11356025
1.00000000 0.32518985 0.11351612
1.00000000 0.32517817 0.11349030
1.00000000 0.32517125 0.11347500
1.00000000 0.32516711 0.11346584
1.00000000 0.32516460 0.11346031
1.00000000 0.32516308 0.11345695
1.00000000 0.32516215 0.11345490
1.00000000 0.32516159 0.11345364
1.00000000 0.32516124 0.11345287
1.00000000 0.32516102 0.11345239
1.00000000 0.32516089 0.11345210
0.00000000 0.00000000 0.00000000
0.00000000 0.00000000 0.00000000
0.00000000 0.00000000 0.00000000
0.00000000 0.00000000 0.00000000
0.00000000 0.00000000 0.00000000
0.06062371 0.00576427 0.00000000
0.10344937 0.01116792 0.00000000
0.14238314 0.01826762 0.00000000
0.18376705 0.02830824 0.00000000
0.22892190 0.04236543 0.00000000
0.28235269 0.06033570 0.00000000
0.34436379 0.08126506 0.00000000
0.41527364 0.10525228 0.00000000
0.49674672 0.13285387 0.00000000
0.59069472 0.16471334 0.00000000
0.69934332 0.20158275 0.00000000
0.82033025 0.24265760 0.00000000
0.96159772 0.29063239 0.00000000
1.00000000 0.32540923 0.11400021
1.00000000 0.32530493 0.11377024
1.00000000 0.32524443 0.11363670
1.00000000 0.32520982 0.11356025
1.00000000 0.32518985 0.11351612
1.00000000 0.32517817 0.11349030
1.00000000 0.32517125 0.11347500
1.00000000 0.32516711 0.11346584
1.00000000 0.32516460 0.11346031
1.00000000 0.32516308 0.11345695
1.00000000 0.32516215 0.11345490
1.00000000 0.32516159 0.11345364
1.00000000 0.32516124 0.11345287
1.00000000 0.32516102 0.11345239
1.00000000 0.32516089 0.11345210
0.00000000 0.00000000 0.00000000
0.00000000 0.00000000 0.00000000
0.00000000 0.00000000 0.00000000
0.00000000 0.00000000 0.00000000
0.00000000 0.00000000 0.00000000
0.06062371 0.00576427 0.00000000
0.10344937 0.01116792 0.00000000
0.14238314 0.01826762 0.00000000
0.18376705 0.02830824 0.00000000
0.22892190 0.04236543 0.00000000
0.28235269 0.06033570 0.00000000
0.34436379 0.08126506 0.00000000
0.41527364 0.10525228 0.00000000
0.49674672 0.13285387 0.00000000
0.59069472 0.16471334 0.00000000
0.69934332 0.20158275 0.00000000
0.82033025 0.24265760 0.00000000
0.96159772 0.29063239 0.00000000
1.00000000 0.32540923 0.11400021
1.00000000 0.32530493 0.11377024
1.00000000 0.32524443 0.11363670
1.00000000 0.32520982 0.11356025
1.00000000 0.32518985 0.11351612
1.00000000 0.32517817 0.11349030
1.00000000 0.32517125 0.11347500
1.00000000 0.32516711 0.11346584
1.00000000 0.32516460 0.11346031
1.00000000 0.32516308 0.11345695
1.00000000 0.32516215 0.11345490
1.00000000 0.32516159 0.11345364
1.00000000 0.32516124 0.11345287
1.00000000 0.32516102 0.11345239
1.00000000 0.32516089 0.11345210
0.00000000 0.00000000 0.00000000
0.00000000 0.00000000 0.00000000
0.00000000 0.00000000 0.00000000
0.00000000 0.00000000 0.00000000
0.00000000 0.00000000 0.00000000
0.03763098 0.04388212 0.00000000
0.08882466 0.04278386 0.00000000
0.13130460 0.04084620 0.00000000
0.17499239 0.03962371 0.00000000
0.22179571 0.03996898 0.00000000
0.27590903 0.05816469 0.00000000
0.33892523 0.07942733 0.00000000
0.41065387 0.10368829 0.00000000
0.49280410 0.13151748 0.00000000
0.58731793 0.16356779 0.00000000
0.69644262 0.20059817 0.00000000
0.81932904 0.24231764 0.00000000
0.95888685 0.28971167 0.00000000
1.00000000 0.32541059 0.11400320
1.00000000 0.32530552 0.11377156
1.00000000 0.32524468 0.11363726
1.00000000 0.32520993 0.11356049
1.00000000 0.32518989 0.11351622
1.00000000 0.32517819 0.11349034
1.00000000 0.32517126 0.11347502
1.00000000 0.32516711 0.11346585
1.00000000 0.32516461 0.11346031
1.00000000 0.32516308 0.11345695
1.00000000 0.32516215 0.11345490
1.00000000 0.32516159 0.11345364
1.00000000 0.32516124 0.11345287
1.00000000 0.32516102 0.11345239
1.00000000 0.32516089 0.11345210
0.00000000 0.00000000 0.00000000
0.00000000 0.00000000 0.00000000
0.00000000 0.00000000 0.00000000
0.00000000 0.00000000 0.00000000
0.00000000 0.00000000 0.00000000
0.00000000 0.00000000 0.00000000
0.07180490 0.07927682 0.00000000
0.11932353 0.08048663 0.00000000
0.16575859 0.07862958 0.00000000
0.21441904 0.07713845 0.00000000
0.26930847 0.07681258 0.00000000
0.33337676 0.07968655 0.00000000
0.40595757 0.10209854 0.00000000
0.48880716 0.13016273 0.00000000
0.58390129 0.16240876 0.00000000
0.69351179 0.19960337 0.00000000
0.81849166 0.24203330 0.00000000
0.95616529 0.28878731 0.00000000
1.00000000 0.32541196 0.11400623
1.00000000 0.32530613 0.11377289
1.00000000 0.32524494 0.11363782
1.00000000 0.32521004 0.11356073
1.00000000 0.32518994 0.11351632
1.00000000 0.32517821 0.11349039
1.00000000 0.32517127 0.11347504
1.00000000 0.32516711 0.11346586
1.00000000 0.32516461 0.11346032
1.00000000 0.32516308 0.11345695
1.00000000 0.32516216 0.11345490
1.00000000 0.32516159 0.11345364
1.00000000 0.32516124 0.11345287
1.00000000 0.32516102 0.11345239
1.00000000 0.32516089 0.11345210
0.00000000 0.00000000 0.00000000
0.00000000 0.00000000 0.00000000
0.00000000 0.00000000 0.00000000
0.00000000 0.00000000 0.00000000
0.00000000 0.00000000 0.00000000
0.00000000 0.00000000 0.00000000
0.00000000 0.00000000 0.00000000
0.10289682 0.11135748 0.00000000
0.15372803 0.11382190 0.00000000
0.20499907 0.11202850 0.00000000
0.26100605 0.11073783 0.00000000
0.32646727 0.11109371 0.00000000
0.40012811 0.11382922 0.00000000
0.48384575 0.12848118 0.00000000
0.57966972 0.16097331 0.00000000
0.68988774 0.19837329 0.00000000
0.81717974 0.24158783 0.00000000
0.95282445 0.28765264 0.00000000
1.00000000 0.32541367 0.11400999
1.00000000 0.32530687 0.11377454
1.00000000 0.32524525 0.11363852
1.00000000 0.32521017 0.11356102
1.00000000 0.32519000 0.11351645
1.00000000 0.32517823 0.11349045
1.00000000 0.32517128 0.11347507
1.00000000 0.32516712 0.11346587
1.00000000 0.32516461 0.11346032
1.00000000 0.32516309 0.11345696
1.00000000 0.32516216 0.11345490
1.00000000 0.32516159 0.11345364
1.00000000 0.32516124 0.11345287
1.00000000 0.32516102 0.11345239
1.00000000 0.32516089 0.11345210
0.00000000 0.00000000 0.00000000
0.00000000 0.00000000 0.00000000
0.00000000 0.00000000 0.00000000
0.00000000 0.00000000 0.00000000
0.00000000 0.00000000 0.00000000
0.00000000 0.00000000 0.00000000
0.00000000 0.00000000 0.00000000
0.00000000 0.00000000 0.00000000
0.13596322 0.14534635 0.00000000
0.19163808 0.14891950 0.00000000
0.24946553 0.14719607 0.00000000
0.31695987 0.14662244 0.00000000
0.39218847 0.14739689 0.00000000
0.47714054 0.15065650 0.00000000
0.57392581 0.15913102 0.00000000
0.68497866 0.19670708 0.00000000
0.81296714 0.24015744 0.00000000
0.94834259 0.28613043 0.00000000
1.00000000 0.32541600 0.11401512
1.00000000 0.32530789 0.11377678
1.00000000 0.32524568 0.11363947
1.00000000 0.32521035 0.11356143
1.00000000 0.32519008 0.11351662
1.00000000 0.32517827 0.11349052
1.00000000 0.32517129 0.11347510
1.00000000 0.32516713 0.11346589
1.00000000 0.32516461 0.11346033
1.00000000 0.32516309 0.11345696
1.00000000 0.32516216 0.11345490
1.00000000 0.32516159 0.11345364
1.00000000 0.32516124 0.11345287
1.00000000 0.32516102 0.11345239
1.00000000 0.32516089 0.11345210
0.00000000 0.00000000 0.00000000
0.00000000 0.00000000 0.00000000
0.00000000 0.00000000 0.00000000
0.00000000 0.00000000 0.00000000
0.00000000 0.00000000 0.00000000
0.00000000 0.00000000 0.00000000
0.00000000 0.00000000 0.00000000
0.00000000 0.00000000 0.00000000
0.00000000 0.00000000 0.00000000
0.17206382 0.18230719 0.00000000
0.23394125 0.18697676 0.00000000
0.30375444 0.18581250 0.00000000
0.38126714 0.18561601 0.00000000
0.46799953 0.18698112 0.00000000
0.56621050 0.19114204 0.00000000
0.67834040 0.20056524 0.00000000
0.80726127 0.23822003 0.00000000
0.94234046 0.28409190 0.00000000
1.00000000 0.32541919 0.11402214
1.00000000 0.32530928 0.11377985
1.00000000 0.32524627 0.11364076
1.00000000 0.32521060 0.11356197
1.00000000 0.32519018 0.11351686
1.00000000 0.32517831 0.11349062
1.00000000 0.32517131 0.11347515
1.00000000 0.32516713 0.11346591
1.00000000 0.32516462 0.11346034
1.00000000 0.32516309 0.11345696
1.00000000 0.32516216 0.11345490
1.00000000 0.32516159 0.11345364
1.00000000 0.32516124 0.11345287
1.00000000 0.32516102 0.11345239
1.00000000 0.32516089 0.11345210
0.00000000 0.00000000 0.00000000
0.00000000 0.00000000 0.00000000
0.00000000 0.00000000 0.00000000
0.00000000 0.00000000 0.00000000
0.00000000 0.00000000 0.00000000
0.00000000 0.00000000 0.00000000
0.00000000 0.00000000 0.00000000
0.00000000 0.00000000 0.00000000
0.00000000 0.00000000 0.00000000
0.00000000 0.00000000 0.00000000
0.21211492 0.22314106 0.00000000
0.28515223 0.22929743 0.00000000
0.36610562 0.22849830 0.00000000
0.45542890 0.22877660 0.00000000
0.55567514 0.23092788 0.00000000
0.66944381 0.23635028 0.00000000
0.79958882 0.24761164 0.00000000
0.93432360 0.28136913 0.00000000
1.00000000 0.32542357 0.11403179
1.00000000 0.32531118 0.11378404
1.00000000 0.32524706 0.11364252
1.00000000 0.32521093 0.11356271
1.00000000 0.32519033 0.11351718
1.00000000 0.32517838 0.11349076
1.00000000 0.32517134 0.11347521
1.00000000 0.32516715 0.11346593
1.00000000 0.32516462 0.11346035
1.00000000 0.32516309 0.11345697
1.00000000 0.32516216 0.11345490
1.00000000 0.32516159 0.11345364
1.00000000 0.32516124 0.11345287
1.00000000 0.32516102 0.11345239
1.00000000 0.32516089 0.11345210
0.00000000 0.00000000 0.00000000
0.00000000 0.00000000 0.00000000
0.00000000 0.00000000 0.00000000
0.00000000 0.00000000 0.00000000
0.00000000 0.00000000 0.00000000
0.00000000 0.00000000 0.00000000
0.00000000 0.00000000 0.00000000
0.00000000 0.00000000 0.00000000
0.00000000 0.00000000 0.00000000
0.00000000 0.00000000 0.00000000
0.00000000 0.00000000 0.00000000
0.25828855 0.27028409 0.00000000
0.34476688 0.27740845 0.00000000
0.43798358 0.27622951 0.00000000
0.54118988 0.27711672 0.00000000
0.65729716 0.28029628 0.00000000
0.78933183 0.28739336 0.00000000
0.92381113 0.29591709 0.00000000
1.00000000 0.32542964 0.11404516
1.00000000 0.32531380 0.11378983
1.00000000 0.32524816 0.11364493
1.00000000 0.32521139 0.11356373
1.00000000 0.32519052 0.11351761
1.00000000 0.32517846 0.11349095
1.00000000 0.32517138 0.11347529
1.00000000 0.32516716 0.11346597
1.00000000 0.32516463 0.11346037
1.00000000 0.32516309 0.11345697
1.00000000 0.32516216 0.11345491
1.00000000 0.32516159 0.11345364
1.00000000 0.32516124 0.11345287
1.00000000 0.32516102 0.11345239
1.00000000 0.32516089 0.11345210
0.01917692 0.11597095 0.00000000
0.01917692 0.11597095 0.00000000
0.01917692 0.11597095 0.00000000
0.01917692 0.11597095 0.00000000
0.01917692 0.11597095 0.00000000
0.01797462 0.11141857 0.00000000
0.01676576 0.10665866 0.00000000
0.01527920 0.10052224 0.00000000
0.01328003 0.09169301 0.00000000
0.01059310 0.07850346 0.00000000
0.01560494 0.05717665 0.00000000
0.00995288 0.01812402 0.00000000
0.31403023 0.32659440 0.00000000
0.41346443 0.33527169 0.00000000
0.52111335 0.33379114 0.00000000
0.64061284 0.33363532 0.00000000
0.77533184 0.33620670 0.00000000
0.91017503 0.34059164 0.00000000
1.00000000 0.34409434 0.11663606
1.00000000 0.32531745 0.11379787
1.00000000 0.32524966 0.11364826
1.00000000 0.32521202 0.11356511
1.00000000 0.32519079 0.11351820
1.00000000 0.32517858 0.11349120
1.00000000 0.32517143 0.11347540
1.00000000 0.32516719 0.11346602
1.00000000 0.32516464 0.11346039
1.00000000 0.32516310 0.11345699
1.00000000 0.32516216 0.11345491
1.00000000 0.32516159 0.11345365
1.00000000 0.32516124 0.11345287
1.00000000 0.32516102 0.11345239
1.00000000 0.32516089 0.11345210
0.07793688 0.27010146 0.00000000
0.07793688 0.27010146 0.00000000
0.07793688 0.27010146 0.00000000
0.07793688 0.27010146 0.00000000
0.07793688 0.27010146 0.00000000
0.07714837 0.26817155 0.00000000
0.07634861 0.26621416 0.00000000
0.07535535 0.26378317 0.00000000
0.07400203 0.26047098 0.00000000
0.07215006 0.25593844 0.00000000
0.06959980 0.24969704 0.00000000
0.11688697 0.24099121 0.00000000
0.16707563 0.22870837 0.00000000
0.37818007 0.39097457 0.00000000
0.49289688 0.40144650 0.00000000
0.61464313 0.40097740 0.04449305
0.75615227 0.39991704 0.00000000
0.89247074 0.39871368 0.00000000
1.00000000 0.38942045 0.12340603
1.00000000 0.34221673 0.11613719
1.00000000 0.32525176 0.11365289
1.00000000 0.32521289 0.11356702
1.00000000 0.32519115 0.11351900
1.00000000 0.32517873 0.11349155
1.00000000 0.32517150 0.11347555
1.00000000 0.32516722 0.11346609
1.00000000 0.32516465 0.11346042
1.00000000 0.32516311 0.11345700
1.00000000 0.32516216 0.11345492
1.00000000 0.32516159 0.11345365
1.00000000 0.32516124 0.11345287
1.00000000 0.32516102 0.11345239
1.00000000 0.32516089 0.11345210
0.12672574 0.38953311 0.00000000
0.12672574 0.38953311 0.00000000
0.12672574 0.38953311 0.00000000
0.12672574 0.38953311 0.00000000
0.12672574 0.38953311 0.00000000
0.12618968 0.38822072 0.00000000
0.12564815 0.38689497 0.00000000
0.12497870 0.38525602 0.00000000
0.12407215 0.38303662 0.00000000
0.12284219 0.38002546 0.00000000
0.12116902 0.37592926 0.00000000
0.11888446 0.37033631 0.00000000
0.18970146 0.36261673 0.00000000
0.26630128 0.35192434 0.00000000
0.45231924 0.46478764 0.00000000
0.58228910 0.47635220 0.03986469
0.72627561 0.47701954 0.06048777
0.87009445 0.47266179 0.00000000
1.00000000 0.45642287 0.13460094
1.00000000 0.38130205 0.12191512
1.00000000 0.33995344 0.11568122
1.00000000 0.32521409 0.11356968
1.00000000 0.32519166 0.11352011
1.00000000 0.32517895 0.11349202
1.00000000 0.32517159 0.11347576
1.00000000 0.32516726 0.11346618
1.00000000 0.32516467 0.11346046
1.00000000 0.32516311 0.11345702
1.00000000 0.32516217 0.11345493
1.00000000 0.32516159 0.11345365
1.00000000 0.32516124 0.11345287
1.00000000 0.32516102 0.11345239
1.00000000 0.32516089 0.11345210
0.17443432 0.50633770 0.00000000
0.17443432 0.50633770 0.00000000
0.17443432 0.50633770 0.00000000
0.17443432 0.50633770 0.00000000
0.17443432 0.50633770 0.00000000
0.17402695 0.50534031 0.00000000
0.17361604 0.50433428 0.00000000
0.17310892 0.50309268 0.00000000
0.17242372 0.50141509 0.00000000
0.17149692 0.49914596 0.00000000
0.17024146 0.49607220 0.00000000
0.16853735 0.49189997 0.00000000
0.16907577 0.48621924 0.00000000
0.25921078 0.47839578 0.00000000
0.36089065 0.46761998 0.00000000
0.53832866 0.54956385 0.00000000
0.68906393 0.56350329 0.05513252
0.83985296 0.56217979 0.07685318
1.00000000 0.54676613 0.15166670
1.00000000 0.43984844 0.13148801
1.00000000 0.37344100 0.12057608
1.00000000 0.33782269 0.11530385
1.00000000 0.32519236 0.11352166
1.00000000 0.32517925 0.11349268
1.00000000 0.32517172 0.11347604
1.00000000 0.32516731 0.11346630
1.00000000 0.32516470 0.11346052
1.00000000 0.32516312 0.11345704
1.00000000 0.32516217 0.11345494
1.00000000 0.32516159 0.11345366
1.00000000 0.32516124 0.11345287
1.00000000 0.32516102 0.11345239
1.00000000 0.32516089 0.11345210
0.22464124 0.62925959 0.00000000
0.22464124 0.62925959 0.00000000
0.22464124 0.62925959 0.00000000
0.22464124 0.62925959 0.00000000
0.22464124 0.62925959 0.00000000
0.22431638 0.62846425 0.00000000
0.22398895 0.62766261 0.00000000
0.22358518 0.62667408 0.00000000
0.22304023 0.62533990 0.00000000
0.22230423 0.62353796 0.00000000
0.22130926 0.62110202 0.00000000
0.21996253 0.61780484 0.00000000
0.21813647 0.61333415 0.00000000
0.22306506 0.60725289 0.00000000
0.33415130 0.59886944 0.00000000
0.46007065 0.58734749 0.00000000
0.63848711 0.64701849 0.00000000
0.81370566 0.66383843 0.07306705
1.00000000 0.66685677 0.17728868
1.00000000 0.52080415 0.14634409
1.00000000 0.42380240 0.12862746
1.00000000 0.36664951 0.11947403
1.00000000 0.33621868 0.11503459
1.00000000 0.32517966 0.11349359
1.00000000 0.32517190 0.11347643
1.00000000 0.32516739 0.11346647
1.00000000 0.32516473 0.11346059
1.00000000 0.32516314 0.11345708
1.00000000 0.32516218 0.11345495
1.00000000 0.32516160 0.11345366
1.00000000 0.32516124 0.11345288
1.00000000 0.32516102 0.11345240
1.00000000 0.32516089 0.11345210
0.27881349 0.76188430 0.00000000
0.27881349 0.76188430 0.00000000
0.27881349 0.76188430 0.00000000
0.27881349 0.76188430 0.00000000
0.27881349 0.76188430 0.00000000
0.27875257 0.76173517 0.00000000
0.27870481 0.76161824 0.00000000
0.27848615 0.76108294 0.00000000
0.27804122 0.75999367 0.00000000
0.27744080 0.75852376 0.00000000
0.27663006 0.75653895 0.00000000
0.27553441 0.75385663 0.00000000
0.27405201 0.75022750 0.00000000
0.27204319 0.74530960 0.00000000
0.28162441 0.73862024 0.00000000
0.41641724 0.72936733 0.00000000
0.56873608 0.71665668 0.00000000
0.75561033 0.75906046 0.00000000
0.94578010 0.77845275 0.09215818
1.00000000 0.63175484 0.16929899
1.00000000 0.49485988 0.14126583
1.00000000 0.41002382 0.12626808
1.00000000 0.36096087 0.11858293
1.00000000 0.33487121 0.11482074
1.00000000 0.32517214 0.11347697
1.00000000 0.32516750 0.11346671
1.00000000 0.32516478 0.11346070
1.00000000 0.32516316 0.11345712
1.00000000 0.32516219 0.11345497
1.00000000 0.32516160 0.11345367
1.00000000 0.32516124 0.11345288
1.00000000 0.32516102 0.11345240
1.00000000 0.32516089 0.11345210
0.33563467 0.90098994 0.00000000
0.33563467 0.90098994 0.00000000
0.33563467 0.90098994 0.00000000
0.33563467 0.90098994 0.00000000
0.33563467 0.90098994 0.00000000
0.33535568 0.90030693 0.00000000
0.33507501 0.89961984 0.00000000
0.33472966 0.89877439 0.00000000
0.33426487 0.89763652 0.00000000
0.33363951 0.89610560 0.00000000
0.33279852 0.89404677 0.00000000
0.33166826 0.89127979 0.00000000
0.33015065 0.88756452 0.00000000
0.32811568 0.88258269 0.00000000
0.32539252 0.87591609 0.00000000
0.33965528 0.86704296 0.00000000
0.50343842 0.85548887 0.00000000
0.68641534 0.84038638 0.00000000
0.87285807 0.87025860 0.00000000
1.00000000 0.77298768 0.20386910
1.00000000 0.58970874 0.16015918
1.00000000 0.47224437 0.13701560
1.00000000 0.39852344 0.12436264
1.00000000 0.35620309 0.11785742
1.00000000 0.33368885 0.11464126
1.00000000 0.32516764 0.11346703
1.00000000 0.32516484 0.11346084
1.00000000 0.32516319 0.11345718
1.00000000 0.32516220 0.11345500
1.00000000 0.32516161 0.11345369
1.00000000 0.32516125 0.11345289
1.00000000 0.32516103 0.11345240
1.00000000 0.32516089 0.11345210
0.36028159 0.96138473 0.00000000
0.36028159 0.96138473 0.00000000
0.36028159 0.96138473 0.00000000
0.36028159 0.96138473 0.00000000
0.36028159 0.96138473 0.00000000
0.36028169 0.96138479 0.00000000
0.36028178 0.96138484 0.00000000
0.36028190 0.96138491 0.00000000
0.36028206 0.96138500 0.00000000
0.36028227 0.96138513 0.00000000
0.36028256 0.96138530 0.00000000
0.36028296 0.96138553 0.00000000
0.36028350 0.96138585 0.00000000
0.36028423 0.96138628 0.00000000
0.36028523 0.96138687 0.00000000
0.36028662 0.96138768 0.00000000
0.37986078 0.96141458 0.00000000
0.55498046 0.96172384 0.00000000
0.76409751 0.96229119 0.00000000
1.00000000 0.99340958 0.16873953
1.00000000 0.73818018 0.19412404
1.00000000 0.55716849 0.15336531
1.00000000 0.44816338 0.13267895
1.00000000 0.38735644 0.12256967
1.00000000 0.35219310 0.11725861
1.00000000 0.33265400 0.11448896
1.00000000 0.32516493 0.11346104
1.00000000 0.32516323 0.11345727
1.00000000 0.32516222 0.11345504
1.00000000 0.32516161 0.11345370
1.00000000 0.32516125 0.11345290
1.00000000 0.32516103 0.11345240
1.00000000 0.32516089 0.11345210
0.36025220 0.96136746 0.00000000
0.36025220 0.96136746 0.00000000
0.36025220 0.96136746 0.00000000
0.36025220 0.96136746 0.00000000
0.36025220 0.96136746 0.00000000
0.36025224 0.96136749 0.00000000
0.36025229 0.96136751 0.00000000
0.36025234 0.96136754 0.00000000
0.36025241 0.96136759 0.00000000
0.36025251 0.96136764 0.00000000
0.36025264 0.96136772 0.00000000
0.36025281 0.96136782 0.00000000
0.36025305 0.96136796 0.00000000
0.36025338 0.96136816 0.00000000
0.36025382 0.96136842 0.00000000
0.36025444 0.96136878 0.00000000
0.36025528 0.96136927 0.00000000
0.37784566 0.96139305 0.00000000
0.53220062 0.96165630 0.00000000
0.70902011 0.96210022 0.00000000
1.00000000 0.99010162 0.19763905
1.00000000 0.72993304 0.19179203
1.00000000 0.55166716 0.15220646
1.00000000 0.44291011 0.13173662
1.00000000 0.37993002 0.12140117
1.00000000 0.34820647 0.11667510
1.00000000 0.33174789 0.11435850
1.00000000 0.32516328 0.11345739
1.00000000 0.32516224 0.11345509
1.00000000 0.32516163 0.11345373
1.00000000 0.32516125 0.11345291
1.00000000 0.32516103 0.11345241
1.00000000 0.32516089 0.11345211
0.36023487 0.96135728 0.00000000
0.36023487 0.96135728 0.00000000
0.36023487 0.96135728 0.00000000
0.36023487 0.96135728 0.00000000
0.36023487 0.96135728 0.00000000
0.36023488 0.96135729 0.00000000
0.36023490 0.96135730 0.00000000
0.36023493 0.96135731 0.00000000
0.36023496 0.96135733 0.00000000
0.36023500 0.96135736 0.00000000
0.36023505 0.96135739 0.00000000
0.36023513 0.96135743 0.00000000
0.36023523 0.96135749 0.00000000
0.36023537 0.96135758 0.00000000
0.36023556 0.96135769 0.00000000
0.36023582 0.96135784 0.00000000
0.36023617 0.96135805 0.00000000
0.36023667 0.96135834 0.00000000
0.37554036 0.96137875 0.00000000
0.51035231 0.96160086 0.00000000
0.69193610 0.96203838 0.00000000
1.00000000 0.98578405 0.23065013
1.00000000 0.72994317 0.19175119
1.00000000 0.55385462 0.15262053
1.00000000 0.44463014 0.13201851
1.00000000 0.37990320 0.12138711
1.00000000 0.34546919 0.11627840
1.00000000 0.33095352 0.11424591
