luts/Leica_m9_strong.cube
TITLE "Panasonic S9 V-Log to Leica M9 CCD Strong — S9 V-Log v1"
#LUMIXPHOTOSTYLE VLOG
# Film Emulation LUT
# Generated by lutex.py
# Grid: 33^3
LUT_3D_SIZE 9
DOMAIN_MIN 0.0 0.0 0.0
DOMAIN_MAX 1.0 1.0 1.0
0.00000000 0.00000000 0.00000000
0.00000000 0.00000000 0.00000000
0.18376705 0.02830824 0.00000000
0.41527364 0.10525228 0.00000000
0.82033025 0.24265760 0.00000000
1.00000000 0.32524443 0.11363670
1.00000000 0.32517125 0.11347500
1.00000000 0.32516215 0.11345490
1.00000000 0.32516089 0.11345210
0.00000000 0.00000000 0.00000000
0.00000000 0.00000000 0.00000000
0.18376705 0.02830824 0.00000000
0.41527364 0.10525228 0.00000000
0.82033025 0.24265760 0.00000000
1.00000000 0.32524443 0.11363670
1.00000000 0.32517125 0.11347500
1.00000000 0.32516215 0.11345490
1.00000000 0.32516089 0.11345210
0.00000000 0.00000000 0.00000000
0.00000000 0.00000000 0.00000000
0.13596322 0.14534635 0.00000000
0.39218847 0.14739689 0.00000000
0.81296714 0.24015744 0.00000000
1.00000000 0.32524568 0.11363947
1.00000000 0.32517129 0.11347510
1.00000000 0.32516216 0.11345490
1.00000000 0.32516089 0.11345210
0.01917692 0.11597095 0.00000000
0.01917692 0.11597095 0.00000000
0.01328003 0.09169301 0.00000000
0.31403023 0.32659440 0.00000000
0.77533184 0.33620670 0.00000000
1.00000000 0.32524966 0.11364826
1.00000000 0.32517143 0.11347540
1.00000000 0.32516216 0.11345491
1.00000000 0.32516089 0.11345210
0.22464124 0.62925959 0.00000000
0.22464124 0.62925959 0.00000000
0.22304023 0.62533990 0.00000000
0.21813647 0.61333415 0.00000000
0.63848711 0.64701849 0.00000000
1.00000000 0.42380240 0.12862746
1.00000000 0.32517190 0.11347643
1.00000000 0.32516218 0.11345495
1.00000000 0.32516089 0.11345210
0.36025220 0.96136746 0.00000000
0.36025220 0.96136746 0.00000000
0.36025241 0.96136759 0.00000000
0.36025305 0.96136796 0.00000000
0.36025528 0.96136927 0.00000000
1.00000000 0.99010162 0.19763905
1.00000000 0.37993002 0.12140117
1.00000000 0.32516224 0.11345509
1.00000000 0.32516089 0.11345211
0.36021552 0.96134591 0.00000000
0.36021552 0.96134591 0.00000000
0.36021553 0.96134592 0.00000000
0.36021555 0.96134593 0.00000000
0.36021563 0.96134598 0.00000000
0.36021589 0.96134613 0.00000000
1.00000000 0.97362543 0.27192304
1.00000000 0.38580315 0.12228916
1.00000000 0.32516090 0.11345213
0.36021099 0.96134325 0.00000000
0.36021099 0.96134325 0.00000000
0.36021099 0.96134325 0.00000000
0.36021099 0.96134325 0.00000000
0.36021099 0.96134325 0.00000000
0.36021100 0.96134326 0.00000000
0.36021104 0.96134328 0.00000000
1.00000000 0.95899961 0.26759415
1.00000000 0.38907911 0.12279848
0.36021034 0.96134287 0.00000000
0.36021034 0.96134287 0.00000000
0.36021034 0.96134287 0.00000000
0.36021034 0.96134287 0.00000000
0.36021034 0.96134287 0.00000000
0.36021034 0.96134287 0.00000000
0.36021035 0.96134287 0.00000000
0.36021035 0.96134288 0.00000000
1.00000000 0.94477332 0.26342959
0.00000000 0.00000000 0.00000000
0.00000000 0.00000000 0.00000000
0.18376705 0.02830824 0.00000000
0.41527364 0.10525228 0.00000000
0.82033025 0.24265760 0.00000000
1.00000000 0.32524443 0.11363670
1.00000000 0.32517125 0.11347500
1.00000000 0.32516215 0.11345490
1.00000000 0.32516089 0.11345210
0.00000000 0.00000000 0.00000000
0.00000000 0.00000000 0.00000000
0.18376705 0.02830824 0.00000000
0.41527364 0.10525228 0.00000000
0.82033025 0.24265760 0.00000000
1.00000000 0.32524443 0.11363670
1.00000000 0.32517125 0.11347500
1.00000000 0.32516215 0.11345490
1.00000000 0.32516089 0.11345210
0.00000000 0.00000000 0.00000000
0.00000000 0.00000000 0.00000000
0.13596322 0.14534635 0.00000000
0.39218847 0.14739689 0.00000000
0.81296714 0.24015744 0.00000000
1.00000000 0.32524568 0.11363947
1.00000000 0.32517129 0.11347510
1.00000000 0.32516216 0.11345490
1.00000000 0.32516089 0.11345210
0.01917692 0.11597095 0.00000000
0.01917692 0.11597095 0.00000000
0.01328003 0.09169301 0.00000000
0.31403023 0.32659440 0.00000000
0.77533184 0.33620670 0.00000000
1.00000000 0.32524966 0.11364826
1.00000000 0.32517143 0.11347540
1.00000000 0.32516216 0.11345491
1.00000000 0.32516089 0.11345210
0.22464124 0.62925959 0.00000000
0.22464124 0.62925959 0.00000000
0.22304023 0.62533990 0.00000000
0.21813647 0.61333415 0.00000000
0.63848711 0.64701849 0.00000000
1.00000000 0.42380240 0.12862746
1.00000000 0.32517190 0.11347643
1.00000000 0.32516218 0.11345495
1.00000000 0.32516089 0.11345210
0.36025220 0.96136746 0.00000000
0.36025220 0.96136746 0.00000000
0.36025241 0.96136759 0.00000000
0.36025305 0.96136796 0.00000000
0.36025528 0.96136927 0.00000000
1.00000000 0.99010162 0.19763905
1.00000000 0.37993002 0.12140117
1.00000000 0.32516224 0.11345509
1.00000000 0.32516089 0.11345211
0.36021552 0.96134591 0.00000000
0.36021552 0.96134591 0.00000000
0.36021553 0.96134592 0.00000000
0.36021555 0.96134593 0.00000000
0.36021563 0.96134598 0.00000000
0.36021589 0.96134613 0.00000000
1.00000000 0.97362543 0.27192304
1.00000000 0.38580315 0.12228916
1.00000000 0.32516090 0.11345213
0.36021099 0.96134325 0.00000000
0.36021099 0.96134325 0.00000000
0.36021099 0.96134325 0.00000000
0.36021099 0.96134325 0.00000000
0.36021099 0.96134325 0.00000000
0.36021100 0.96134326 0.00000000
0.36021104 0.96134328 0.00000000
1.00000000 0.95899961 0.26759415
1.00000000 0.38907911 0.12279848
0.36021034 0.96134287 0.00000000
0.36021034 0.96134287 0.00000000
0.36021034 0.96134287 0.00000000
0.36021034 0.96134287 0.00000000
0.36021034 0.96134287 0.00000000
0.36021034 0.96134287 0.00000000
0.36021035 0.96134287 0.00000000
0.36021035 0.96134288 0.00000000
1.00000000 0.94477332 0.26342959
0.00000000 0.00000000 0.00000000
0.00000000 0.00000000 0.00000000
0.17718522 0.00000000 0.13133745
0.41176706 0.00000000 0.04609167
0.81959093 0.21365404 0.00000000
1.00000000 0.32524463 0.11363714
1.00000000 0.32517126 0.11347502
1.00000000 0.32516215 0.11345490
1.00000000 0.32516089 0.11345210
0.00000000 0.00000000 0.00000000
0.00000000 0.00000000 0.00000000
0.17718522 0.00000000 0.13133745
0.41176706 0.00000000 0.04609167
0.81959093 0.21365404 0.00000000
1.00000000 0.32524463 0.11363714
1.00000000 0.32517126 0.11347502
1.00000000 0.32516215 0.11345490
1.00000000 0.32516089 0.11345210
0.00000000 0.14819767 0.12127954
0.00000000 0.14819767 0.12127954
0.00000000 0.00000000 0.00000000
0.39883754 0.05712680 0.00000000
0.81103792 0.21687002 0.00000000
1.00000000 0.32524589 0.11363992
1.00000000 0.32517130 0.11347512
1.00000000 0.32516216 0.11345490
1.00000000 0.32516089 0.11345210
0.00625316 0.09724990 0.00000000
0.00625316 0.09724990 0.00000000
0.00379200 0.06768575 0.00000000
0.31787066 0.33056806 0.00000000
0.77446320 0.32840041 0.00000000
1.00000000 0.32524988 0.11364874
1.00000000 0.32517144 0.11347542
1.00000000 0.32516216 0.11345491
1.00000000 0.32516089 0.11345210
0.22336322 0.62613067 0.00000000
0.22336322 0.62613067 0.00000000
0.22175385 0.62219048 0.00000000
0.21682376 0.61012027 0.00000000
0.63594135 0.64407840 0.00000000
1.00000000 0.42271329 0.12844578
1.00000000 0.32517190 0.11347645
1.00000000 0.32516218 0.11345495
1.00000000 0.32516089 0.11345210
0.36025237 0.96136756 0.00000000
0.36025237 0.96136756 0.00000000
0.36025258 0.96136769 0.00000000
0.36025323 0.96136807 0.00000000
0.36025547 0.96136938 0.00000000
1.00000000 0.98981912 0.19994820
1.00000000 0.37967107 0.12136134
1.00000000 0.32516224 0.11345509
1.00000000 0.32516089 0.11345211
0.36021553 0.96134592 0.00000000
0.36021553 0.96134592 0.00000000
0.36021553 0.96134592 0.00000000
0.36021556 0.96134594 0.00000000
0.36021563 0.96134598 0.00000000
0.36021589 0.96134613 0.00000000
1.00000000 0.97354983 0.27190068
1.00000000 0.38570387 0.12227369
1.00000000 0.32516090 0.11345213
0.36021099 0.96134325 0.00000000
0.36021099 0.96134325 0.00000000
0.36021099 0.96134325 0.00000000
0.36021099 0.96134325 0.00000000
0.36021099 0.96134325 0.00000000
0.36021100 0.96134326 0.00000000
0.36021104 0.96134328 0.00000000
1.00000000 0.95897790 0.26758777
1.00000000 0.38904959 0.12279385
0.36021034 0.96134287 0.00000000
0.36021034 0.96134287 0.00000000
0.36021034 0.96134287 0.00000000
0.36021034 0.96134287 0.00000000
0.36021034 0.96134287 0.00000000
0.36021034 0.96134287 0.00000000
0.36021035 0.96134287 0.00000000
0.36021035 0.96134288 0.00000000
1.00000000 0.94476690 0.26342772
0.00000000 0.00000000 0.00000000
0.00000000 0.00000000 0.00000000
0.00000000 0.00000000 0.00000000
0.40072424 0.00000000 0.31219195
0.81757555 0.00000000 0.17400719
1.00000000 0.30167594 0.11405474
1.00000000 0.32464055 0.11349445
1.00000000 0.32516216 0.11345490
1.00000000 0.32516089 0.11345210
0.00000000 0.00000000 0.00000000
0.00000000 0.00000000 0.00000000
0.00000000 0.00000000 0.00000000
0.40072424 0.00000000 0.31219195
0.81757555 0.00000000 0.17400719
1.00000000 0.30167594 0.11405474
1.00000000 0.32464055 0.11349445
1.00000000 0.32516216 0.11345490
1.00000000 0.32516089 0.11345210
0.00000000 0.00000000 0.00000000
0.00000000 0.00000000 0.00000000
0.00000000 0.00000000 0.00000000
0.37795691 0.00000000 0.30637385
0.80511366 0.00000000 0.16819206
1.00000000 0.30264501 0.11404630
1.00000000 0.32474988 0.11349303
1.00000000 0.32516216 0.11345490
1.00000000 0.32516089 0.11345210
0.00000000 0.33229513 0.28995146
0.00000000 0.33229513 0.28995146
0.00000000 0.32537153 0.28892462
0.17554720 0.18015906 0.16705978
0.78862665 0.17008299 0.05534672
1.00000000 0.30565474 0.11402004
1.00000000 0.32506021 0.11348904
1.00000000 0.32516216 0.11345492
1.00000000 0.32516089 0.11345210
0.09810143 0.61658954 0.00000000
0.09810143 0.61658954 0.00000000
0.09709384 0.61258593 0.00000000
0.09401732 0.60031604 0.00000000
0.64546215 0.65300783 0.09224559
1.00000000 0.41906756 0.15281844
1.00000000 0.32517193 0.11347650
1.00000000 0.32516218 0.11345496
1.00000000 0.32516089 0.11345210
0.36025288 0.96136786 0.00000000
0.36025288 0.96136786 0.00000000
0.36025309 0.96136799 0.00000000
0.36025375 0.96136838 0.00000000
0.36025604 0.96136972 0.00000000
1.00000000 0.98896036 0.20682911
1.00000000 0.37889450 0.12124204
1.00000000 0.32516224 0.11345510
1.00000000 0.32516089 0.11345211
0.36021554 0.96134593 0.00000000
0.36021554 0.96134593 0.00000000
0.36021555 0.96134593 0.00000000
0.36021557 0.96134595 0.00000000
0.36021565 0.96134599 0.00000000
0.36021591 0.96134615 0.00000000
1.00000000 0.97332063 0.27183290
1.00000000 0.38540388 0.12222696
1.00000000 0.32516090 0.11345213
0.36021099 0.96134325 0.00000000
0.36021099 0.96134325 0.00000000
0.36021099 0.96134325 0.00000000
0.36021099 0.96134325 0.00000000
0.36021099 0.96134325 0.00000000
0.36021100 0.96134326 0.00000000
0.36021104 0.96134328 0.00000000
1.00000000 0.95891220 0.26756848
1.00000000 0.38896034 0.12277985
0.36021034 0.96134287 0.00000000
0.36021034 0.96134287 0.00000000
0.36021034 0.96134287 0.00000000
0.36021034 0.96134287 0.00000000
0.36021034 0.96134287 0.00000000
0.36021034 0.96134287 0.00000000
0.36021035 0.96134287 0.00000000
0.36021035 0.96134288 0.00000000
1.00000000 0.94474749 0.26342206
0.00000000 0.02632467 0.52905085
0.00000000 0.02632467 0.52905085
0.00000000 0.00106043 0.52833289
0.28459725 0.00000000 0.52524204
0.79819342 0.00000000 0.63966635
1.00000000 0.11573839 0.13137533
1.00000000 0.31118967 0.11368228
1.00000000 0.32475690 0.11346236
1.00000000 0.32516089 0.11345210
0.00000000 0.02632467 0.52905085
0.00000000 0.02632467 0.52905085
0.00000000 0.00106043 0.52833289
0.28459725 0.00000000 0.52524204
0.79819342 0.00000000 0.63966635
1.00000000 0.11573839 0.13137533
1.00000000 0.31118967 0.11368228
1.00000000 0.32475690 0.11346236
1.00000000 0.32516089 0.11345210
0.00000000 0.02584755 0.52458650
0.00000000 0.02584755 0.52458650
0.00000000 0.02576979 0.52385437
0.26161775 0.00000000 0.52088638
0.78544093 0.00000000 0.63637590
1.00000000 0.11574785 0.13237430
1.00000000 0.31134827 0.11368028
1.00000000 0.32477777 0.11346207
1.00000000 0.32516089 0.11345210
0.00000000 0.21763546 0.50914157
0.00000000 0.21763546 0.50914157
0.00000000 0.21094162 0.50849215
0.05546657 0.06431662 0.54843968
0.75580766 0.00000000 0.63015707
1.00000000 0.11577728 0.13538245
1.00000000 0.31183181 0.11367415
1.00000000 0.32483974 0.11346120
1.00000000 0.32516089 0.11345210
0.00000000 0.65762910 0.59414727
0.00000000 0.65762910 0.59414727
0.00000000 0.65399688 0.59366065
0.00000000 0.64289666 0.59218477
0.60339717 0.60574938 0.58383582
1.00000000 0.36121916 0.28588688
1.00000000 0.31346797 0.11365338
1.00000000 0.32501900 0.11345869
1.00000000 0.32516089 0.11345210
0.21330849 0.96143268 0.00000000
0.21330849 0.96143268 0.00000000
0.21294447 0.96143296 0.00000000
0.21182931 0.96143382 0.00000000
0.20799180 0.96143681 0.00000000
1.00000000 0.98607166 0.38889590
1.00000000 0.37618132 0.13746255
1.00000000 0.32516225 0.11345510
1.00000000 0.32516089 0.11345211
0.36021560 0.96134596 0.00000000
0.36021560 0.96134596 0.00000000
0.36021561 0.96134597 0.00000000
0.36021564 0.96134598 0.00000000
0.36021571 0.96134603 0.00000000
0.36021598 0.96134618 0.00000000
1.00000000 0.97255836 0.27160755
1.00000000 0.38441665 0.12207339
1.00000000 0.32516090 0.11345213
0.36021099 0.96134325 0.00000000
0.36021099 0.96134325 0.00000000
0.36021099 0.96134325 0.00000000
0.36021099 0.96134325 0.00000000
0.36021099 0.96134325 0.00000000
0.36021100 0.96134326 0.00000000
0.36021104 0.96134328 0.00000000
1.00000000 0.95869523 0.26750477
1.00000000 0.38866648 0.12273376
0.36021034 0.96134287 0.00000000
0.36021034 0.96134287 0.00000000
0.36021034 0.96134287 0.00000000
0.36021034 0.96134287 0.00000000
0.36021034 0.96134287 0.00000000
0.36021035 0.96134287 0.00000000
0.36021035 0.96134287 0.00000000
0.36021035 0.96134288 0.00000000
1.00000000 0.94468354 0.26340342
0.00000000 0.08090930 0.94324671
0.00000000 0.08090930 0.94324671
0.00000000 0.08090940 0.94324674
0.07191578 0.00000000 0.94308613
0.47956444 0.00000000 0.94073001
1.00000000 0.12609569 0.73967052
1.00000000 0.20356157 0.11485210
1.00000000 0.31578630 0.11358867
1.00000000 0.32488108 0.11345635
0.00000000 0.08090930 0.94324671
0.00000000 0.08090930 0.94324671
0.00000000 0.08090940 0.94324674
0.07191578 0.00000000 0.94308613
0.47956444 0.00000000 0.94073001
1.00000000 0.12609569 0.73967052
1.00000000 0.20356157 0.11485210
1.00000000 0.31578630 0.11358867
1.00000000 0.32488108 0.11345635
0.00000000 0.08090988 0.94324690
0.00000000 0.08090988 0.94324690
0.00000000 0.08090998 0.94324693
0.01713073 0.00000000 0.94314706
0.47101013 0.00000000 0.94082262
1.00000000 0.12622481 0.74305973
1.00000000 0.20378337 0.11485042
1.00000000 0.31583679 0.11358798
1.00000000 0.32488516 0.11345629
0.00000000 0.08091166 0.94324746
0.00000000 0.08091166 0.94324746
0.00000000 0.08091175 0.94324749
0.00000000 0.08091205 0.94324758
0.44375898 0.00000000 0.94110385
1.00000000 0.12663325 0.75366610
1.00000000 0.20445431 0.11484532
1.00000000 0.31598858 0.11358590
1.00000000 0.32489744 0.11345611
0.00000000 0.38905530 0.93829277
0.00000000 0.38905530 0.93829277
0.00000000 0.38626794 0.93837231
0.00000000 0.37770445 0.93861219
0.00493283 0.00000000 0.98751321
1.00000000 0.21836893 0.79241622
1.00000000 0.20666775 0.11482841
1.00000000 0.31647907 0.11357916
1.00000000 0.32493723 0.11345555
0.06631222 1.00000000 0.89152177
0.06631222 1.00000000 0.89152177
0.06636548 1.00000000 0.89330334
0.06652889 1.00000000 0.89874638
0.06709400 1.00000000 0.91730762
1.00000000 0.99843058 0.99687678
1.00000000 0.32734473 0.21866821
1.00000000 0.31797442 0.11355857
1.00000000 0.32505931 0.11345381
0.29167043 0.96137619 0.00000000
0.29167043 0.96137619 0.00000000
0.29164517 0.96137621 0.00000000
0.29156787 0.96137626 0.00000000
0.29130272 0.96137642 0.00000000
0.29030332 0.96137702 0.00000000
1.00000000 0.97007353 0.35402727
1.00000000 0.38103091 0.13239902
1.00000000 0.32516090 0.11345213
0.36021100 0.96134326 0.00000000
0.36021100 0.96134326 0.00000000
0.36021100 0.96134326 0.00000000
0.36021100 0.96134326 0.00000000
0.36021100 0.96134326 0.00000000
0.36021101 0.96134327 0.00000000
0.36021105 0.96134329 0.00000000
1.00000000 0.95797388 0.26729301
1.00000000 0.38769903 0.12258224
0.36021034 0.96134287 0.00000000
0.36021034 0.96134287 0.00000000
0.36021034 0.96134287 0.00000000
0.36021034 0.96134287 0.00000000
0.36021034 0.96134287 0.00000000
0.36021035 0.96134287 0.00000000
0.36021035 0.96134287 0.00000000
0.36021035 0.96134288 0.00000000
1.00000000 0.94447236 0.26334188
0.00000000 0.08081165 0.94321585
0.00000000 0.08081165 0.94321585
0.00000000 0.08081165 0.94321585
0.00000000 0.08081166 0.94321585
0.00396822 0.00000000 0.94312202
0.39860725 0.00000000 0.94148432
1.00000000 0.12715191 0.77418681
1.00000000 0.15721846 0.11515755
1.00000000 0.31283560 0.11362501
0.00000000 0.08081165 0.94321585
0.00000000 0.08081165 0.94321585
0.00000000 0.08081165 0.94321585
0.00000000 0.08081166 0.94321585
0.00396822 0.00000000 0.94312202
0.39860725 0.00000000 0.94148432
1.00000000 0.12715191 0.77418681
1.00000000 0.15721846 0.11515755
1.00000000 0.31283560 0.11362501
0.00000000 0.08081167 0.94321585
0.00000000 0.08081167 0.94321585
0.00000000 0.08081167 0.94321586
0.00000000 0.08081168 0.94321586
0.00000000 0.00598099 0.94313161
0.39514548 0.00000000 0.94151422
1.00000000 0.12719019 0.77517186
1.00000000 0.15731293 0.11515697
1.00000000 0.31285568 0.11362473
0.00000000 0.08081173 0.94321587
0.00000000 0.08081173 0.94321587
0.00000000 0.08081173 0.94321587
0.00000000 0.08081174 0.94321588
0.00000000 0.03499519 0.94315959
0.38458038 0.00000000 0.94160352
1.00000000 0.12730742 0.77817909
1.00000000 0.15759883 0.11515519
1.00000000 0.31291637 0.11362390
0.00000000 0.08081191 0.94321593
0.00000000 0.08081191 0.94321593
0.00000000 0.08081192 0.94321593
0.00000000 0.08081193 0.94321594
0.00000000 0.08081196 0.94321595
0.34867495 0.00000000 0.94188510
1.00000000 0.12771007 0.78841021
1.00000000 0.15854427 0.11514930
1.00000000 0.31311582 0.11362117
0.00000000 0.28369046 0.94078312
0.00000000 0.28369046 0.94078312
0.00000000 0.28283707 0.94079971
0.00000000 0.28026211 0.94084941
0.00000000 0.27184179 0.94100817
0.00000000 0.02562382 0.96361183
1.00000000 0.18347672 0.82578424
1.00000000 0.16170238 0.11512935
1.00000000 0.31376852 0.11361223
0.06683179 1.00000000 0.93574632
0.06683179 1.00000000 0.93574632
0.06684729 1.00000000 0.93627593
0.06689434 1.00000000 0.93788220
0.06705162 1.00000000 0.94323051
0.06759613 1.00000000 0.96150993
0.99454312 0.94940682 0.97641115
1.00000000 0.30724685 0.22145157
1.00000000 0.31586717 0.11358334
0.27314322 0.96137880 0.00000000
0.27314322 0.96137880 0.00000000
0.27314517 0.96137880 0.00000000
0.27315105 0.96137879 0.00000000
0.27317042 0.96137879 0.00000000
0.27323427 0.96137878 0.00000000
0.27344525 0.96137874 0.00000000
1.00000000 0.95572672 0.35688182
1.00000000 0.38439420 0.13147740
0.36021035 0.96134287 0.00000000
0.36021035 0.96134287 0.00000000
0.36021035 0.96134287 0.00000000
0.36021035 0.96134287 0.00000000
0.36021035 0.96134287 0.00000000
0.36021035 0.96134287 0.00000000
0.36021035 0.96134288 0.00000000
0.36021035 0.96134288 0.00000000
1.00000000 0.94377035 0.26313735
0.00000000 0.08080082 0.94321243
0.00000000 0.08080082 0.94321243
0.00000000 0.08080082 0.94321243
0.00000000 0.08080082 0.94321243
0.00000000 0.08080082 0.94321243
0.00000000 0.04059786 0.94316081
0.40960946 0.00000000 0.94138293
1.00000000 0.12815228 0.80032201
1.00000000 0.11957482 0.11536041
0.00000000 0.08080082 0.94321243
0.00000000 0.08080082 0.94321243
0.00000000 0.08080082 0.94321243
0.00000000 0.08080082 0.94321243
0.00000000 0.08080082 0.94321243
0.00000000 0.04059786 0.94316081
0.40960946 0.00000000 0.94138293
1.00000000 0.12815228 0.80032201
1.00000000 0.11957482 0.11536041
0.00000000 0.08080082 0.94321243
0.00000000 0.08080082 0.94321243
0.00000000 0.08080082 0.94321243
0.00000000 0.08080082 0.94321243
0.00000000 0.08080082 0.94321243
0.00000000 0.04190381 0.94316210
0.40862029 0.00000000 0.94139180
1.00000000 0.12816437 0.80062282
1.00000000 0.11961002 0.11536024
0.00000000 0.08080082 0.94321243
0.00000000 0.08080082 0.94321243
0.00000000 0.08080082 0.94321243
0.00000000 0.08080082 0.94321243
0.00000000 0.08080082 0.94321243
0.00000000 0.04477384 0.94316504
0.40562047 0.00000000 0.94141853
1.00000000 0.12820104 0.80153468
1.00000000 0.11971643 0.11535974
0.00000000 0.08080083 0.94321243
0.00000000 0.08080083 0.94321243
0.00000000 0.08080083 0.94321243
0.00000000 0.08080083 0.94321243
0.00000000 0.08080083 0.94321243
0.00000000 0.05779775 0.94317988
0.39563365 0.00000000 0.94150579
1.00000000 0.12832329 0.80456589
1.00000000 0.12006706 0.11535807
0.00000000 0.08080085 0.94321244
0.00000000 0.08080085 0.94321244
0.00000000 0.08080085 0.94321244
0.00000000 0.08080085 0.94321244
0.00000000 0.08080085 0.94321244
0.00000000 0.08080086 0.94321244
0.36147520 0.00000000 0.94178426
1.00000000 0.12874258 0.81486809
1.00000000 0.12122446 0.11535252
0.00000000 0.29031502 0.94064851
0.00000000 0.29031502 0.94064851
0.00000000 0.29004294 0.94065395
0.00000000 0.28921990 0.94067038
0.00000000 0.28650267 0.94072422
0.00000000 0.27747740 0.94089874
0.01899127 0.00000000 0.96386864
1.00000000 0.16727866 0.85245491
1.00000000 0.12506789 0.11533372
0.05237528 1.00000000 0.97751362
0.05237528 1.00000000 0.97751362
0.04811757 1.00000000 0.97767590
0.03368514 1.00000000 0.97816775
0.00000000 0.99946516 0.97930182
0.00000000 0.99391187 0.97953385
0.00000000 0.96077223 0.98029532
0.96957403 0.91015725 0.98063104
1.00000000 0.29951640 0.22804787
0.24978130 0.96138580 0.00000000
0.24978130 0.96138580 0.00000000
0.24978112 0.96138580 0.00000000
0.24978058 0.96138580 0.00000000
0.24977881 0.96138580 0.00000000
0.24977292 0.96138580 0.00000000
0.24975280 0.96138581 0.00000000
0.24967829 0.96138584 0.00000000
1.00000000 0.94172790 0.36813110
0.00000000 0.08079942 0.94321199
0.00000000 0.08079942 0.94321199
0.00000000 0.08079942 0.94321199
0.00000000 0.08079942 0.94321199
0.00000000 0.08079943 0.94321199
0.00000000 0.08079943 0.94321199
0.00000000 0.03801760 0.94315779
0.40596799 0.00000000 0.94141490
1.00000000 0.12902772 0.82190286
0.00000000 0.08079942 0.94321199
0.00000000 0.08079942 0.94321199
0.00000000 0.08079942 0.94321199
0.00000000 0.08079942 0.94321199
0.00000000 0.08079943 0.94321199
0.00000000 0.08079943 0.94321199
0.00000000 0.03801760 0.94315779
0.40596799 0.00000000 0.94141490
1.00000000 0.12902772 0.82190286
0.00000000 0.08079942 0.94321199
0.00000000 0.08079942 0.94321199
0.00000000 0.08079943 0.94321199
0.00000000 0.08079943 0.94321199
0.00000000 0.08079943 0.94321199
0.00000000 0.08079943 0.94321199
0.00000000 0.03875895 0.94315850
0.40568094 0.00000000 0.94141745
1.00000000 0.12903156 0.82199586
0.00000000 0.08079943 0.94321199
0.00000000 0.08079943 0.94321199
0.00000000 0.08079943 0.94321199
0.00000000 0.08079943 0.94321199
0.00000000 0.08079943 0.94321199
0.00000000 0.08079943 0.94321199
0.00000000 0.04096541 0.94316064
0.40481246 0.00000000 0.94142514
1.00000000 0.12904320 0.82227721
0.00000000 0.08079943 0.94321199
0.00000000 0.08079943 0.94321199
0.00000000 0.08079943 0.94321199
0.00000000 0.08079943 0.94321199
0.00000000 0.08079943 0.94321199
0.00000000 0.08079943 0.94321199
0.00000000 0.04752498 0.94316743
0.40194348 0.00000000 0.94145042
1.00000000 0.12908167 0.82320628
0.00000000 0.08079943 0.94321199
0.00000000 0.08079943 0.94321199
0.00000000 0.08079943 0.94321199
0.00000000 0.08079943 0.94321199
0.00000000 0.08079943 0.94321199
0.00000000 0.08079943 0.94321199
0.00000000 0.06368597 0.94318691
0.39239449 0.00000000 0.94153297
1.00000000 0.12920988 0.82629440
0.00000000 0.08079943 0.94321199
0.00000000 0.08079943 0.94321199
0.00000000 0.08079943 0.94321199
0.00000000 0.08079943 0.94321199
0.00000000 0.08079943 0.94321199
0.00000000 0.08079943 0.94321199
0.00000000 0.08079943 0.94321199
0.35976042 0.00000000 0.94179689
1.00000000 0.12964945 0.83678655
0.00000000 0.28819015 0.94069037
0.00000000 0.28819015 0.94069037
0.00000000 0.28811277 0.94069191
0.00000000 0.28787882 0.94069654
0.00000000 0.28710788 0.94071180
0.00000000 0.28456260 0.94076181
0.00000000 0.27610801 0.94092415
0.04041202 0.00000000 0.96395436
1.00000000 0.17359086 0.87495045
0.00000000 0.94545020 0.98089726
0.00000000 0.94545020 0.98089726
0.00000000 0.94540065 0.98089919
0.00000000 0.94525089 0.98090501
0.00000000 0.94475756 0.98092420
0.00000000 0.94313117 0.98098735
0.00000000 0.93775454 0.98119511
0.00000000 0.91981538 0.98187701
0.94411284 0.87058009 0.98448608
