luts/Ricoh_positive.cube
TITLE "Panasonic S9 V-Log to Ricoh Positive Film (ポジフィルム調)"
#LUMIXPHOTOSTYLE VLOG
# Film Emulation LUT
# Generated by lutex.py
# Grid: 33^3
LUT_3D_SIZE 33
DOMAIN_MIN 0.0 0.0 0.0
DOMAIN_MAX 1.0 1.0 1.0
0.00000000 0.00000000 0.00000000
0.00000000 0.00000000 0.00000000
0.00000000 0.00000000 0.00000000
0.00000000 0.00000000 0.00000000
0.00000000 0.00000000 0.00000000
0.10111189 0.01317355 0.00000000
0.14983063 0.02528159 0.00000000
0.19209386 0.03965750 0.00000000
0.23550270 0.05629701 0.00000000
0.28148182 0.07391247 0.00000000
0.33530935 0.09453481 0.00000000
0.39662355 0.11802542 0.00000000
0.46509970 0.14425991 0.00000000
0.54197242 0.17371129 0.00000000
0.62858840 0.20689549 0.00000000
0.72643924 0.24438398 0.00000000
0.82811253 0.28333691 0.00000000
0.95506628 0.33197527 0.00000000
0.99115650 0.34580210 0.00000000
0.99115650 0.34580210 0.00000000
0.99115650 0.34580210 0.00000000
0.99115650 0.34580210 0.00000000
0.99115650 0.34580210 0.00000000
0.99115650 0.34580210 0.00000000
0.99115650 0.34580210 0.00000000
0.99115650 0.34580210 0.00000000
0.99115650 0.34580210 0.00000000
0.99115650 0.34580210 0.00000000
0.99115650 0.34580210 0.00000000
0.99115650 0.34580210 0.00000000
0.99115650 0.34580210 0.00000000
0.99115650 0.34580210 0.00000000
0.99115650 0.34580210 0.00000000
0.00000000 0.00000000 0.00000000
0.00000000 0.00000000 0.00000000
0.00000000 0.00000000 0.00000000
0.00000000 0.00000000 0.00000000
0.00000000 0.00000000 0.00000000
0.10111189 0.01317355 0.00000000
0.14983063 0.02528159 0.00000000
0.19209386 0.03965750 0.00000000
0.23550270 0.05629701 0.00000000
0.28148182 0.07391247 0.00000000
0.33530935 0.09453481 0.00000000
0.39662355 0.11802542 0.00000000
0.46509970 0.14425991 0.00000000
0.54197242 0.17371129 0.00000000
0.62858840 0.20689549 0.00000000
0.72643924 0.24438398 0.00000000
0.82811253 0.28333691 0.00000000
0.95506628 0.33197527 0.00000000
0.99115650 0.34580210 0.00000000
0.99115650 0.34580210 0.00000000
0.99115650 0.34580210 0.00000000
0.99115650 0.34580210 0.00000000
0.99115650 0.34580210 0.00000000
0.99115650 0.34580210 0.00000000
0.99115650 0.34580210 0.00000000
0.99115650 0.34580210 0.00000000
0.99115650 0.34580210 0.00000000
0.99115650 0.34580210 0.00000000
0.99115650 0.34580210 0.00000000
0.99115650 0.34580210 0.00000000
0.99115650 0.34580210 0.00000000
0.99115650 0.34580210 0.00000000
0.99115650 0.34580210 0.00000000
0.00000000 0.00000000 0.00000000
0.00000000 0.00000000 0.00000000
0.00000000 0.00000000 0.00000000
0.00000000 0.00000000 0.00000000
0.00000000 0.00000000 0.00000000
0.10111189 0.01317355 0.00000000
0.14983063 0.02528159 0.00000000
0.19209386 0.03965750 0.00000000
0.23550270 0.05629701 0.00000000
0.28148182 0.07391247 0.00000000
0.33530935 0.09453481 0.00000000
0.39662355 0.11802542 0.00000000
0.46509970 0.14425991 0.00000000
0.54197242 0.17371129 0.00000000
0.62858840 0.20689549 0.00000000
0.72643924 0.24438398 0.00000000
0.82811253 0.28333691 0.00000000
0.95506628 0.33197527 0.00000000
0.99115650 0.34580210 0.00000000
0.99115650 0.34580210 0.00000000
0.99115650 0.34580210 0.00000000
0.99115650 0.34580210 0.00000000
0.99115650 0.34580210 0.00000000
0.99115650 0.34580210 0.00000000
0.99115650 0.34580210 0.00000000
0.99115650 0.34580210 0.00000000
0.99115650 0.34580210 0.00000000
0.99115650 0.34580210 0.00000000
0.99115650 0.34580210 0.00000000
0.99115650 0.34580210 0.00000000
0.99115650 0.34580210 0.00000000
0.99115650 0.34580210 0.00000000
0.99115650 0.34580210 0.00000000
0.00000000 0.00000000 0.00000000
0.00000000 0.00000000 0.00000000
0.00000000 0.00000000 0.00000000
0.00000000 0.00000000 0.00000000
0.00000000 0.00000000 0.00000000
0.10111189 0.01317355 0.00000000
0.14983063 0.02528159 0.00000000
0.19209386 0.03965750 0.00000000
0.23550270 0.05629701 0.00000000
0.28148182 0.07391247 0.00000000
0.33530935 0.09453481 0.00000000
0.39662355 0.11802542 0.00000000
0.46509970 0.14425991 0.00000000
0.54197242 0.17371129 0.00000000
0.62858840 0.20689549 0.00000000
0.72643924 0.24438398 0.00000000
0.82811253 0.28333691 0.00000000
0.95506628 0.33197527 0.00000000
0.99115650 0.34580210 0.00000000
0.99115650 0.34580210 0.00000000
0.99115650 0.34580210 0.00000000
0.99115650 0.34580210 0.00000000
0.99115650 0.34580210 0.00000000
0.99115650 0.34580210 0.00000000
0.99115650 0.34580210 0.00000000
0.99115650 0.34580210 0.00000000
0.99115650 0.34580210 0.00000000
0.99115650 0.34580210 0.00000000
0.99115650 0.34580210 0.00000000
0.99115650 0.34580210 0.00000000
0.99115650 0.34580210 0.00000000
0.99115650 0.34580210 0.00000000
0.99115650 0.34580210 0.00000000
0.00000000 0.00000000 0.00000000
0.00000000 0.00000000 0.00000000
0.00000000 0.00000000 0.00000000
0.00000000 0.00000000 0.00000000
0.00000000 0.00000000 0.00000000
0.10111189 0.01317355 0.00000000
0.14983063 0.02528159 0.00000000
0.19209386 0.03965750 0.00000000
0.23550270 0.05629701 0.00000000
0.28148182 0.07391247 0.00000000
0.33530935 0.09453481 0.00000000
0.39662355 0.11802542 0.00000000
0.46509970 0.14425991 0.00000000
0.54197242 0.17371129 0.00000000
0.62858840 0.20689549 0.00000000
0.72643924 0.24438398 0.00000000
0.82811253 0.28333691 0.00000000
0.95506628 0.33197527 0.00000000
0.99115650 0.34580210 0.00000000
0.99115650 0.34580210 0.00000000
0.99115650 0.34580210 0.00000000
0.99115650 0.34580210 0.00000000
0.99115650 0.34580210 0.00000000
0.99115650 0.34580210 0.00000000
0.99115650 0.34580210 0.00000000
0.99115650 0.34580210 0.00000000
0.99115650 0.34580210 0.00000000
0.99115650 0.34580210 0.00000000
0.99115650 0.34580210 0.00000000
0.99115650 0.34580210 0.00000000
0.99115650 0.34580210 0.00000000
0.99115650 0.34580210 0.00000000
0.99115650 0.34580210 0.00000000
0.00000000 0.08371707 0.00000000
0.00000000 0.08371707 0.00000000
0.00000000 0.08371707 0.00000000
0.00000000 0.08371707 0.00000000
0.00000000 0.08371707 0.00000000
0.07414335 0.07636972 0.00000000
0.13349658 0.08148775 0.00000000
0.18021910 0.08096556 0.00000000
0.22640550 0.07959910 0.00000000
0.27430937 0.07626699 0.00000000
0.32885050 0.09206030 0.00000000
0.39130335 0.11598715 0.00000000
0.46068589 0.14256890 0.00000000
0.53829229 0.17230136 0.00000000
0.62550915 0.20571577 0.00000000
0.72385623 0.24339437 0.00000000
0.82673747 0.28281010 0.00000000
0.95281153 0.33111143 0.00000000
0.99115650 0.34580210 0.00000000
0.99115650 0.34580210 0.00000000
0.99115650 0.34580210 0.00000000
0.99115650 0.34580210 0.00000000
0.99115650 0.34580210 0.00000000
0.99115650 0.34580210 0.00000000
0.99115650 0.34580210 0.00000000
0.99115650 0.34580210 0.00000000
0.99115650 0.34580210 0.00000000
0.99115650 0.34580210 0.00000000
0.99115650 0.34580210 0.00000000
0.99115650 0.34580210 0.00000000
0.99115650 0.34580210 0.00000000
0.99115650 0.34580210 0.00000000
0.99115650 0.34580210 0.00000000
0.00000000 0.12700730 0.00000000
0.00000000 0.12700730 0.00000000
0.00000000 0.12700730 0.00000000
0.00000000 0.12700730 0.00000000
0.00000000 0.12700730 0.00000000
0.03291866 0.12230548 0.00000000
0.11444585 0.11736702 0.00000000
0.16723505 0.12415812 0.00000000
0.21675846 0.12390752 0.00000000
0.26683403 0.12312388 0.00000000
0.32220227 0.12217672 0.00000000
0.38586300 0.12099970 0.00000000
0.45619254 0.14084741 0.00000000
0.53455751 0.17087050 0.00000000
0.62239109 0.20452118 0.00000000
0.72124483 0.24239390 0.00000000
0.82540797 0.28230075 0.00000000
0.95054492 0.33024305 0.00000000
0.99115650 0.34580210 0.00000000
0.99115650 0.34580210 0.00000000
0.99115650 0.34580210 0.00000000
0.99115650 0.34580210 0.00000000
0.99115650 0.34580210 0.00000000
0.99115650 0.34580210 0.00000000
0.99115650 0.34580210 0.00000000
0.99115650 0.34580210 0.00000000
0.99115650 0.34580210 0.00000000
0.99115650 0.34580210 0.00000000
0.99115650 0.34580210 0.00000000
0.99115650 0.34580210 0.00000000
0.99115650 0.34580210 0.00000000
0.99115650 0.34580210 0.00000000
0.99115650 0.34580210 0.00000000
0.00000000 0.16456134 0.00000000
0.00000000 0.16456134 0.00000000
0.00000000 0.16456134 0.00000000
0.00000000 0.16456134 0.00000000
0.00000000 0.16456134 0.00000000
0.00000000 0.16108260 0.00000000
0.08501996 0.15749015 0.00000000
0.14940806 0.15293195 0.00000000
0.20409040 0.16113134 0.00000000
0.25723931 0.16095022 0.00000000
0.31379974 0.16070708 0.00000000
0.37904129 0.16126778 0.00000000
0.45058793 0.16168234 0.00000000
0.52991596 0.16909223 0.00000000
0.61852586 0.20304034 0.00000000
0.71801356 0.24115594 0.00000000
0.82385648 0.28170634 0.00000000
0.94775839 0.32917547 0.00000000
0.99115650 0.34580210 0.00000000
0.99115650 0.34580210 0.00000000
0.99115650 0.34580210 0.00000000
0.99115650 0.34580210 0.00000000
0.99115650 0.34580210 0.00000000
0.99115650 0.34580210 0.00000000
0.99115650 0.34580210 0.00000000
0.99115650 0.34580210 0.00000000
0.99115650 0.34580210 0.00000000
0.99115650 0.34580210 0.00000000
0.99115650 0.34580210 0.00000000
0.99115650 0.34580210 0.00000000
0.99115650 0.34580210 0.00000000
0.99115650 0.34580210 0.00000000
0.99115650 0.34580210 0.00000000
0.00000000 0.20313333 0.00000000
0.00000000 0.20313333 0.00000000
0.00000000 0.20313333 0.00000000
0.00000000 0.20313333 0.00000000
0.00000000 0.20313333 0.00000000
0.00000000 0.20044408 0.00000000
0.01720619 0.19769163 0.00000000
0.12065018 0.19423678 0.00000000
0.18531796 0.18946093 0.00000000
0.24353565 0.19910123 0.00000000
0.30206869 0.19906735 0.00000000
0.36962405 0.20000576 0.00000000
0.44290713 0.20130962 0.00000000
0.52358623 0.20286198 0.00000000
0.61327279 0.20322340 0.00000000
0.71363266 0.23947753 0.00000000
0.82194656 0.28097461 0.00000000
0.94401271 0.32774044 0.00000000
0.99115650 0.34580210 0.00000000
0.99115650 0.34580210 0.00000000
0.99115650 0.34580210 0.00000000
0.99115650 0.34580210 0.00000000
0.99115650 0.34580210 0.00000000
0.99115650 0.34580210 0.00000000
0.99115650 0.34580210 0.00000000
0.99115650 0.34580210 0.00000000
0.99115650 0.34580210 0.00000000
0.99115650 0.34580210 0.00000000
0.99115650 0.34580210 0.00000000
0.99115650 0.34580210 0.00000000
0.99115650 0.34580210 0.00000000
0.99115650 0.34580210 0.00000000
0.99115650 0.34580210 0.00000000
0.00000000 0.24398921 0.00000000
0.00000000 0.24398921 0.00000000
0.00000000 0.24398921 0.00000000
0.00000000 0.24398921 0.00000000
0.00000000 0.24398921 0.00000000
0.00000000 0.24185763 0.00000000
0.00000000 0.23968754 0.00000000
0.06291219 0.23698070 0.00000000
0.15566942 0.23327113 0.00000000
0.22335412 0.22815282 0.00000000
0.28638223 0.23931752 0.00000000
0.35648912 0.24023034 0.00000000
0.43230882 0.24174056 0.00000000
0.51491368 0.24383644 0.00000000
0.60610997 0.24651270 0.00000000
0.70767913 0.24899987 0.00000000
0.81984560 0.28016969 0.00000000
0.93898256 0.32581329 0.00000000
0.99115650 0.34580210 0.00000000
0.99115650 0.34580210 0.00000000
0.99115650 0.34580210 0.00000000
0.99115650 0.34580210 0.00000000
0.99115650 0.34580210 0.00000000
0.99115650 0.34580210 0.00000000
0.99115650 0.34580210 0.00000000
0.99115650 0.34580210 0.00000000
0.99115650 0.34580210 0.00000000
0.99115650 0.34580210 0.00000000
0.99115650 0.34580210 0.00000000
0.99115650 0.34580210 0.00000000
0.99115650 0.34580210 0.00000000
0.99115650 0.34580210 0.00000000
0.99115650 0.34580210 0.00000000
0.00000000 0.28807484 0.00000000
0.00000000 0.28807484 0.00000000
0.00000000 0.28807484 0.00000000
0.00000000 0.28807484 0.00000000
0.00000000 0.28807484 0.00000000
0.00000000 0.28635871 0.00000000
0.00000000 0.28461754 0.00000000
0.00000000 0.28245427 0.00000000
0.10049205 0.27950544 0.00000000
0.19188297 0.27546769 0.00000000
0.26439713 0.26990339 0.00000000
0.33787703 0.28326304 0.00000000
0.41753673 0.28477474 0.00000000
0.50295084 0.28694559 0.00000000
0.59629759 0.28994576 0.00000000
0.69956188 0.29386388 0.00000000
0.81472985 0.29820232 0.00000000
0.93223760 0.32322917 0.00000000
0.99115650 0.34580210 0.00000000
0.99115650 0.34580210 0.00000000
0.99115650 0.34580210 0.00000000
0.99115650 0.34580210 0.00000000
0.99115650 0.34580210 0.00000000
0.99115650 0.34580210 0.00000000
0.99115650 0.34580210 0.00000000
0.99115650 0.34580210 0.00000000
0.99115650 0.34580210 0.00000000
0.99115650 0.34580210 0.00000000
0.99115650 0.34580210 0.00000000
0.99115650 0.34580210 0.00000000
0.99115650 0.34580210 0.00000000
0.99115650 0.34580210 0.00000000
0.99115650 0.34580210 0.00000000
0.00000000 0.34069778 0.00000000
0.00000000 0.34069778 0.00000000
0.00000000 0.34069778 0.00000000
0.00000000 0.34069778 0.00000000
0.00000000 0.34069778 0.00000000
0.00000000 0.33912932 0.00000000
0.00000000 0.33754223 0.00000000
0.00000000 0.33557645 0.00000000
0.00000000 0.33290777 0.00000000
0.13555463 0.32927445 0.00000000
0.23039298 0.32430788 0.00000000
0.31081464 0.31747996 0.00000000
0.39662740 0.33240616 0.00000000
0.48628510 0.33357454 0.00000000
0.58276573 0.33652772 0.00000000
0.68844337 0.34059132 0.00000000
0.80552130 0.34594574 0.00000000
0.92321530 0.34775445 0.00000000
0.99115650 0.34580210 0.00000000
0.99115650 0.34580210 0.00000000
0.99115650 0.34580210 0.00000000
0.99115650 0.34580210 0.00000000
0.99115650 0.34580210 0.00000000
0.99115650 0.34580210 0.00000000
0.99115650 0.34580210 0.00000000
0.99115650 0.34580210 0.00000000
0.99115650 0.34580210 0.00000000
0.99115650 0.34580210 0.00000000
0.99115650 0.34580210 0.00000000
0.99115650 0.34580210 0.00000000
0.99115650 0.34580210 0.00000000
0.99115650 0.34580210 0.00000000
0.99115650 0.34580210 0.00000000
0.00000000 0.40069434 0.00000000
0.00000000 0.40069434 0.00000000
0.00000000 0.40069434 0.00000000
0.00000000 0.40069434 0.00000000
0.00000000 0.40069434 0.00000000
0.00000000 0.39939122 0.00000000
0.00000000 0.39807455 0.00000000
0.00000000 0.39644644 0.00000000
0.00000000 0.39424104 0.00000000
0.00000000 0.39124762 0.00000000
0.17092105 0.38717326 0.00000000
0.27205151 0.38160591 0.00000000
0.36628026 0.37395619 0.00000000
0.46271358 0.39112812 0.00000000
0.56392088 0.39210055 0.00000000
0.67311295 0.39377834 0.00000000
0.79290911 0.39669822 0.00000000
0.91119753 0.39954037 0.00000000
0.99115650 0.37603566 0.00000000
0.99115650 0.34580210 0.00000000
0.99115650 0.34580210 0.00000000
0.99115650 0.34580210 0.00000000
0.99115650 0.34580210 0.00000000
0.99115650 0.34580210 0.00000000
0.99115650 0.34580210 0.00000000
0.99115650 0.34580210 0.00000000
0.99115650 0.34580210 0.00000000
0.99115650 0.34580210 0.00000000
0.99115650 0.34580210 0.00000000
0.99115650 0.34580210 0.00000000
0.99115650 0.34580210 0.00000000
0.99115650 0.34580210 0.00000000
0.99115650 0.34580210 0.00000000
0.00000000 0.46804771 0.00000000
0.00000000 0.46804771 0.00000000
0.00000000 0.46804771 0.00000000
0.00000000 0.46804771 0.00000000
0.00000000 0.46804771 0.00000000
0.00000000 0.46696009 0.00000000
0.00000000 0.46586231 0.00000000
0.00000000 0.46450644 0.00000000
0.00000000 0.46267264 0.00000000
0.00000000 0.46018885 0.00000000
0.00000000 0.45681804 0.00000000
0.20800081 0.45223087 0.00000000
0.32020344 0.44596449 0.00000000
0.42854709 0.43735755 0.00000000
0.53728215 0.45705352 0.00000000
0.65176894 0.45813985 0.00000000
0.77552141 0.46001238 0.00000000
0.89531442 0.45926533 0.00000000
0.99115650 0.43075078 0.00000000
0.99115650 0.37393185 0.00000000
0.99115650 0.34580210 0.00000000
0.99115650 0.34580210 0.00000000
0.99115650 0.34580210 0.00000000
0.99115650 0.34580210 0.00000000
0.99115650 0.34580210 0.00000000
0.99115650 0.34580210 0.00000000
0.99115650 0.34580210 0.00000000
0.99115650 0.34580210 0.00000000
0.99115650 0.34580210 0.00000000
0.99115650 0.34580210 0.00000000
0.99115650 0.34580210 0.00000000
0.99115650 0.34580210 0.00000000
0.99115650 0.34580210 0.00000000
0.00000000 0.54393780 0.00000000
0.00000000 0.54393780 0.00000000
0.00000000 0.54393780 0.00000000
0.00000000 0.54393780 0.00000000
0.00000000 0.54393780 0.00000000
0.00000000 0.54302711 0.00000000
0.00000000 0.54210858 0.00000000
0.00000000 0.54097505 0.00000000
0.00000000 0.53944364 0.00000000
0.00000000 0.53737251 0.00000000
0.00000000 0.53456749 0.00000000
0.00000000 0.53076109 0.00000000
0.24775914 0.52558186 0.00000000
0.37680042 0.51850804 0.00000000
0.49870595 0.50879474 0.00000000
0.62160970 0.53133697 0.00000000
0.75131773 0.53255660 0.00000000
0.87465876 0.53137655 0.00000000
0.99115650 0.50316742 0.00000000
0.99115650 0.42325369 0.00000000
0.99115650 0.37108161 0.00000000
0.99115650 0.34580210 0.00000000
0.99115650 0.34580210 0.00000000
0.99115650 0.34580210 0.00000000
0.99115650 0.34580210 0.00000000
0.99115650 0.34580210 0.00000000
0.99115650 0.34580210 0.00000000
0.99115650 0.34580210 0.00000000
0.99115650 0.34580210 0.00000000
0.99115650 0.34580210 0.00000000
0.99115650 0.34580210 0.00000000
0.99115650 0.34580210 0.00000000
0.99115650 0.34580210 0.00000000
0.00000000 0.62967150 0.00000000
0.00000000 0.62967150 0.00000000
0.00000000 0.62967150 0.00000000
0.00000000 0.62967150 0.00000000
0.00000000 0.62967150 0.00000000
0.00000000 0.62890718 0.00000000
0.00000000 0.62813668 0.00000000
0.00000000 0.62718641 0.00000000
0.00000000 0.62590359 0.00000000
0.00000000 0.62417051 0.00000000
0.00000000 0.62182673 0.00000000
0.00000000 0.61865262 0.00000000
0.04132816 0.61434567 0.00000000
0.29099726 0.60848594 0.00000000
0.44038470 0.60048379 0.00000000
0.57796504 0.58949797 0.00000000
0.71712790 0.61525751 0.00000000
0.84884942 0.61426464 0.00000000
0.99115650 0.59424366 0.00000000
0.99115650 0.48895293 0.00000000
0.99115650 0.41537957 0.00000000
0.99115650 0.36819510 0.00000000
0.99115650 0.34580210 0.00000000
0.99115650 0.34580210 0.00000000
0.99115650 0.34580210 0.00000000
0.99115650 0.34580210 0.00000000
0.99115650 0.34580210 0.00000000
0.99115650 0.34580210 0.00000000
0.99115650 0.34580210 0.00000000
0.99115650 0.34580210 0.00000000
0.99115650 0.34580210 0.00000000
0.99115650 0.34580210 0.00000000
0.99115650 0.34580210 0.00000000
0.00000000 0.72670978 0.00000000
0.00000000 0.72670978 0.00000000
0.00000000 0.72670978 0.00000000
0.00000000 0.72670978 0.00000000
0.00000000 0.72670978 0.00000000
0.00000000 0.72606721 0.00000000
0.00000000 0.72541971 0.00000000
0.00000000 0.72462147 0.00000000
0.00000000 0.72354450 0.00000000
0.00000000 0.72209064 0.00000000
0.00000000 0.72012655 0.00000000
0.00000000 0.71747043 0.00000000
0.00000000 0.71387345 0.00000000
0.08267281 0.70899297 0.00000000
0.34359401 0.70235341 0.00000000
0.51206605 0.69328724 0.00000000
0.66767497 0.68084246 0.00000000
0.82146863 0.70976189 0.00000000
0.99115650 0.71062348 0.00000000
0.99115650 0.57301193 0.00000000
0.99115650 0.47420010 0.00000000
0.99115650 0.40808927 0.00000000
0.99115650 0.36604891 0.00000000
0.99115650 0.34580210 0.00000000
0.99115650 0.34580210 0.00000000
0.99115650 0.34580210 0.00000000
0.99115650 0.34580210 0.00000000
0.99115650 0.34580210 0.00000000
0.99115650 0.34580210 0.00000000
0.99115650 0.34580210 0.00000000
0.99115650 0.34580210 0.00000000
0.99115650 0.34580210 0.00000000
0.99115650 0.34580210 0.00000000
0.00000000 0.83079080 0.00000000
0.00000000 0.83079080 0.00000000
0.00000000 0.83079080 0.00000000
0.00000000 0.83079080 0.00000000
0.00000000 0.83079080 0.00000000
0.00000000 0.83050236 0.00000000
0.00000000 0.83021688 0.00000000
0.00000000 0.82987240 0.00000000
0.00000000 0.82942139 0.00000000
0.00000000 0.82883973 0.00000000
0.00000000 0.82811029 0.00000000
0.00000000 0.82725442 0.00000000
0.00000000 0.82591969 0.00000000
0.00000000 0.82183918 0.00000000
0.11843960 0.81630286 0.00000000
0.40304699 0.80877147 0.00000000
0.59307613 0.79848829 0.00000000
0.76867046 0.78391033 0.00000000
0.93567649 0.81539507 0.00000000
0.99115650 0.68269344 0.00000000
0.99115650 0.55054390 0.00000000
0.99115650 0.46074562 0.00000000
0.99115650 0.40164392 0.00000000
0.99115650 0.36419873 0.00000000
0.99115650 0.34580210 0.00000000
0.99115650 0.34580210 0.00000000
0.99115650 0.34580210 0.00000000
0.99115650 0.34580210 0.00000000
0.99115650 0.34580210 0.00000000
0.99115650 0.34580210 0.00000000
0.99115650 0.34580210 0.00000000
0.99115650 0.34580210 0.00000000
0.99115650 0.34580210 0.00000000
0.00000000 0.94921784 0.00000000
0.00000000 0.94921784 0.00000000
0.00000000 0.94921784 0.00000000
0.00000000 0.94921784 0.00000000
0.00000000 0.94921784 0.00000000
0.00000000 0.94868127 0.00000000
0.00000000 0.94814136 0.00000000
0.00000000 0.94747682 0.00000000
0.00000000 0.94658211 0.00000000
0.00000000 0.94537770 0.00000000
0.00000000 0.94375687 0.00000000
0.00000000 0.94157646 0.00000000
0.00000000 0.93864495 0.00000000
0.00000000 0.93470692 0.00000000
0.00000000 0.92942366 0.00000000
0.15289924 0.92227788 0.00000000
0.46831480 0.91225509 0.00000000
0.68186777 0.89892026 0.00000000
0.86311917 0.88153584 0.00000000
0.98862841 0.81647622 0.00000000
0.99115650 0.64540207 0.00000000
0.99115650 0.52989640 0.00000000
0.99115650 0.44895624 0.00000000
0.99115650 0.39601643 0.00000000
0.99115650 0.36250970 0.00000000
0.99115650 0.34580210 0.00000000
0.99115650 0.34580210 0.00000000
0.99115650 0.34580210 0.00000000
0.99115650 0.34580210 0.00000000
0.99115650 0.34580210 0.00000000
0.99115650 0.34580210 0.00000000
0.99115650 0.34580210 0.00000000
0.99115650 0.34580210 0.00000000
0.00000000 0.99620652 0.00000000
0.00000000 0.99620652 0.00000000
0.00000000 0.99620652 0.00000000
0.00000000 0.99620652 0.00000000
0.00000000 0.99620652 0.00000000
0.00000000 0.99620652 0.00000000
0.00000000 0.99620652 0.00000000
0.00000000 0.99620652 0.00000000
0.00000000 0.99620652 0.00000000
0.00000000 0.99620652 0.00000000
0.00000000 0.99620652 0.00000000
0.00000000 0.99620652 0.00000000
0.00000000 0.99620652 0.00000000
0.00000000 0.99620652 0.00000000
0.00000000 0.99620652 0.00000000
0.00000000 0.99620652 0.00000000
0.16628471 0.99611500 0.00000000
0.49433255 0.99539271 0.00000000
0.72842180 0.99429015 0.00000000
0.96674199 0.99255548 0.00000000
0.98945636 0.79117167 0.00000000
0.99115650 0.61900903 0.00000000
0.99115650 0.50659773 0.00000000
0.99115650 0.43629605 0.00000000
0.99115650 0.39110063 0.00000000
0.99115650 0.36098063 0.00000000
0.99115650 0.34580210 0.00000000
0.99115650 0.34580210 0.00000000
0.99115650 0.34580210 0.00000000
0.99115650 0.34580210 0.00000000
0.99115650 0.34580210 0.00000000
0.99115650 0.34580210 0.00000000
0.99115650 0.34580210 0.00000000
0.00000000 0.99620652 0.00000000
0.00000000 0.99620652 0.00000000
0.00000000 0.99620652 0.00000000
0.00000000 0.99620652 0.00000000
0.00000000 0.99620652 0.00000000
0.00000000 0.99620652 0.00000000
0.00000000 0.99620652 0.00000000
0.00000000 0.99620652 0.00000000
0.00000000 0.99620652 0.00000000
0.00000000 0.99620652 0.00000000
0.00000000 0.99620652 0.00000000
0.00000000 0.99620652 0.00000000
0.00000000 0.99620652 0.00000000
0.00000000 0.99620652 0.00000000
0.00000000 0.99620652 0.00000000
0.00000000 0.99620652 0.00000000
0.00000000 0.99620652 0.00000000
0.15754114 0.99612345 0.00000000
0.46634246 0.99548899 0.00000000
0.67504736 0.99459070 0.00000000
0.96577052 0.99256393 0.00000000
0.98963783 0.78546937 0.00000000
0.99115650 0.61431644 0.00000000
0.99115650 0.50167341 0.00000000
0.99115650 0.42876977 0.00000000
0.99115650 0.38568242 0.00000000
0.99115650 0.35959979 0.00000000
0.99115650 0.34580210 0.00000000
0.99115650 0.34580210 0.00000000
0.99115650 0.34580210 0.00000000
0.99115650 0.34580210 0.00000000
0.99115650 0.34580210 0.00000000
0.99115650 0.34580210 0.00000000
0.00000000 0.99620652 0.00000000
0.00000000 0.99620652 0.00000000
0.00000000 0.99620652 0.00000000
0.00000000 0.99620652 0.00000000
0.00000000 0.99620652 0.00000000
0.00000000 0.99620652 0.00000000
0.00000000 0.99620652 0.00000000
0.00000000 0.99620652 0.00000000
0.00000000 0.99620652 0.00000000
0.00000000 0.99620652 0.00000000
0.00000000 0.99620652 0.00000000
0.00000000 0.99620652 0.00000000
0.00000000 0.99620652 0.00000000
0.00000000 0.99620652 0.00000000
0.00000000 0.99620652 0.00000000
0.00000000 0.99620652 0.00000000
0.00000000 0.99620652 0.00000000
0.00000000 0.99620652 0.00000000
0.14669004 0.99613327 0.00000000
0.43744663 0.99558100 0.00000000
0.65652495 0.99468795 0.00000000
0.96562775 0.99256517 0.00000000
0.98960201 0.78659968 0.00000000
0.99115650 0.61668373 0.00000000
0.99115650 0.50352236 0.00000000
0.99115650 0.42884641 0.00000000
0.99115650 0.38243997 0.00000000
0.99115650 0.35835265 0.00000000
