luts/Ricoh_positive.cube
TITLE "Panasonic S9 V-Log to Ricoh Positive Film (ポジフィルム調)"
#LUMIXPHOTOSTYLE VLOG
# Film Emulation LUT
# Generated by lutex.py
# Grid: 33^3
LUT_3D_SIZE 9
DOMAIN_MIN 0.0 0.0 0.0
DOMAIN_MAX 1.0 1.0 1.0
0.00000000 0.00000000 0.00000000
0.00000000 0.00000000 0.00000000
0.23550270 0.05629701 0.00000000
0.46509970 0.14425991 0.00000000
0.82811253 0.28333691 0.00000000
0.99115650 0.34580210 0.00000000
0.99115650 0.34580210 0.00000000
0.99115650 0.34580210 0.00000000
0.99115650 0.34580210 0.00000000
0.00000000 0.00000000 0.00000000
0.00000000 0.00000000 0.00000000
0.23550270 0.05629701 0.00000000
0.46509970 0.14425991 0.00000000
0.82811253 0.28333691 0.00000000
0.99115650 0.34580210 0.00000000
0.99115650 0.34580210 0.00000000
0.99115650 0.34580210 0.00000000
0.99115650 0.34580210 0.00000000
0.00000000 0.20313333 0.00000000
0.00000000 0.20313333 0.00000000
0.18531796 0.18946093 0.00000000
0.44290713 0.20130962 0.00000000
0.82194656 0.28097461 0.00000000
0.99115650 0.34580210 0.00000000
0.99115650 0.34580210 0.00000000
0.99115650 0.34580210 0.00000000
0.99115650 0.34580210 0.00000000
0.00000000 0.40069434 0.00000000
0.00000000 0.40069434 0.00000000
0.00000000 0.39424104 0.00000000
0.36628026 0.37395619 0.00000000
0.79290911 0.39669822 0.00000000
0.99115650 0.34580210 0.00000000
0.99115650 0.34580210 0.00000000
0.99115650 0.34580210 0.00000000
0.99115650 0.34580210 0.00000000
0.00000000 0.72670978 0.00000000
0.00000000 0.72670978 0.00000000
0.00000000 0.72354450 0.00000000
0.00000000 0.71387345 0.00000000
0.66767497 0.68084246 0.00000000
0.99115650 0.47420010 0.00000000
0.99115650 0.34580210 0.00000000
0.99115650 0.34580210 0.00000000
0.99115650 0.34580210 0.00000000
0.00000000 0.99620652 0.00000000
0.00000000 0.99620652 0.00000000
0.00000000 0.99620652 0.00000000
0.00000000 0.99620652 0.00000000
0.00000000 0.99620652 0.00000000
0.96577052 0.99256393 0.00000000
0.99115650 0.42876977 0.00000000
0.99115650 0.34580210 0.00000000
0.99115650 0.34580210 0.00000000
0.00000000 0.99620652 0.00000000
0.00000000 0.99620652 0.00000000
0.00000000 0.99620652 0.00000000
0.00000000 0.99620652 0.00000000
0.00000000 0.99620652 0.00000000
0.00000000 0.99620652 0.00000000
0.96623545 0.99255989 0.00000000
0.99115650 0.43702767 0.00000000
0.99115650 0.34580210 0.00000000
0.00000000 0.99620652 0.00000000
0.00000000 0.99620652 0.00000000
0.00000000 0.99620652 0.00000000
0.00000000 0.99620652 0.00000000
0.00000000 0.99620652 0.00000000
0.00000000 0.99620652 0.00000000
0.00000000 0.99620652 0.00000000
0.96683117 0.99255470 0.00000000
0.99115650 0.44436738 0.00000000
0.00000000 0.99620652 0.00000000
0.00000000 0.99620652 0.00000000
0.00000000 0.99620652 0.00000000
0.00000000 0.99620652 0.00000000
0.00000000 0.99620652 0.00000000
0.00000000 0.99620652 0.00000000
0.00000000 0.99620652 0.00000000
0.00000000 0.99620652 0.00000000
0.96705409 0.99255276 0.00000000
0.00000000 0.00000000 0.00000000
0.00000000 0.00000000 0.00000000
0.23550270 0.05629701 0.00000000
0.46509970 0.14425991 0.00000000
0.82811253 0.28333691 0.00000000
0.99115650 0.34580210 0.00000000
0.99115650 0.34580210 0.00000000
0.99115650 0.34580210 0.00000000
0.99115650 0.34580210 0.00000000
0.00000000 0.00000000 0.00000000
0.00000000 0.00000000 0.00000000
0.23550270 0.05629701 0.00000000
0.46509970 0.14425991 0.00000000
0.82811253 0.28333691 0.00000000
0.99115650 0.34580210 0.00000000
0.99115650 0.34580210 0.00000000
0.99115650 0.34580210 0.00000000
0.99115650 0.34580210 0.00000000
0.00000000 0.20313333 0.00000000
0.00000000 0.20313333 0.00000000
0.18531796 0.18946093 0.00000000
0.44290713 0.20130962 0.00000000
0.82194656 0.28097461 0.00000000
0.99115650 0.34580210 0.00000000
0.99115650 0.34580210 0.00000000
0.99115650 0.34580210 0.00000000
0.99115650 0.34580210 0.00000000
0.00000000 0.40069434 0.00000000
0.00000000 0.40069434 0.00000000
0.00000000 0.39424104 0.00000000
0.36628026 0.37395619 0.00000000
0.79290911 0.39669822 0.00000000
0.99115650 0.34580210 0.00000000
0.99115650 0.34580210 0.00000000
0.99115650 0.34580210 0.00000000
0.99115650 0.34580210 0.00000000
0.00000000 0.72670978 0.00000000
0.00000000 0.72670978 0.00000000
0.00000000 0.72354450 0.00000000
0.00000000 0.71387345 0.00000000
0.66767497 0.68084246 0.00000000
0.99115650 0.47420010 0.00000000
0.99115650 0.34580210 0.00000000
0.99115650 0.34580210 0.00000000
0.99115650 0.34580210 0.00000000
0.00000000 0.99620652 0.00000000
0.00000000 0.99620652 0.00000000
0.00000000 0.99620652 0.00000000
0.00000000 0.99620652 0.00000000
0.00000000 0.99620652 0.00000000
0.96577052 0.99256393 0.00000000
0.99115650 0.42876977 0.00000000
0.99115650 0.34580210 0.00000000
0.99115650 0.34580210 0.00000000
0.00000000 0.99620652 0.00000000
0.00000000 0.99620652 0.00000000
0.00000000 0.99620652 0.00000000
0.00000000 0.99620652 0.00000000
0.00000000 0.99620652 0.00000000
0.00000000 0.99620652 0.00000000
0.96623545 0.99255989 0.00000000
0.99115650 0.43702767 0.00000000
0.99115650 0.34580210 0.00000000
0.00000000 0.99620652 0.00000000
0.00000000 0.99620652 0.00000000
0.00000000 0.99620652 0.00000000
0.00000000 0.99620652 0.00000000
0.00000000 0.99620652 0.00000000
0.00000000 0.99620652 0.00000000
0.00000000 0.99620652 0.00000000
0.96683117 0.99255470 0.00000000
0.99115650 0.44436738 0.00000000
0.00000000 0.99620652 0.00000000
0.00000000 0.99620652 0.00000000
0.00000000 0.99620652 0.00000000
0.00000000 0.99620652 0.00000000
0.00000000 0.99620652 0.00000000
0.00000000 0.99620652 0.00000000
0.00000000 0.99620652 0.00000000
0.00000000 0.99620652 0.00000000
0.96705409 0.99255276 0.00000000
0.00000000 0.00680756 0.19515124
0.00000000 0.00680756 0.19515124
0.22841452 0.00000000 0.19305298
0.46164596 0.00000000 0.10636592
0.82703088 0.22765021 0.00000000
0.99115650 0.34577438 0.00000000
0.99115650 0.34580210 0.00000000
0.99115650 0.34580210 0.00000000
0.99115650 0.34580210 0.00000000
0.00000000 0.00680756 0.19515124
0.00000000 0.00680756 0.19515124
0.22841452 0.00000000 0.19305298
0.46164596 0.00000000 0.10636592
0.82703088 0.22765021 0.00000000
0.99115650 0.34577438 0.00000000
0.99115650 0.34580210 0.00000000
0.99115650 0.34580210 0.00000000
0.99115650 0.34580210 0.00000000
0.00000000 0.19230769 0.18182731
0.00000000 0.19230769 0.18182731
0.17530868 0.17768820 0.17988377
0.45584613 0.05005463 0.00184715
0.82113931 0.23568914 0.00000000
0.99115650 0.34580210 0.00000000
0.99115650 0.34580210 0.00000000
0.99115650 0.34580210 0.00000000
0.99115650 0.34580210 0.00000000
0.00000000 0.39554929 0.13185304
0.00000000 0.39554929 0.13185304
0.00000000 0.38899782 0.12851672
0.37457046 0.38209778 0.05204838
0.79477737 0.38539117 0.00000000
0.99115650 0.34580210 0.00000000
0.99115650 0.34580210 0.00000000
0.99115650 0.34580210 0.00000000
0.99115650 0.34580210 0.00000000
0.00000000 0.72418276 0.00000000
0.00000000 0.72418276 0.00000000
0.00000000 0.72100399 0.00000000
0.00000000 0.71129091 0.00000000
0.66543383 0.67810665 0.00000000
0.99115650 0.47296443 0.00000000
0.99115650 0.34580210 0.00000000
0.99115650 0.34580210 0.00000000
0.99115650 0.34580210 0.00000000
0.00000000 0.99620652 0.00000000
0.00000000 0.99620652 0.00000000
0.00000000 0.99620652 0.00000000
0.00000000 0.99620652 0.00000000
0.00000000 0.99620652 0.00000000
0.96604144 0.99256157 0.00000000
0.99115650 0.42844167 0.00000000
0.99115650 0.34580210 0.00000000
0.99115650 0.34580210 0.00000000
0.00000000 0.99620652 0.00000000
0.00000000 0.99620652 0.00000000
0.00000000 0.99620652 0.00000000
0.00000000 0.99620652 0.00000000
0.00000000 0.99620652 0.00000000
0.00000000 0.99620652 0.00000000
0.96631305 0.99255921 0.00000000
0.99115650 0.43690310 0.00000000
0.99115650 0.34580210 0.00000000
0.00000000 0.99620652 0.00000000
0.00000000 0.99620652 0.00000000
0.00000000 0.99620652 0.00000000
0.00000000 0.99620652 0.00000000
0.00000000 0.99620652 0.00000000
0.00000000 0.99620652 0.00000000
0.00000000 0.99620652 0.00000000
0.96685375 0.99255450 0.00000000
0.99115650 0.44432941 0.00000000
0.00000000 0.99620652 0.00000000
0.00000000 0.99620652 0.00000000
0.00000000 0.99620652 0.00000000
0.00000000 0.99620652 0.00000000
0.00000000 0.99620652 0.00000000
0.00000000 0.99620652 0.00000000
0.00000000 0.99620652 0.00000000
0.00000000 0.99620652 0.00000000
0.96706084 0.99255270 0.00000000
0.00000000 0.02635053 0.38466140
0.00000000 0.02635053 0.38466140
0.19864843 0.00000000 0.38364788
0.45101865 0.00000000 0.38056569
0.82397127 0.00000000 0.37020898
0.99115650 0.29674411 0.00000000
0.99115650 0.34381520 0.00000000
0.99115650 0.34580210 0.00000000
0.99115650 0.34580210 0.00000000
0.00000000 0.02635053 0.38466140
0.00000000 0.02635053 0.38466140
0.19864843 0.00000000 0.38364788
0.45101865 0.00000000 0.38056569
0.82397127 0.00000000 0.37020898
0.99115650 0.29674411 0.00000000
0.99115650 0.34381520 0.00000000
0.99115650 0.34580210 0.00000000
0.99115650 0.34580210 0.00000000
0.00000000 0.16207671 0.37840140
0.00000000 0.16207671 0.37840140
0.07897672 0.08007026 0.39104570
0.43105154 0.00000000 0.37604385
0.81929411 0.00000000 0.36366433
0.99115650 0.29851434 0.00000000
0.99115650 0.34415164 0.00000000
0.99115650 0.34580210 0.00000000
0.99115650 0.34580210 0.00000000
0.00000000 0.37951001 0.35871974
0.00000000 0.37951001 0.35871974
0.00000000 0.37263470 0.35762207
0.34689841 0.35105078 0.35488214
0.81326071 0.18498110 0.11035449
0.99115650 0.30405264 0.00000000
0.99115650 0.34521928 0.00000000
0.99115650 0.34580210 0.00000000
0.99115650 0.34580210 0.00000000
0.00000000 0.71647883 0.28476342
0.00000000 0.71647883 0.28476342
0.00000000 0.71325828 0.28346828
0.00000000 0.70341503 0.27950577
0.67996879 0.69258163 0.17595454
0.99692901 0.45765815 0.00000000
0.99115650 0.34580210 0.00000000
0.99115650 0.34580210 0.00000000
0.99115650 0.34580210 0.00000000
0.00000000 0.99620652 0.00000000
0.00000000 0.99620652 0.00000000
0.00000000 0.99620652 0.00000000
0.00000000 0.99620652 0.00000000
0.00000000 0.99620652 0.00000000
0.96686796 0.99255438 0.00000000
0.99115650 0.42745479 0.00000000
0.99115650 0.34580210 0.00000000
0.99115650 0.34580210 0.00000000
0.00000000 0.99620652 0.00000000
0.00000000 0.99620652 0.00000000
0.00000000 0.99620652 0.00000000
0.00000000 0.99620652 0.00000000
0.00000000 0.99620652 0.00000000
0.00000000 0.99620652 0.00000000
0.96654835 0.99255716 0.00000000
0.99115650 0.43652647 0.00000000
0.99115650 0.34580210 0.00000000
0.00000000 0.99620652 0.00000000
0.00000000 0.99620652 0.00000000
0.00000000 0.99620652 0.00000000
0.00000000 0.99620652 0.00000000
0.00000000 0.99620652 0.00000000
0.00000000 0.99620652 0.00000000
0.00000000 0.99620652 0.00000000
0.96692207 0.99255391 0.00000000
0.99115650 0.44421462 0.00000000
0.00000000 0.99620652 0.00000000
0.00000000 0.99620652 0.00000000
0.00000000 0.99620652 0.00000000
0.00000000 0.99620652 0.00000000
0.00000000 0.99620652 0.00000000
0.00000000 0.99620652 0.00000000
0.00000000 0.99620652 0.00000000
0.00000000 0.99620652 0.00000000
0.96708125 0.99255252 0.00000000
0.00000000 0.08196005 0.69920646
0.00000000 0.08196005 0.69920646
0.00000000 0.00180785 0.69870656
0.40347876 0.00000000 0.69719296
0.81303738 0.00000000 0.69218057
0.99115650 0.00000000 0.16934086
0.99115650 0.31519227 0.00000000
0.99115650 0.34429724 0.00000000
0.99115650 0.34580210 0.00000000
0.00000000 0.08196005 0.69920646
0.00000000 0.08196005 0.69920646
0.00000000 0.00180785 0.69870656
0.40347876 0.00000000 0.69719296
0.81303738 0.00000000 0.69218057
0.99115650 0.00000000 0.16934086
0.99115650 0.31519227 0.00000000
0.99115650 0.34429724 0.00000000
0.99115650 0.34580210 0.00000000
0.00000000 0.08140248 0.69613610
0.00000000 0.08140248 0.69613610
0.00000000 0.08131122 0.69563352
0.37709460 0.00000000 0.69411180
0.80190139 0.00000000 0.68907222
0.99115650 0.00000000 0.17036114
0.99115650 0.31549148 0.00000000
0.99115650 0.34436242 0.00000000
0.99115650 0.34580210 0.00000000
0.00000000 0.33325388 0.68675452
0.00000000 0.33325388 0.68675452
0.00000000 0.32526780 0.68624361
0.20345597 0.20949793 0.70760599
0.78301719 0.00000000 0.68903263
0.99115650 0.00000000 0.17343043
0.99115650 0.31640623 0.00000000
0.99115650 0.34455944 0.00000000
0.99115650 0.34580210 0.00000000
0.00000000 0.69036963 0.65470546
0.00000000 0.69036963 0.65470546
0.00000000 0.68700000 0.65416415
0.00000000 0.67669145 0.65252472
0.63442685 0.64154993 0.64812235
1.00000000 0.35114169 0.26621494
0.99115650 0.31953185 0.00000000
0.99115650 0.34516182 0.00000000
0.99115650 0.34580210 0.00000000
0.00000000 0.99605512 0.38588257
0.00000000 0.99605512 0.38588257
0.00000000 0.99605489 0.38616282
0.00000000 0.99605418 0.38701579
0.00000000 0.99605180 0.38988852
0.97636220 1.00000000 0.37775744
0.99486952 0.41515749 0.00000000
0.99115650 0.34580210 0.00000000
0.99115650 0.34580210 0.00000000
0.00000000 0.99620652 0.00000000
0.00000000 0.99620652 0.00000000
0.00000000 0.99620652 0.00000000
0.00000000 0.99620652 0.00000000
0.00000000 0.99620652 0.00000000
0.00000000 0.99620652 0.00000000
0.96733113 0.99255034 0.00000000
0.99115650 0.43528493 0.00000000
0.99115650 0.34580210 0.00000000
0.00000000 0.99620652 0.00000000
0.00000000 0.99620652 0.00000000
0.00000000 0.99620652 0.00000000
0.00000000 0.99620652 0.00000000
0.00000000 0.99620652 0.00000000
0.00000000 0.99620652 0.00000000
0.00000000 0.99620652 0.00000000
0.96714772 0.99255194 0.00000000
0.99115650 0.44383647 0.00000000
0.00000000 0.99620652 0.00000000
0.00000000 0.99620652 0.00000000
0.00000000 0.99620652 0.00000000
0.00000000 0.99620652 0.00000000
0.00000000 0.99620652 0.00000000
0.00000000 0.99620652 0.00000000
0.00000000 0.99620652 0.00000000
0.00000000 0.99620652 0.00000000
0.96714851 0.99255194 0.00000000
0.15170372 0.21008164 1.00000000
0.15170372 0.21008164 1.00000000
0.15170372 0.21008164 1.00000000
0.19308628 0.15170372 1.00000000
0.56917535 0.15170372 1.00000000
0.99115650 0.00000000 0.77966980
0.99115650 0.11449220 0.00000000
0.99115650 0.32456350 0.00000000
0.99115650 0.34470774 0.00000000
0.15170372 0.21008164 1.00000000
0.15170372 0.21008164 1.00000000
0.15170372 0.21008164 1.00000000
0.19308628 0.15170372 1.00000000
0.56917535 0.15170372 1.00000000
0.99115650 0.00000000 0.77966980
0.99115650 0.11449220 0.00000000
0.99115650 0.32456350 0.00000000
0.99115650 0.34470774 0.00000000
0.15170372 0.21008164 1.00000000
0.15170372 0.21008164 1.00000000
0.15170372 0.21008164 1.00000000
0.16180760 0.15170372 1.00000000
0.56090248 0.15170372 1.00000000
0.99115650 0.00000000 0.78281221
0.99115650 0.11493413 0.00000000
0.99115650 0.32465654 0.00000000
0.99115650 0.34472116 0.00000000
0.15170372 0.21008164 1.00000000
0.15170372 0.21008164 1.00000000
0.15170372 0.21008164 1.00000000
0.15170372 0.21008164 1.00000000
0.53451257 0.15170372 1.00000000
0.99115650 0.00000000 0.79262358
0.99115650 0.11626500 0.00000000
0.99115650 0.32493685 0.00000000
0.99115650 0.34476173 0.00000000
0.15170372 0.49660866 1.00000000
0.15170372 0.49660866 1.00000000
0.15170372 0.49390613 1.00000000
0.15170372 0.48560817 1.00000000
0.44368819 0.44927964 1.00000000
1.00000000 0.14388166 0.83210604
0.99115650 0.12059484 0.00000000
0.99115650 0.32584947 0.00000000
0.99115650 0.34489535 0.00000000
0.00000000 0.99515879 0.93351130
0.00000000 0.99515879 0.93351130
0.00000000 0.99515468 0.93513085
0.00000000 0.99514208 0.94007571
0.00000000 0.99509855 0.95690333
1.00000000 1.00000000 1.00000000
1.00000000 0.32237691 0.17321573
0.99115650 0.32871368 0.00000000
0.99115650 0.34533443 0.00000000
0.00000000 0.99611926 0.29540457
0.00000000 0.99611926 0.29540457
0.00000000 0.99611923 0.29544770
0.00000000 0.99611916 0.29557924
0.00000000 0.99611889 0.29602509
0.00000000 0.99611792 0.29764201
0.97680047 1.00000000 0.27145938
0.99368185 0.42526750 0.00000000
0.99115650 0.34580210 0.00000000
0.00000000 0.99620652 0.00000000
0.00000000 0.99620652 0.00000000
0.00000000 0.99620652 0.00000000
0.00000000 0.99620652 0.00000000
0.00000000 0.99620652 0.00000000
0.00000000 0.99620652 0.00000000
0.00000000 0.99620652 0.00000000
0.96789816 0.99254540 0.00000000
0.99115650 0.44258939 0.00000000
0.00000000 0.99620652 0.00000000
0.00000000 0.99620652 0.00000000
0.00000000 0.99620652 0.00000000
0.00000000 0.99620652 0.00000000
0.00000000 0.99620652 0.00000000
0.00000000 0.99620652 0.00000000
0.00000000 0.99620652 0.00000000
0.00000000 0.99620652 0.00000000
0.96737066 0.99255000 0.00000000
0.15170372 0.21008164 1.00000000
0.15170372 0.21008164 1.00000000
0.15170372 0.21008164 1.00000000
0.15170372 0.21008164 1.00000000
0.15947840 0.15170372 1.00000000
0.50585348 0.15170372 1.00000000
0.99115650 0.00000000 0.79024328
0.99115650 0.01319154 0.00000000
0.99115650 0.32059948 0.00000000
0.15170372 0.21008164 1.00000000
0.15170372 0.21008164 1.00000000
0.15170372 0.21008164 1.00000000
0.15170372 0.21008164 1.00000000
0.15947840 0.15170372 1.00000000
0.50585348 0.15170372 1.00000000
0.99115650 0.00000000 0.79024328
0.99115650 0.01319154 0.00000000
0.99115650 0.32059948 0.00000000
0.15170372 0.21008164 1.00000000
0.15170372 0.21008164 1.00000000
0.15170372 0.21008164 1.00000000
0.15170372 0.21008164 1.00000000
0.15278343 0.15170372 1.00000000
0.50252616 0.15170372 1.00000000
0.99115650 0.00000000 0.79113307
0.99115650 0.01352420 0.00000000
0.99115650 0.32063394 0.00000000
0.15170372 0.21008164 1.00000000
0.15170372 0.21008164 1.00000000
0.15170372 0.21008164 1.00000000
0.15170372 0.21008164 1.00000000
0.15170372 0.17022242 1.00000000
0.49236729 0.15170372 1.00000000
0.99115650 0.00000000 0.79384838
0.99115650 0.01453253 0.00000000
0.99115650 0.32073810 0.00000000
0.15170372 0.21008164 1.00000000
0.15170372 0.21008164 1.00000000
0.15170372 0.21008164 1.00000000
0.15170372 0.21008164 1.00000000
0.15170372 0.21008164 1.00000000
0.45780724 0.15170372 1.00000000
0.99115650 0.00000000 0.80307401
0.99115650 0.01788335 0.00000000
0.99115650 0.32108098 0.00000000
0.15170372 0.41432640 1.00000000
0.15170372 0.41432640 1.00000000
0.15170372 0.41348073 1.00000000
0.15170372 0.41092794 1.00000000
0.15170372 0.40256602 1.00000000
0.35516603 0.36820224 1.00000000
1.00000000 0.05003894 0.84078616
0.99115650 0.02925920 0.00000000
0.99115650 0.32220868 0.00000000
0.00000000 0.99515283 0.93586253
0.00000000 0.99515283 0.93586253
0.00000000 0.99515163 0.93633125
0.00000000 0.99514801 0.93775263
0.00000000 0.99513592 0.94248328
0.00000000 0.99509403 0.95862790
1.00000000 1.00000000 1.00000000
1.00000000 0.30908871 0.18106432
0.99115650 0.32590037 0.00000000
0.00000000 0.99611291 0.30582102
0.00000000 0.99611291 0.30582102
0.00000000 0.99611291 0.30582128
0.00000000 0.99611291 0.30582206
0.00000000 0.99611290 0.30582469
0.00000000 0.99611290 0.30583392
0.00000000 0.99611287 0.30587085
0.97727012 1.00000000 0.27259815
0.99331456 0.43360349 0.00000000
0.00000000 0.99620652 0.00000000
0.00000000 0.99620652 0.00000000
0.00000000 0.99620652 0.00000000
0.00000000 0.99620652 0.00000000
0.00000000 0.99620652 0.00000000
0.00000000 0.99620652 0.00000000
0.00000000 0.99620652 0.00000000
0.00000000 0.99620652 0.00000000
0.96810934 0.99254356 0.00000000
0.15170372 0.21008164 1.00000000
0.15170372 0.21008164 1.00000000
0.15170372 0.21008164 1.00000000
0.15170372 0.21008164 1.00000000
0.15170372 0.21008164 1.00000000
0.15170372 0.17047272 1.00000000
0.52582067 0.15170372 1.00000000
0.99115650 0.00000000 0.79762969
0.99115650 0.00000000 0.06200894
0.15170372 0.21008164 1.00000000
0.15170372 0.21008164 1.00000000
0.15170372 0.21008164 1.00000000
0.15170372 0.21008164 1.00000000
0.15170372 0.21008164 1.00000000
0.15170372 0.17047272 1.00000000
0.52582067 0.15170372 1.00000000
0.99115650 0.00000000 0.79762969
0.99115650 0.00000000 0.06200894
0.15170372 0.21008164 1.00000000
0.15170372 0.21008164 1.00000000
0.15170372 0.21008164 1.00000000
0.15170372 0.21008164 1.00000000
0.15170372 0.21008164 1.00000000
0.15170372 0.17152243 1.00000000
0.52483913 0.15170372 1.00000000
0.99115650 0.00000000 0.79789393
0.99115650 0.00000000 0.06194402
0.15170372 0.21008164 1.00000000
0.15170372 0.21008164 1.00000000
0.15170372 0.21008164 1.00000000
0.15170372 0.21008164 1.00000000
0.15170372 0.21008164 1.00000000
0.15170372 0.17417384 1.00000000
0.52186171 0.15170372 1.00000000
0.99115650 0.00000000 0.79869488
0.99115650 0.00000000 0.06174731
0.15170372 0.21008164 1.00000000
0.15170372 0.21008164 1.00000000
0.15170372 0.21008164 1.00000000
0.15170372 0.21008164 1.00000000
0.15170372 0.21008164 1.00000000
0.15170372 0.18447758 1.00000000
0.51194201 0.15170372 1.00000000
0.99115650 0.00000000 0.80135637
0.99115650 0.00000000 0.06109438
0.15170372 0.21008164 1.00000000
0.15170372 0.21008164 1.00000000
0.15170372 0.21008164 1.00000000
0.15170372 0.21008164 1.00000000
0.15170372 0.21008164 1.00000000
0.15170372 0.21008164 1.00000000
0.47793813 0.15170372 1.00000000
0.99115650 0.00000000 0.81039087
0.99115650 0.00000000 0.05888572
0.15170372 0.42983279 1.00000000
0.15170372 0.42983279 1.00000000
0.15170372 0.42955021 1.00000000
0.15170372 0.42869545 1.00000000
0.15170372 0.42587379 1.00000000
0.15170372 0.41650558 1.00000000
0.36502162 0.37429517 1.00000000
0.99879540 0.00000000 0.84700704
0.99115650 0.00000000 0.05088352
0.00000000 0.99514374 0.93942588
0.00000000 0.99514374 0.93942588
0.00000000 0.99514340 0.93956247
0.00000000 0.99514234 0.93997572
0.00000000 0.99513885 0.94134072
0.00000000 0.99512718 0.94588205
0.00000000 0.99508685 0.96136161
1.00000000 1.00000000 1.00000000
1.00000000 0.31553832 0.19909318
0.00000000 0.99610376 0.32011874
0.00000000 0.99610376 0.32011874
0.00000000 0.99610376 0.32011957
0.00000000 0.99610376 0.32012208
0.00000000 0.99610375 0.32013034
0.00000000 0.99610373 0.32015764
0.00000000 0.99610367 0.32024860
0.00000000 0.99610347 0.32056035
0.97743254 1.00000000 0.29063299
0.15170372 0.21008164 1.00000000
0.15170372 0.21008164 1.00000000
0.15170372 0.21008164 1.00000000
0.15170372 0.21008164 1.00000000
0.15170372 0.21008164 1.00000000
0.15170372 0.21008164 1.00000000
0.15170372 0.16679284 1.00000000
0.53482544 0.15170372 1.00000000
0.99115650 0.00000000 0.80031795
0.15170372 0.21008164 1.00000000
0.15170372 0.21008164 1.00000000
0.15170372 0.21008164 1.00000000
0.15170372 0.21008164 1.00000000
0.15170372 0.21008164 1.00000000
0.15170372 0.21008164 1.00000000
0.15170372 0.16679284 1.00000000
0.53482544 0.15170372 1.00000000
0.99115650 0.00000000 0.80031795
0.15170372 0.21008164 1.00000000
0.15170372 0.21008164 1.00000000
0.15170372 0.21008164 1.00000000
0.15170372 0.21008164 1.00000000
0.15170372 0.21008164 1.00000000
0.15170372 0.21008164 1.00000000
0.15170372 0.16733954 1.00000000
0.53453500 0.15170372 1.00000000
0.99115650 0.00000000 0.80039761
0.15170372 0.21008164 1.00000000
0.15170372 0.21008164 1.00000000
0.15170372 0.21008164 1.00000000
0.15170372 0.21008164 1.00000000
0.15170372 0.21008164 1.00000000
0.15170372 0.21008164 1.00000000
0.15170372 0.16896995 1.00000000
0.53365620 0.15170372 1.00000000
0.99115650 0.00000000 0.80063859
0.15170372 0.21008164 1.00000000
0.15170372 0.21008164 1.00000000
0.15170372 0.21008164 1.00000000
0.15170372 0.21008164 1.00000000
0.15170372 0.21008164 1.00000000
0.15170372 0.21008164 1.00000000
0.15170372 0.17411104 1.00000000
0.53075240 0.15170372 1.00000000
0.99115650 0.00000000 0.80143425
0.15170372 0.21008164 1.00000000
0.15170372 0.21008164 1.00000000
0.15170372 0.21008164 1.00000000
0.15170372 0.21008164 1.00000000
0.15170372 0.21008164 1.00000000
0.15170372 0.21008164 1.00000000
0.15170372 0.18871008 1.00000000
0.52107926 0.15170372 1.00000000
0.99115650 0.00000000 0.80407791
0.15170372 0.21008164 1.00000000
0.15170372 0.21008164 1.00000000
0.15170372 0.21008164 1.00000000
0.15170372 0.21008164 1.00000000
0.15170372 0.21008164 1.00000000
0.15170372 0.21008164 1.00000000
0.15170372 0.21008164 1.00000000
0.48793464 0.15170372 1.00000000
0.99115650 0.00000000 0.81304859
0.15170372 0.44093704 1.00000000
0.15170372 0.44093704 1.00000000
0.15170372 0.44085271 1.00000000
0.15170372 0.44059776 1.00000000
0.15170372 0.43975756 1.00000000
0.15170372 0.43698342 1.00000000
0.15170372 0.42776649 1.00000000
0.37794457 0.38647386 1.00000000
1.00000000 0.00327942 0.85001544
0.00000000 0.99514031 0.94076926
0.00000000 0.99514031 0.94076926
0.00000000 0.99514020 0.94081010
0.00000000 0.99513989 0.94093358
0.00000000 0.99513885 0.94134056
0.00000000 0.99513540 0.94268479
0.00000000 0.99512389 0.94715630
0.00000000 0.99508414 0.96238953
1.00000000 1.00000000 1.00000000
