luts/Ricoh_positive.cube
TITLE "Panasonic S9 V-Log to Ricoh Positive Film (ポジフィルム調)"
#LUMIXPHOTOSTYLE VLOG
# Film Emulation LUT
# Generated by lutex.py
# Grid: 33^3
LUT_3D_SIZE 5
DOMAIN_MIN 0.0 0.0 0.0
DOMAIN_MAX 1.0 1.0 1.0
0.00000000 0.00000000 0.00000000
0.23550270 0.05629701 0.00000000
0.82811253 0.28333691 0.00000000
0.99115650 0.34580210 0.00000000
0.99115650 0.34580210 0.00000000
0.00000000 0.20313333 0.00000000
0.18531796 0.18946093 0.00000000
0.82194656 0.28097461 0.00000000
0.99115650 0.34580210 0.00000000
0.99115650 0.34580210 0.00000000
0.00000000 0.72670978 0.00000000
0.00000000 0.72354450 0.00000000
0.66767497 0.68084246 0.00000000
0.99115650 0.34580210 0.00000000
0.99115650 0.34580210 0.00000000
0.00000000 0.99620652 0.00000000
0.00000000 0.99620652 0.00000000
0.00000000 0.99620652 0.00000000
0.96623545 0.99255989 0.00000000
0.99115650 0.34580210 0.00000000
0.00000000 0.99620652 0.00000000
0.00000000 0.99620652 0.00000000
0.00000000 0.99620652 0.00000000
0.00000000 0.99620652 0.00000000
0.96705409 0.99255276 0.00000000
0.00000000 0.00680756 0.19515124
0.22841452 0.00000000 0.19305298
0.82703088 0.22765021 0.00000000
0.99115650 0.34580210 0.00000000
0.99115650 0.34580210 0.00000000
0.00000000 0.19230769 0.18182731
0.17530868 0.17768820 0.17988377
0.82113931 0.23568914 0.00000000
0.99115650 0.34580210 0.00000000
0.99115650 0.34580210 0.00000000
0.00000000 0.72418276 0.00000000
0.00000000 0.72100399 0.00000000
0.66543383 0.67810665 0.00000000
0.99115650 0.34580210 0.00000000
0.99115650 0.34580210 0.00000000
0.00000000 0.99620652 0.00000000
0.00000000 0.99620652 0.00000000
0.00000000 0.99620652 0.00000000
0.96631305 0.99255921 0.00000000
0.99115650 0.34580210 0.00000000
0.00000000 0.99620652 0.00000000
0.00000000 0.99620652 0.00000000
0.00000000 0.99620652 0.00000000
0.00000000 0.99620652 0.00000000
0.96706084 0.99255270 0.00000000
0.00000000 0.08196005 0.69920646
0.00000000 0.00180785 0.69870656
0.81303738 0.00000000 0.69218057
0.99115650 0.31519227 0.00000000
0.99115650 0.34580210 0.00000000
0.00000000 0.08140248 0.69613610
0.00000000 0.08131122 0.69563352
0.80190139 0.00000000 0.68907222
0.99115650 0.31549148 0.00000000
0.99115650 0.34580210 0.00000000
0.00000000 0.69036963 0.65470546
0.00000000 0.68700000 0.65416415
0.63442685 0.64154993 0.64812235
0.99115650 0.31953185 0.00000000
0.99115650 0.34580210 0.00000000
0.00000000 0.99620652 0.00000000
0.00000000 0.99620652 0.00000000
0.00000000 0.99620652 0.00000000
0.96733113 0.99255034 0.00000000
0.99115650 0.34580210 0.00000000
0.00000000 0.99620652 0.00000000
0.00000000 0.99620652 0.00000000
0.00000000 0.99620652 0.00000000
0.00000000 0.99620652 0.00000000
0.96714851 0.99255194 0.00000000
0.15170372 0.21008164 1.00000000
0.15170372 0.21008164 1.00000000
0.15947840 0.15170372 1.00000000
0.99115650 0.00000000 0.79024328
0.99115650 0.32059948 0.00000000
0.15170372 0.21008164 1.00000000
0.15170372 0.21008164 1.00000000
0.15278343 0.15170372 1.00000000
0.99115650 0.00000000 0.79113307
0.99115650 0.32063394 0.00000000
0.15170372 0.21008164 1.00000000
0.15170372 0.21008164 1.00000000
0.15170372 0.21008164 1.00000000
0.99115650 0.00000000 0.80307401
0.99115650 0.32108098 0.00000000
0.00000000 0.99515283 0.93586253
0.00000000 0.99515163 0.93633125
0.00000000 0.99513592 0.94248328
1.00000000 1.00000000 1.00000000
0.99115650 0.32590037 0.00000000
0.00000000 0.99620652 0.00000000
0.00000000 0.99620652 0.00000000
0.00000000 0.99620652 0.00000000
0.00000000 0.99620652 0.00000000
0.96810934 0.99254356 0.00000000
0.15170372 0.21008164 1.00000000
0.15170372 0.21008164 1.00000000
0.15170372 0.21008164 1.00000000
0.15170372 0.16679284 1.00000000
0.99115650 0.00000000 0.80031795
0.15170372 0.21008164 1.00000000
0.15170372 0.21008164 1.00000000
0.15170372 0.21008164 1.00000000
0.15170372 0.16733954 1.00000000
0.99115650 0.00000000 0.80039761
0.15170372 0.21008164 1.00000000
0.15170372 0.21008164 1.00000000
0.15170372 0.21008164 1.00000000
0.15170372 0.17411104 1.00000000
0.99115650 0.00000000 0.80143425
0.15170372 0.21008164 1.00000000
0.15170372 0.21008164 1.00000000
0.15170372 0.21008164 1.00000000
0.15170372 0.21008164 1.00000000
0.99115650 0.00000000 0.81304859
0.00000000 0.99514031 0.94076926
0.00000000 0.99514020 0.94081010
0.00000000 0.99513885 0.94134056
0.00000000 0.99512389 0.94715630
1.00000000 1.00000000 1.00000000
