luts/S9_Standard_to_ricoh_positive_film.cube
# Film Emulation LUT
# Generated by lutex.py
# Grid: 33³
TITLE "Panasonic S9 Standard to Ricoh Positive Film (ポジフィルム調)"
LUT_3D_SIZE 33
DOMAIN_MIN 0.0 0.0 0.0
DOMAIN_MAX 1.0 1.0 1.0
0.00000000 0.00000000 0.00000000
0.00000000 0.00060072 0.03604308
0.00000000 0.00121992 0.06720648
0.00000000 0.00207208 0.09739072
0.00000000 0.00318011 0.12716874
0.00000000 0.00455640 0.15661601
0.00000000 0.00621176 0.18578475
0.00000000 0.00815588 0.21471324
0.00000000 0.01039752 0.24343066
0.00000000 0.01294472 0.27196006
0.00000000 0.01580493 0.30032001
0.00000000 0.01936521 0.33170700
0.00000000 0.02337817 0.36327364
0.00000000 0.02785214 0.39493227
0.00000000 0.03280343 0.42667687
0.00000000 0.03824784 0.45850219
0.00000000 0.04404251 0.49040361
0.00000000 0.04984872 0.52237700
0.00000000 0.05566732 0.55441866
0.00000000 0.06149772 0.58652528
0.00000000 0.06733936 0.61869384
0.00000000 0.07319176 0.65092161
0.00000000 0.07905446 0.68320609
0.00000000 0.08492704 0.71554498
0.00000000 0.09080911 0.74793617
0.00000000 0.09670033 0.78037771
0.00000000 0.10260036 0.81286779
0.00000000 0.10731942 0.83885454
0.00000000 0.11162629 0.86257140
0.00000000 0.11720744 0.89330549
0.00000000 0.12361673 0.92859994
0.00000000 0.13064739 0.96731610
0.15170372 0.21008164 1.00000000
0.00000000 0.03533636 0.00000000
0.00000000 0.03353420 0.03604308
0.00000000 0.03655628 0.06720648
0.00000000 0.03740843 0.09739072
0.00000000 0.03851647 0.12716874
0.00000000 0.03989276 0.15661601
0.00000000 0.04152122 0.18578475
0.00000000 0.04337800 0.21471324
0.00000000 0.04545978 0.24343066
0.00000000 0.04775433 0.27196006
0.00000000 0.05024818 0.30032001
0.00000000 0.05324130 0.33170700
0.00000000 0.05648174 0.36327364
0.00000000 0.05994557 0.39493227
0.00000000 0.06361603 0.42667687
0.00000000 0.06747665 0.45850219
0.00000000 0.07151157 0.49040361
0.00000000 0.07570580 0.52237700
0.00000000 0.08004534 0.55441866
0.00000000 0.08451726 0.58652528
0.00000000 0.08910971 0.61869384
0.00000000 0.09381190 0.65092161
0.00000000 0.09861403 0.68320609
0.00000000 0.10350725 0.71554498
0.00000000 0.10848357 0.74793617
0.00000000 0.11353581 0.78037771
0.00000000 0.11865750 0.81286779
0.00000000 0.12279467 0.83885454
0.00000000 0.12659952 0.86257140
0.00000000 0.13156824 0.89330549
0.00000000 0.13732290 0.92859994
0.00000000 0.14368963 0.96731610
0.15170372 0.21790747 1.00000000
0.00000000 0.06620229 0.00000000
0.00000000 0.06620229 0.03604308
0.00000000 0.06358737 0.06720648
0.00000000 0.06764841 0.09739072
0.00000000 0.06841202 0.12716874
0.00000000 0.06935138 0.15661601
0.00000000 0.07046821 0.18578475
0.00000000 0.07176234 0.21471324
0.00000000 0.07323193 0.24343066
0.00000000 0.07487373 0.27196006
0.00000000 0.07668331 0.30032001
0.00000000 0.07888827 0.33170700
0.00000000 0.08131416 0.36327364
0.00000000 0.08394937 0.39493227
0.00000000 0.08678645 0.42667687
0.00000000 0.08981703 0.45850219
0.00000000 0.09303209 0.49040361
0.00000000 0.09642221 0.52237700
0.00000000 0.09997779 0.55441866
0.00000000 0.10368922 0.58652528
0.00000000 0.10754704 0.61869384
0.00000000 0.11154204 0.65092161
0.00000000 0.11566538 0.68320609
0.00000000 0.11990858 0.71554498
0.00000000 0.12426362 0.74793617
0.00000000 0.12872295 0.78037771
0.00000000 0.13327946 0.81286779
0.00000000 0.13698455 0.83885454
0.00000000 0.14041005 0.86257140
0.00000000 0.14490770 0.89330549
0.00000000 0.15014877 0.92859994
0.00000000 0.15598405 0.96731610
0.15170372 0.22565813 1.00000000
0.00000000 0.09613850 0.00000000
0.00000000 0.09613850 0.03604308
0.00000000 0.09613850 0.06720648
0.00000000 0.09287771 0.09739072
0.00000000 0.10095954 0.12716874
0.00000000 0.09846745 0.15661601
0.00000000 0.09930143 0.18578475
0.00000000 0.10027289 0.21471324
0.00000000 0.10138256 0.24343066
0.00000000 0.10263026 0.27196006
0.00000000 0.10401500 0.30032001
0.00000000 0.10571544 0.33170700
0.00000000 0.10760237 0.36327364
0.00000000 0.10967056 0.39493227
0.00000000 0.11191781 0.42667687
0.00000000 0.11434096 0.45850219
0.00000000 0.11693600 0.49040361
0.00000000 0.11969823 0.52237700
0.00000000 0.12262241 0.55441866
0.00000000 0.12570284 0.58652528
0.00000000 0.12893353 0.61869384
0.00000000 0.13230826 0.65092161
0.00000000 0.13582072 0.68320609
0.00000000 0.13946455 0.71554498
0.00000000 0.14323344 0.74793617
0.00000000 0.14712116 0.78037771
0.00000000 0.15112164 0.81286779
0.00000000 0.15439427 0.83885454
0.00000000 0.15743480 0.86257140
0.00000000 0.16144752 0.89330549
0.00000000 0.16615120 0.92859994
0.00000000 0.17142083 0.96731610
0.15170372 0.23585853 1.00000000
0.00000000 0.12567183 0.00000000
0.00000000 0.12567183 0.03604308
0.00000000 0.12567183 0.06720648
0.00000000 0.12567183 0.09739072
0.00000000 0.12177386 0.12716874
0.00000000 0.11615538 0.15661601
0.00000000 0.12814781 0.18578475
0.00000000 0.12891317 0.21471324
0.00000000 0.12979015 0.24343066
0.00000000 0.13077966 0.27196006
0.00000000 0.13188204 0.30032001
0.00000000 0.13324164 0.33170700
0.00000000 0.13475782 0.36327364
0.00000000 0.13642843 0.39493227
0.00000000 0.13825379 0.42667687
0.00000000 0.14023348 0.45850219
0.00000000 0.14236635 0.49040361
0.00000000 0.14465063 0.52237700
0.00000000 0.14708397 0.55441866
0.00000000 0.14966353 0.58652528
0.00000000 0.15238605 0.61869384
0.00000000 0.15524790 0.65092161
0.00000000 0.15824516 0.68320609
0.00000000 0.16137367 0.71554498
0.00000000 0.16462913 0.74793617
0.00000000 0.16800708 0.78037771
0.00000000 0.17150303 0.81286779
0.00000000 0.17437731 0.83885454
0.00000000 0.17705885 0.86257140
0.00000000 0.18061349 0.89330549
0.00000000 0.18480184 0.92859994
0.00000000 0.18952032 0.96731610
0.15170372 0.24841609 1.00000000
0.00000000 0.15487713 0.00000000
0.00000000 0.15487713 0.03604308
0.00000000 0.15487713 0.06720648
0.00000000 0.15487713 0.09739072
0.00000000 0.15487713 0.12716874
0.00000000 0.15034905 0.15661601
0.00000000 0.14866890 0.18578475
0.00000000 0.15751493 0.21471324
0.00000000 0.15823194 0.24343066
0.00000000 0.15904262 0.27196006
0.00000000 0.15994782 0.30032001
0.00000000 0.16106718 0.33170700
0.00000000 0.16231920 0.36327364
0.00000000 0.16370326 0.39493227
0.00000000 0.16522082 0.42667687
0.00000000 0.16687280 0.45850219
0.00000000 0.16865955 0.49040361
0.00000000 0.17058093 0.52237700
0.00000000 0.17263630 0.55441866
0.00000000 0.17482459 0.58652528
0.00000000 0.17714436 0.61869384
0.00000000 0.17959375 0.65092161
0.00000000 0.18217063 0.68320609
0.00000000 0.18487257 0.71554498
0.00000000 0.18769689 0.74793617
0.00000000 0.19064071 0.78037771
0.00000000 0.19370100 0.81286779
0.00000000 0.19622710 0.83885454
0.00000000 0.19859167 0.86257140
0.00000000 0.20173742 0.89330549
0.00000000 0.20545986 0.92859994
0.00000000 0.20967308 0.96731610
0.15170372 0.26306607 1.00000000
0.00000000 0.18380619 0.00000000
0.00000000 0.18380619 0.03604308
0.00000000 0.18380619 0.06720648
0.00000000 0.18380619 0.09739072
0.00000000 0.18380619 0.12716874
0.00000000 0.18380619 0.15661601
0.00000000 0.17865397 0.18578475
0.00000000 0.17700840 0.21471324
0.00000000 0.18661442 0.24343066
0.00000000 0.18729545 0.27196006
0.00000000 0.18805699 0.30032001
0.00000000 0.18900028 0.33170700
0.00000000 0.19005743 0.36327364
0.00000000 0.19122854 0.39493227
0.00000000 0.19251557 0.42667687
0.00000000 0.19392005 0.45850219
0.00000000 0.19544310 0.49040361
0.00000000 0.19708542 0.52237700
0.00000000 0.19884735 0.55441866
0.00000000 0.20072887 0.58652528
0.00000000 0.20272963 0.61869384
0.00000000 0.20484894 0.65092161
0.00000000 0.20708584 0.68320609
0.00000000 0.20943910 0.71554498
0.00000000 0.21190724 0.74793617
0.00000000 0.21448856 0.78037771
0.00000000 0.21718116 0.81286779
0.00000000 0.21941059 0.83885454
0.00000000 0.22150289 0.86257140
0.00000000 0.22429436 0.89330549
0.00000000 0.22760888 0.92859994
0.00000000 0.23137464 0.96731610
0.15170372 0.27952206 1.00000000
0.00000000 0.21249696 0.00000000
0.00000000 0.21249696 0.03604308
0.00000000 0.21249696 0.06720648
0.00000000 0.21249696 0.09739072
0.00000000 0.21249696 0.12716874
0.00000000 0.21249696 0.15661601
0.00000000 0.21249696 0.18578475
0.00000000 0.20672574 0.21471324
0.00000000 0.20510798 0.24343066
0.00000000 0.22131455 0.27196006
0.00000000 0.21613408 0.30032001
0.00000000 0.21694401 0.33170700
0.00000000 0.21785290 0.36327364
0.00000000 0.21886123 0.39493227
0.00000000 0.21997111 0.42667687
0.00000000 0.22118434 0.45850219
0.00000000 0.22250237 0.49040361
0.00000000 0.22392637 0.52237700
0.00000000 0.22545719 0.55441866
0.00000000 0.22709542 0.58652528
0.00000000 0.22884135 0.61869384
0.00000000 0.23069502 0.65092161
0.00000000 0.23265621 0.68320609
0.00000000 0.23472449 0.71554498
0.00000000 0.23689919 0.74793617
0.00000000 0.23917945 0.78037771
0.00000000 0.24156420 0.81286779
0.00000000 0.24354339 0.83885454
0.00000000 0.24540461 0.86257140
0.00000000 0.24789330 0.89330549
0.00000000 0.25085631 0.92859994
0.00000000 0.25423291 0.96731610
0.15170372 0.29750585 1.00000000
0.00000000 0.24097841 0.00000000
0.00000000 0.24097841 0.03604308
0.00000000 0.24097841 0.06720648
0.00000000 0.24097841 0.09739072
0.00000000 0.24097841 0.12716874
0.00000000 0.24097841 0.15661601
0.00000000 0.24097841 0.18578475
0.00000000 0.24097841 0.21471324
0.00000000 0.23459271 0.24343066
0.00000000 0.23299797 0.27196006
0.00000000 0.25033120 0.30032001
0.00000000 0.24484767 0.33170700
0.00000000 0.24564078 0.36327364
0.00000000 0.24652156 0.39493227
0.00000000 0.24749213 0.42667687
0.00000000 0.24855435 0.45850219
0.00000000 0.24970984 0.49040361
0.00000000 0.25095997 0.52237700
0.00000000 0.25230587 0.55441866
0.00000000 0.25374843 0.58652528
0.00000000 0.25528836 0.61869384
0.00000000 0.25692610 0.65092161
0.00000000 0.25866193 0.68320609
0.00000000 0.26049590 0.71554498
0.00000000 0.26242790 0.74793617
0.00000000 0.26445762 0.78037771
0.00000000 0.26658458 0.81286779
0.00000000 0.26835305 0.83885454
0.00000000 0.27001872 0.86257140
0.00000000 0.27224981 0.89330549
0.00000000 0.27491181 0.92859994
0.00000000 0.27795268 0.96731610
0.15170372 0.31676455 1.00000000
0.00000000 0.26927338 0.00000000
0.00000000 0.26927338 0.03604308
0.00000000 0.26927338 0.06720648
0.00000000 0.26927338 0.09739072
0.00000000 0.26927338 0.12716874
0.00000000 0.26927338 0.15661601
0.00000000 0.26927338 0.18578475
0.00000000 0.26927338 0.21471324
0.00000000 0.26927338 0.24343066
0.00000000 0.26227722 0.27196006
0.00000000 0.26070197 0.30032001
0.00000000 0.27936139 0.33170700
0.00000000 0.27338509 0.36327364
0.00000000 0.27416379 0.39493227
0.00000000 0.27502256 0.42667687
0.00000000 0.27596327 0.45850219
0.00000000 0.27698756 0.49040361
0.00000000 0.27809688 0.52237700
0.00000000 0.27929249 0.55441866
0.00000000 0.28057546 0.58652528
0.00000000 0.28194670 0.61869384
0.00000000 0.28340692 0.65092161
0.00000000 0.28495667 0.68320609
0.00000000 0.28659635 0.71554498
0.00000000 0.28832616 0.74793617
0.00000000 0.29014620 0.78037771
0.00000000 0.29205639 0.81286779
0.00000000 0.29364687 0.83885454
0.00000000 0.29514674 0.86257140
0.00000000 0.29715851 0.89330549
0.00000000 0.29956288 0.92859994
0.00000000 0.30231474 0.96731610
0.15170372 0.33707786 1.00000000
0.00000000 0.29740030 0.00000000
0.00000000 0.29740030 0.03604308
0.00000000 0.29740030 0.06720648
0.00000000 0.29740030 0.09739072
0.00000000 0.29740030 0.12716874
0.00000000 0.29740030 0.15661601
0.00000000 0.29740030 0.18578475
0.00000000 0.29740030 0.21471324
0.00000000 0.29740030 0.24343066
0.00000000 0.29740030 0.27196006
0.00000000 0.28979730 0.30032001
0.00000000 0.28805192 0.33170700
0.00000000 0.30824260 0.36327364
0.00000000 0.30176131 0.39493227
0.00000000 0.30252879 0.42667687
0.00000000 0.30337006 0.45850219
0.00000000 0.30428673 0.49040361
0.00000000 0.30528026 0.52237700
0.00000000 0.30635197 0.55441866
0.00000000 0.30750301 0.58652528
0.00000000 0.30873439 0.61869384
0.00000000 0.31004697 0.65092161
0.00000000 0.31144148 0.68320609
0.00000000 0.31291849 0.71554498
0.00000000 0.31447846 0.74793617
0.00000000 0.31612172 0.78037771
0.00000000 0.31784845 0.81286779
0.00000000 0.31928778 0.83885454
0.00000000 0.32064644 0.86257140
0.00000000 0.32247079 0.89330549
0.00000000 0.32465409 0.92859994
0.00000000 0.32715678 0.96731610
0.15170372 0.35825914 1.00000000
0.00000000 0.32852937 0.00000000
0.00000000 0.32852937 0.03604308
0.00000000 0.32852937 0.06720648
0.00000000 0.32852937 0.09739072
0.00000000 0.32852937 0.12716874
0.00000000 0.32852937 0.15661601
0.00000000 0.32852937 0.18578475
0.00000000 0.32852937 0.21471324
0.00000000 0.32852937 0.24343066
0.00000000 0.32852937 0.27196006
0.00000000 0.32852937 0.30032001
0.00000000 0.32025476 0.33170700
0.00000000 0.31850782 0.36327364
0.00000000 0.30824762 0.39493227
0.00000000 0.33309315 0.42667687
0.00000000 0.33384337 0.45850219
0.00000000 0.33466132 0.49040361
0.00000000 0.33554845 0.52237700
0.00000000 0.33650606 0.55441866
0.00000000 0.33753533 0.58652528
0.00000000 0.33863732 0.61869384
0.00000000 0.33981297 0.65092161
0.00000000 0.34106311 0.68320609
0.00000000 0.34238845 0.71554498
0.00000000 0.34378960 0.74793617
0.00000000 0.34526705 0.78037771
0.00000000 0.34682120 0.81286779
0.00000000 0.34811794 0.83885454
0.00000000 0.34934304 0.86257140
0.00000000 0.35098964 0.89330549
0.00000000 0.35296256 0.92859994
0.00000000 0.35522719 0.96731610
0.15170372 0.38266829 1.00000000
0.00000000 0.35983663 0.00000000
0.00000000 0.35983663 0.03604308
0.00000000 0.35983663 0.06720648
0.00000000 0.35983663 0.09739072
0.00000000 0.35983663 0.12716874
0.00000000 0.35983663 0.15661601
0.00000000 0.35983663 0.18578475
0.00000000 0.35983663 0.21471324
0.00000000 0.35983663 0.24343066
0.00000000 0.35983663 0.27196006
0.00000000 0.35983663 0.30032001
0.00000000 0.35983663 0.33170700
0.00000000 0.35088657 0.36327364
0.00000000 0.34914201 0.39493227
0.00000000 0.33845505 0.42667687
0.00000000 0.36460560 0.45850219
0.00000000 0.36534104 0.49040361
0.00000000 0.36613907 0.52237700
0.00000000 0.36700098 0.55441866
0.00000000 0.36792792 0.58652528
0.00000000 0.36892098 0.61869384
0.00000000 0.36998111 0.65092161
0.00000000 0.37110921 0.68320609
0.00000000 0.37230604 0.71554498
0.00000000 0.37357229 0.74793617
0.00000000 0.37490858 0.78037771
0.00000000 0.37631540 0.81286779
0.00000000 0.37749014 0.83885454
0.00000000 0.37860072 0.86257140
0.00000000 0.38009456 0.89330549
0.00000000 0.38188615 0.92859994
0.00000000 0.38394491 0.96731610
0.15170372 0.40807466 1.00000000
0.00000000 0.39123511 0.00000000
0.00000000 0.39123511 0.03604308
0.00000000 0.39123511 0.06720648
0.00000000 0.39123511 0.09739072
0.00000000 0.39123511 0.12716874
0.00000000 0.39123511 0.15661601
0.00000000 0.39123511 0.18578475
0.00000000 0.39123511 0.21471324
0.00000000 0.39123511 0.24343066
0.00000000 0.39123511 0.27196006
0.00000000 0.39123511 0.30032001
0.00000000 0.39123511 0.33170700
0.00000000 0.39123511 0.36327364
0.00000000 0.38160763 0.39493227
0.00000000 0.37986479 0.42667687
0.00000000 0.36874396 0.45850219
0.00000000 0.40594278 0.49040361
0.00000000 0.39693516 0.52237700
0.00000000 0.39771615 0.55441866
0.00000000 0.39855646 0.58652528
0.00000000 0.39945714 0.61869384
0.00000000 0.40041917 0.65092161
0.00000000 0.40144343 0.68320609
0.00000000 0.40253073 0.71554498
0.00000000 0.40368180 0.74793617
0.00000000 0.40489732 0.78037771
0.00000000 0.40617784 0.81286779
0.00000000 0.40724778 0.83885454
0.00000000 0.40825985 0.86257140
0.00000000 0.40962201 0.89330549
0.00000000 0.41125693 0.92859994
0.00000000 0.41313734 0.96731610
0.15170372 0.43427447 1.00000000
0.00000000 0.42271886 0.00000000
0.00000000 0.42271886 0.03604308
0.00000000 0.42271886 0.06720648
0.00000000 0.42271886 0.09739072
0.00000000 0.42271886 0.12716874
0.00000000 0.42271886 0.15661601
0.00000000 0.42271886 0.18578475
0.00000000 0.42271886 0.21471324
0.00000000 0.42271886 0.24343066
0.00000000 0.42271886 0.27196006
0.00000000 0.42271886 0.30032001
0.00000000 0.42271886 0.33170700
0.00000000 0.42271886 0.36327364
0.00000000 0.42271886 0.39493227
0.00000000 0.41241213 0.42667687
0.00000000 0.41067049 0.45850219
0.00000000 0.40875572 0.49040361
0.00000000 0.43805541 0.52237700
0.00000000 0.42861882 0.55441866
0.00000000 0.42938508 0.58652528
0.00000000 0.43020671 0.61869384
0.00000000 0.43108467 0.65092161
0.00000000 0.43201983 0.68320609
0.00000000 0.43301302 0.71554498
0.00000000 0.43406497 0.74793617
0.00000000 0.43517639 0.78037771
0.00000000 0.43634789 0.81286779
0.00000000 0.43732722 0.83885454
0.00000000 0.43825399 0.86257140
0.00000000 0.43950197 0.89330549
0.00000000 0.44100079 0.92859994
0.00000000 0.44272591 0.96731610
0.15170372 0.46114968 1.00000000
0.00000000 0.45428267 0.00000000
0.00000000 0.45428267 0.03604308
0.00000000 0.45428267 0.06720648
0.00000000 0.45428267 0.09739072
0.00000000 0.45428267 0.12716874
0.00000000 0.45428267 0.15661601
0.00000000 0.45428267 0.18578475
0.00000000 0.45428267 0.21471324
0.00000000 0.45428267 0.24343066
0.00000000 0.45428267 0.27196006
0.00000000 0.45428267 0.30032001
0.00000000 0.45428267 0.33170700
0.00000000 0.45428267 0.36327364
0.00000000 0.45428267 0.39493227
0.00000000 0.45428267 0.42667687
0.00000000 0.44329495 0.45850219
0.00000000 0.44155412 0.49040361
0.00000000 0.43965052 0.52237700
0.00000000 0.47025413 0.55441866
0.00000000 0.46038610 0.58652528
0.00000000 0.46113951 0.61869384
0.00000000 0.46194484 0.65092161
0.00000000 0.46280295 0.68320609
0.00000000 0.46371464 0.71554498
0.00000000 0.46468067 0.74793617
0.00000000 0.46570174 0.78037771
0.00000000 0.46677847 0.81286779
0.00000000 0.46767895 0.83885454
0.00000000 0.46853141 0.86257140
0.00000000 0.46967980 0.89330549
0.00000000 0.47105972 0.92859994
0.00000000 0.47264895 0.96731610
0.15170372 0.48860260 1.00000000
0.00000000 0.48592195 0.00000000
0.00000000 0.48592195 0.03604308
0.00000000 0.48592195 0.06720648
0.00000000 0.48592195 0.09739072
0.00000000 0.48592195 0.12716874
0.00000000 0.48592195 0.15661601
0.00000000 0.48592195 0.18578475
0.00000000 0.48592195 0.21471324
0.00000000 0.48592195 0.24343066
0.00000000 0.48592195 0.27196006
0.00000000 0.48592195 0.30032001
0.00000000 0.48592195 0.33170700
0.00000000 0.48592195 0.36327364
0.00000000 0.48592195 0.39493227
0.00000000 0.48592195 0.42667687
0.00000000 0.48592195 0.45850219
0.00000000 0.47425162 0.49040361
0.00000000 0.47251127 0.52237700
0.00000000 0.47061733 0.55441866
0.00000000 0.50253346 0.58652528
0.00000000 0.49223184 0.61869384
0.00000000 0.49297395 0.65092161
0.00000000 0.49376493 0.68320609
0.00000000 0.49460557 0.71554498
0.00000000 0.49549660 0.74793617
0.00000000 0.49643871 0.78037771
0.00000000 0.49743255 0.81286779
0.00000000 0.49826400 0.83885454
0.00000000 0.49905134 0.86257140
0.00000000 0.50011235 0.89330549
0.00000000 0.50138784 0.92859994
0.00000000 0.50285751 0.96731610
0.15170372 0.51655235 1.00000000
0.00000000 0.51763260 0.00000000
0.00000000 0.51763260 0.03604308
0.00000000 0.51763260 0.06720648
0.00000000 0.51763260 0.09739072
0.00000000 0.51763260 0.12716874
0.00000000 0.51763260 0.15661601
0.00000000 0.51763260 0.18578475
0.00000000 0.51763260 0.21471324
0.00000000 0.51763260 0.24343066
0.00000000 0.51763260 0.27196006
0.00000000 0.51763260 0.30032001
0.00000000 0.51763260 0.33170700
0.00000000 0.51763260 0.36327364
0.00000000 0.51763260 0.39493227
0.00000000 0.51763260 0.42667687
0.00000000 0.51763260 0.45850219
0.00000000 0.51763260 0.49040361
0.00000000 0.50527812 0.52237700
0.00000000 0.50353800 0.55441866
0.00000000 0.50165246 0.58652528
0.00000000 0.48713459 0.61869384
0.00000000 0.52415150 0.65092161
0.00000000 0.52488361 0.68320609
0.00000000 0.52566188 0.71554498
0.00000000 0.52648703 0.74793617
0.00000000 0.52735974 0.78037771
0.00000000 0.52828063 0.81286779
0.00000000 0.52905127 0.83885454
0.00000000 0.52978121 0.86257140
0.00000000 0.53076516 0.89330549
0.00000000 0.53194842 0.92859994
0.00000000 0.53331240 0.96731610
0.15170372 0.54493189 1.00000000
0.00000000 0.54941098 0.00000000
0.00000000 0.54941098 0.03604308
0.00000000 0.54941098 0.06720648
0.00000000 0.54941098 0.09739072
0.00000000 0.54941098 0.12716874
0.00000000 0.54941098 0.15661601
0.00000000 0.54941098 0.18578475
0.00000000 0.54941098 0.21471324
0.00000000 0.54941098 0.24343066
0.00000000 0.54941098 0.27196006
0.00000000 0.54941098 0.30032001
0.00000000 0.54941098 0.33170700
0.00000000 0.54941098 0.36327364
0.00000000 0.54941098 0.39493227
0.00000000 0.54941098 0.42667687
0.00000000 0.54941098 0.45850219
0.00000000 0.54941098 0.49040361
0.00000000 0.54941098 0.52237700
0.00000000 0.53637087 0.55441866
0.00000000 0.53463078 0.58652528
0.00000000 0.53275259 0.61869384
0.00000000 0.51779986 0.65092161
0.00000000 0.56929881 0.68320609
0.00000000 0.55686427 0.71554498
0.00000000 0.55763121 0.74793617
0.00000000 0.55844254 0.78037771
0.00000000 0.55929890 0.81286779
0.00000000 0.56001569 0.83885454
0.00000000 0.56069477 0.86257140
0.00000000 0.56161038 0.89330549
0.00000000 0.56271179 0.92859994
0.00000000 0.56398186 0.96731610
0.15170372 0.57368542 1.00000000
0.00000000 0.58125377 0.00000000
0.00000000 0.58125377 0.03604308
0.00000000 0.58125377 0.06720648
0.00000000 0.58125377 0.09739072
0.00000000 0.58125377 0.12716874
0.00000000 0.58125377 0.15661601
0.00000000 0.58125377 0.18578475
0.00000000 0.58125377 0.21471324
0.00000000 0.58125377 0.24343066
0.00000000 0.58125377 0.27196006
0.00000000 0.58125377 0.30032001
0.00000000 0.58125377 0.33170700
0.00000000 0.58125377 0.36327364
0.00000000 0.58125377 0.39493227
0.00000000 0.58125377 0.42667687
0.00000000 0.58125377 0.45850219
0.00000000 0.58125377 0.49040361
0.00000000 0.58125377 0.52237700
0.00000000 0.58125377 0.55441866
0.00000000 0.56752666 0.58652528
0.00000000 0.56578642 0.61869384
0.00000000 0.56391470 0.65092161
0.00000000 0.54852218 0.68320609
0.00000000 0.60177735 0.71554498
0.00000000 0.58891220 0.74793617
0.00000000 0.58966897 0.78037771
0.00000000 0.59046791 0.81286779
0.00000000 0.59113677 0.83885454
0.00000000 0.59177057 0.86257140
0.00000000 0.59262528 0.89330549
0.00000000 0.59365371 0.92859994
0.00000000 0.59483996 0.96731610
0.15170372 0.60276635 1.00000000
0.00000000 0.61315800 0.00000000
0.00000000 0.61315800 0.03604308
0.00000000 0.61315800 0.06720648
0.00000000 0.61315800 0.09739072
0.00000000 0.61315800 0.12716874
0.00000000 0.61315800 0.15661601
0.00000000 0.61315800 0.18578475
0.00000000 0.61315800 0.21471324
0.00000000 0.61315800 0.24343066
0.00000000 0.61315800 0.27196006
0.00000000 0.61315800 0.30032001
0.00000000 0.61315800 0.33170700
0.00000000 0.61315800 0.36327364
0.00000000 0.61315800 0.39493227
0.00000000 0.61315800 0.42667687
0.00000000 0.61315800 0.45850219
0.00000000 0.61315800 0.49040361
0.00000000 0.61315800 0.52237700
0.00000000 0.61315800 0.55441866
0.00000000 0.61315800 0.58652528
0.00000000 0.59874256 0.61869384
0.00000000 0.59700203 0.65092161
0.00000000 0.59513603 0.68320609
0.00000000 0.57929945 0.71554498
0.00000000 0.63432203 0.74793617
0.00000000 0.62102403 0.78037771
0.00000000 0.62177164 0.81286779
0.00000000 0.62239765 0.83885454
0.00000000 0.62299092 0.86257140
0.00000000 0.62379113 0.89330549
0.00000000 0.62475417 0.92859994
0.00000000 0.62586529 0.96731610
0.15170372 0.63213560 1.00000000
0.00000000 0.64512095 0.00000000
0.00000000 0.64512095 0.03604308
0.00000000 0.64512095 0.06720648
0.00000000 0.64512095 0.09739072
0.00000000 0.64512095 0.12716874
0.00000000 0.64512095 0.15661601
0.00000000 0.64512095 0.18578475
0.00000000 0.64512095 0.21471324
0.00000000 0.64512095 0.24343066
0.00000000 0.64512095 0.27196006
0.00000000 0.64512095 0.30032001
0.00000000 0.64512095 0.33170700
0.00000000 0.64512095 0.36327364
0.00000000 0.64512095 0.39493227
0.00000000 0.64512095 0.42667687
0.00000000 0.64512095 0.45850219
0.00000000 0.64512095 0.49040361
0.00000000 0.64512095 0.52237700
0.00000000 0.64512095 0.55441866
0.00000000 0.64512095 0.58652528
0.00000000 0.64512095 0.61869384
0.00000000 0.63001591 0.65092161
0.00000000 0.62827498 0.68320609
0.00000000 0.62641405 0.71554498
0.00000000 0.62442937 0.74793617
0.00000000 0.66692961 0.78037771
0.00000000 0.65319675 0.81286779
0.00000000 0.65378426 0.83885454
