luts/S9_Standard_to_c200.cube
# Film Emulation LUT
# Generated by lutex.py
# Grid: 33³
TITLE "Panasonic S9 Standard to Fujifilm Fujicolor C200 (Japan)"
LUT_3D_SIZE 9
DOMAIN_MIN 0.0 0.0 0.0
DOMAIN_MAX 1.0 1.0 1.0
0.04247796 0.03603611 0.03874771
0.00471647 0.00384619 0.03517029
0.01402399 0.00954488 0.22370949
0.00547110 0.00000000 0.35436654
0.00579893 0.00000000 0.48395697
0.00593400 0.00000000 0.60892067
0.00598880 0.00000000 0.73143422
0.00600213 0.00000000 0.84665343
0.00598999 0.00000000 0.97245931
0.06986937 0.26393045 0.12962439
0.03800870 0.15131044 0.15417130
0.01392146 0.11676470 0.22425956
0.00000000 0.12549462 0.35533429
0.00000000 0.12983610 0.48470907
0.00000000 0.13179173 0.60957596
0.00000000 0.13283908 0.73204502
0.00000000 0.13344520 0.84724772
0.00000000 0.13388450 0.97305258
0.00377327 0.35095357 0.15151700
0.00975102 0.35062747 0.25201949
0.02790484 0.27038370 0.27216484
0.00000000 0.24463195 0.35572677
0.00000000 0.25181939 0.48519453
0.00000000 0.25505021 0.61015744
0.00000000 0.25677271 0.73272337
0.00000000 0.25776167 0.84801837
0.00000000 0.25846919 0.97392461
0.00000000 0.44152339 0.19779498
0.00000000 0.44184123 0.26398623
0.00000000 0.44184513 0.36716040
0.01179185 0.38588575 0.38619322
0.00000000 0.36590163 0.48597589
0.00000000 0.37031975 0.61109341
0.00000000 0.37267303 0.73381529
0.00000000 0.37402178 0.84925888
0.00000000 0.37498385 0.97532833
0.00000000 0.55002209 0.25374527
0.00000000 0.55023862 0.30069088
0.00000000 0.55024438 0.38276319
0.00000000 0.55025352 0.48056451
0.00000000 0.51014670 0.50889045
0.00000000 0.49410290 0.61257694
0.00000000 0.49712780 0.73554607
0.00000000 0.49886038 0.85122523
0.00000000 0.50009483 0.97755342
0.00000000 0.66399915 0.31229078
0.00000000 0.66414308 0.34811361
0.00000000 0.66415059 0.41547444
0.00000000 0.66416250 0.50074857
0.00000000 0.63318509 0.50789344
0.00000000 0.63321177 0.63087479
0.00000000 0.63159162 0.75085054
0.00000000 0.62265359 0.85388307
0.00000000 0.62415513 0.98056105
0.00000000 0.78096758 0.37227814
0.00000000 0.78105699 0.40096339
0.00000000 0.78106617 0.45752828
0.00000000 0.78108073 0.53258290
0.00000000 0.78110358 0.62881358
0.00000000 0.75627048 0.63169203
0.00000000 0.75631115 0.75373825
0.00000000 0.75526175 0.86796328
0.00000000 0.74764186 0.98439984
0.00000000 0.89458673 0.43049169
0.00000000 0.89463415 0.45441937
0.00000000 0.89463415 0.50307644
0.00000000 0.89463415 0.56988762
0.00000000 0.89463415 0.65811981
0.00000000 0.89463415 0.75679434
0.00000000 0.87394559 0.75497571
0.00000000 0.87394559 0.87033963
0.00000000 0.87307844 0.99564679
0.22969389 1.00000000 0.52143468
0.22991727 1.00000000 0.53875594
0.22991727 1.00000000 0.57516138
0.22991727 1.00000000 0.62749430
0.22991727 1.00000000 0.69981831
0.22991727 1.00000000 0.78387098
0.22991727 1.00000000 0.87617888
0.04136754 1.00000000 0.87013944
0.04136754 1.00000000 0.99588968
0.16211989 0.04547924 0.03117053
0.16211410 0.03117138 0.15399984
0.15911162 0.02165868 0.27183055
0.13790227 0.00000000 0.35442226
0.14283584 0.00000000 0.48402512
0.14501564 0.00000000 0.60900189
0.14613409 0.00000000 0.73152871
0.14673172 0.00000000 0.84676060
0.14710646 0.00000000 0.97258045
0.16204996 0.15117534 0.03387758
0.16070377 0.14973545 0.15264841
0.13185561 0.12164610 0.23443711
0.13550423 0.12406131 0.35890794
0.12767369 0.11465721 0.48910042
0.10981652 0.09409723 0.61565658
0.07827800 0.05565985 0.73994380
0.03243390 0.00000000 0.85622965
0.03187540 0.00000000 0.98058286
0.12765510 0.35095664 0.00378953
0.18162711 0.33353491 0.21314374
0.15732366 0.26952910 0.27135030
0.13528084 0.24649744 0.35969764
0.12719532 0.24793015 0.48973525
0.10913564 0.24249997 0.61629869
0.07723639 0.23192518 0.74064745
0.01563398 0.21716742 0.85763953
0.00000000 0.21303288 0.98252317
0.00000000 0.44153035 0.07304761
0.14959542 0.43876535 0.23633815
0.15889996 0.43809896 0.35286659
0.15185894 0.38533233 0.38568520
0.12687795 0.36689033 0.49053016
0.10867304 0.36658372 0.61725278
0.07646229 0.36195956 0.74175973
0.01413772 0.35447010 0.85890188
0.00000000 0.35169137 0.98389213
0.00000000 0.55003104 0.18884652
0.11163170 0.55526434 0.27481119
0.12175926 0.55496387 0.37039258
0.12172273 0.55497530 0.47636734
0.14266488 0.51090485 0.50969573
0.10793371 0.49610954 0.61876506
0.07521844 0.49484489 0.74352278
0.01175954 0.49091615 0.86090284
0.00000000 0.48849578 0.98606230
0.00000000 0.66401009 0.26813090
0.04874393 0.67422565 0.32081176
0.06356031 0.67408554 0.40040570
0.06349653 0.67409908 0.49494594
0.12914531 0.63593228 0.50851106
0.12908709 0.63596078 0.63365621
0.11105518 0.63336296 0.75524674
0.00853250 0.62225043 0.86360743
0.00000000 0.61978086 0.98899604
0.00000000 0.78098050 0.33917284
0.00000000 0.79166321 0.37632821
0.00000000 0.79222731 0.44091580
0.00000000 0.79223904 0.52389117
0.00000000 0.79225746 0.62795710
0.10934238 0.76066755 0.63346587
0.10925298 0.76071018 0.75816684
0.08340767 0.75831995 0.87376735
0.00000000 0.74841591 0.99274108
0.00000000 0.89458685 0.40402168
0.00000000 0.90361924 0.43434286
0.00000000 0.90393341 0.48803591
0.00000000 0.90393341 0.56029237
0.00000000 0.90393341 0.65426517
0.00000000 0.90393341 0.75812627
0.08117053 0.87971842 0.75795039
0.08117053 0.87971842 0.87606320
0.09030696 0.87550599 1.00000000
0.22969455 1.00000000 0.50294318
0.27404889 1.00000000 0.53542718
0.27527054 1.00000000 0.57247247
0.27527054 1.00000000 0.62505551
0.27527054 1.00000000 0.69765335
0.27527054 1.00000000 0.78194870
0.27527054 1.00000000 0.87445745
0.15838170 1.00000000 0.87016896
0.15838170 1.00000000 0.99592321
0.28415701 0.06685408 0.02024661
0.28414798 0.02024815 0.15042713
0.28412769 0.02025163 0.27167012
0.28167005 0.00577818 0.38524833
0.26575919 0.00000000 0.48417818
0.26929856 0.00000000 0.60918429
0.27112057 0.00000000 0.73174092
0.27210039 0.00000000 0.84700131
0.27272274 0.00000000 0.97285253
0.28406474 0.16523901 0.02298170
0.28333992 0.15645352 0.14600682
0.28331955 0.14601029 0.27103029
0.28084733 0.14089372 0.38490649
0.26214658 0.11464867 0.48925478
0.25752365 0.09406826 0.61584120
0.24788107 0.05558170 0.74015877
0.23704970 0.00000000 0.85646765
0.23597985 0.00000000 0.98085266
0.28387219 0.27017023 0.02308412
0.28311679 0.26938139 0.14917680
0.28144540 0.26763575 0.26860528
0.26175868 0.24816547 0.36390281
0.26105992 0.24686902 0.49147214
0.25527726 0.24041092 0.61704589
0.24503564 0.22929479 0.74098510
0.23102870 0.21412221 0.85781505
0.15010133 0.12058268 0.99300652
0.25334940 0.44154598 0.00000000
0.25529449 0.43877485 0.14966405
0.29057083 0.42561029 0.31094511
0.27834464 0.38408628 0.38454168
0.26053135 0.36740375 0.49244258
0.25455811 0.36568432 0.61805977
0.24417322 0.36046105 0.74210391
0.23002279 0.35266828 0.85906040
0.13727084 0.31049119 0.99536886
0.15646505 0.55005115 0.00000000
0.13534456 0.55528101 0.11171425
0.26886715 0.54798933 0.33867804
0.28004268 0.54729117 0.45639649
0.27336163 0.51004271 0.50895919
0.25391766 0.49612662 0.61956191
0.24341948 0.49415050 0.74386181
0.22912209 0.48989964 0.86105871
0.13494431 0.46851713 0.99765454
0.00000000 0.66403468 0.10743382
0.04889033 0.67424815 0.19987123
0.24590991 0.66983222 0.37553363
0.25593192 0.66947444 0.47894026
0.25586396 0.66949751 0.59584123
0.26639879 0.63532215 0.63316925
0.24239215 0.62385002 0.74623793
0.22789333 0.62168086 0.86375979
0.13987963 0.61202991 1.00000000
0.00000000 0.78100954 0.24529505
0.00000000 0.79169819 0.29073504
0.21824513 0.79213361 0.41860864
0.22657076 0.79196498 0.50941462
0.22649261 0.79199110 0.61762294
0.25722954 0.76017428 0.63298258
0.25712963 0.76021727 0.75785227
0.24744069 0.75782040 0.87356775
0.17381233 0.74827146 1.00000000
0.00000000 0.89458713 0.33502729
0.00000000 0.90362106 0.36902161
0.18274690 0.90969138 0.46330905
0.18965716 0.90959927 0.54378470
0.18965716 0.90959927 0.64403368
0.18965716 0.90959927 0.75323199
0.24645230 0.87928817 0.75748744
0.24645230 0.87928817 0.87569899
0.24792827 0.87530399 1.00000000
0.22969603 1.00000000 0.45791806
0.27405703 1.00000000 0.49419436
0.35138462 1.00000000 0.56530244
0.35400427 1.00000000 0.61960912
0.35400427 1.00000000 0.69281705
0.35400427 1.00000000 0.77764975
0.35400427 1.00000000 0.87060046
0.27814973 1.00000000 0.87023528
0.27814973 1.00000000 0.99599852
0.40153365 0.09270367 0.00294710
0.40152149 0.00294975 0.09639567
0.40149418 0.00295571 0.26875167
0.40145087 0.00296516 0.38510817
0.39851118 0.00000000 0.50628380
0.39659841 0.00000000 0.62597943
0.38812822 0.00000000 0.73207719
0.38946166 0.00000000 0.84738274
0.39031103 0.00000000 0.97328366
0.40141546 0.17775772 0.00572664
0.40093152 0.16958582 0.13989566
0.40090415 0.13990018 0.26810544
0.40086074 0.13990735 0.38477158
0.39833228 0.13162210 0.50770978
0.39448874 0.11803491 0.62925798
0.37838573 0.05545765 0.74049940
0.37260037 0.00000000 0.85684480
0.37108734 0.00000000 0.98128019
0.40115639 0.28681911 0.00585260
0.40065181 0.28350585 0.14329229
0.39953936 0.27408155 0.26454829
0.39949572 0.26455621 0.38399377
0.39693873 0.26047377 0.50736041
0.38159389 0.24041105 0.61733648
0.37680968 0.22927968 0.74132448
0.36945458 0.21408761 0.85820054
0.33283645 0.11524697 0.99385733
0.40073828 0.38563353 0.00605567
0.40023146 0.38511769 0.14362447
0.39908963 0.38395540 0.26703486
0.39728153 0.38253011 0.38211476
0.38229089 0.36710220 0.49380273
0.37962040 0.36414308 0.61871226
0.37409912 0.35830093 0.74241511
0.36631599 0.35015384 0.85923263
0.32418830 0.30469243 0.99501951
0.39717324 0.50994323 0.00000000
0.35225532 0.55530743 0.11184501
0.36132586 0.54801108 0.26901929
0.39661505 0.53879512 0.41602681
0.39365810 0.50867368 0.50779030
0.37860482 0.49565454 0.62022778
0.37293365 0.49286404 0.74414540
0.36502559 0.48820501 0.86118372
0.32191743 0.46465129 0.99718260
0.27965913 0.66407365 0.00000000
0.26069154 0.67428384 0.04912183
0.27632200 0.66986477 0.24607185
0.38122285 0.66378666 0.44595394
0.39271403 0.66318972 0.57561112
0.38867005 0.63430914 0.63239742
0.37182985 0.62331709 0.74651656
0.36381551 0.62068564 0.86388219
0.32126698 0.60922693 1.00000000
0.16199653 0.78105558 0.00000000
0.08244442 0.79175366 0.00000000
0.21842344 0.79217543 0.29140041
0.36456690 0.78795575 0.48258589
0.37333361 0.78766067 0.60012663
0.37322038 0.78769795 0.71840951
0.38214516 0.75943590 0.75735413
0.37607939 0.75702848 0.87325196
0.33533325 0.74700232 1.00000000
0.00000000 0.89458756 0.16082523
0.00000000 0.90362395 0.21857974
0.18281221 0.90969053 0.35890412
0.34561771 0.90655723 0.52121042
0.35233920 0.90638415 0.62822398
0.35233920 0.90638415 0.74005032
0.37535588 0.87860549 0.75675274
0.37535588 0.87860549 0.87512117
0.37465173 0.87496166 1.00000000
0.22969838 1.00000000 0.37233127
0.27406993 1.00000000 0.41811811
0.35141259 1.00000000 0.50306431
0.44320295 1.00000000 0.60897632
0.44716188 1.00000000 0.68525419
0.44716188 1.00000000 0.77090834
0.44716188 1.00000000 0.86452623
0.39349128 1.00000000 0.87034042
0.39349128 1.00000000 0.99611789
0.52616356 0.13197871 0.00000000
0.52614829 0.00000000 0.02550235
0.52611400 0.00000000 0.26636054
0.52605962 0.00000000 0.38222239
0.52597429 0.00000000 0.50616776
0.52401868 0.00000000 0.62641726
0.52261578 0.00000000 0.74568898
0.51488491 0.00000000 0.84798072
0.51597414 0.00000000 0.97395958
0.52623852 0.19954188 0.00000000
0.52755428 0.18822394 0.12974587
0.52751932 0.12975226 0.26344891
0.52746389 0.12976240 0.38191438
0.52737690 0.12977830 0.50768678
0.52499224 0.11799920 0.62970100
0.52145820 0.09812839 0.75053360
0.50844616 0.00000000 0.85743607
0.50647659 0.00000000 0.98195045
0.52591892 0.29890583 0.00000000
0.52720802 0.29442810 0.13355114
0.52640410 0.28525225 0.25962701
0.52634848 0.25963624 0.38113349
0.52626120 0.25965072 0.50735331
0.52384926 0.25420208 0.62964957
0.52029847 0.24592780 0.75070938
0.50670099 0.21403328 0.85880490
0.48709107 0.10711413 0.99513599
0.52540313 0.40559396 0.00000000
0.52667214 0.40374754 0.13393004
0.52584578 0.39878984 0.26236976
0.52454295 0.38998855 0.37898780
0.52445520 0.37900416 0.50681412
0.52199893 0.37551258 0.62956591
0.50907330 0.35831243 0.74294475
0.50457116 0.35014910 0.85983500
0.48288322 0.30459084 0.99570985
0.52458220 0.50960733 0.00000000
0.52581917 0.51070726 0.13452996
0.52498704 0.50988812 0.26314129
0.52366370 0.50858534 0.38083949
0.52157717 0.50758938 0.50596428
0.50949182 0.49437704 0.62043218
0.50602544 0.49084365 0.74423686
0.50099959 0.48575960 0.86124271
0.47563197 0.45887985 0.99662104
0.52129285 0.63313574 0.00000000
0.52216694 0.63603452 0.12296729
0.52132095 0.63541403 0.25837877
0.48056164 0.66383173 0.38153194
0.51627063 0.65579005 0.53432814
0.51749073 0.63271850 0.63118693
0.50442763 0.62210024 0.74651578
0.49928657 0.61894663 0.86384696
0.47302791 0.60465219 0.99955904
0.40222750 0.78112779 0.00000000
0.39143156 0.79184066 0.00000000
0.39641585 0.79224104 0.21870287
0.41121532 0.78801675 0.36488667
0.50503064 0.78211379 0.56578349
0.51452759 0.78168622 0.69593314
0.51219656 0.75821015 0.75657402
0.49754062 0.74934967 0.86729240
0.48004609 0.74477082 1.00000000
0.32646324 0.89458824 0.00000000
0.30418811 0.90362848 0.00000000
0.29144503 0.90968919 0.18291462
0.34571778 0.90655468 0.37466028
0.49217589 0.90201400 0.59815283
0.50270490 0.90037218 0.71940555
0.50746805 0.87753301 0.75559817
0.50746805 0.87753301 0.87421361
0.48332710 0.87081831 1.00000000
0.29450705 1.00000000 0.22970206
0.30293495 1.00000000 0.27409018
0.35145647 1.00000000 0.37895596
0.44327030 1.00000000 0.51812028
0.55212307 1.00000000 0.67049234
0.55740164 1.00000000 0.76061660
0.55740164 1.00000000 0.85515909
0.51798803 1.00000000 0.87050533
0.51964004 0.99929540 0.99561252
0.64959285 0.17215541 0.00000000
0.64957422 0.08240191 0.00000000
0.64953236 0.00000000 0.19639850
0.64946599 0.00000000 0.38100117
0.64936184 0.00000000 0.50459473
0.64922199 0.00000000 0.62666331
0.64787075 0.00000000 0.74637984
0.64679076 0.00000000 0.85960952
0.64590363 0.00000000 0.98390396
0.64958996 0.22703015 0.00000000
0.65274642 0.21042370 0.11478818
0.65270392 0.11479767 0.18634710
0.65263653 0.11481272 0.37804748
0.65253078 0.11483633 0.50520555
0.65238878 0.11486801 0.62985191
0.65006820 0.09802636 0.75123175
0.64685863 0.06893997 0.86579245
0.64260351 0.01008797 0.99144401
0.64919735 0.31619996 0.00000000
0.65233169 0.30834656 0.11928313
0.65170425 0.29945225 0.25286266
0.65163669 0.25287376 0.37726234
0.65153069 0.25289117 0.50487385
0.65138835 0.25291454 0.62981982
0.64903919 0.24591737 0.75140718
0.64581693 0.23585440 0.86614664
0.64154483 0.22181675 0.99196903
0.64856375 0.41690538 0.00000000
0.64883114 0.41489841 0.13841890
0.65103456 0.40855984 0.25596842
0.65001986 0.39971020 0.37475024
0.64991345 0.37476838 0.50433754
0.64977055 0.37479273 0.62976733
0.64737505 0.37037916 0.75168930
0.64413220 0.36425895 0.86671680
0.62583711 0.30445405 0.99663573
0.64755527 0.53321675 0.00000000
0.64780057 0.53201900 0.13897626
0.64746473 0.52896349 0.26455615
0.64693158 0.52407031 0.38096733
0.64733294 0.51483512 0.50348399
0.64718724 0.50364570 0.62968206
0.64471743 0.50052697 0.75213583
0.63365842 0.48579088 0.86204724
0.62054064 0.45882562 0.99754797
0.64618403 0.63300430 0.00000000
0.64923566 0.63585655 0.12143494
0.64857903 0.63523557 0.25789033
0.64753575 0.63424894 0.37835343
0.64589323 0.63269566 0.50517690
0.64367707 0.63155033 0.62958229
0.63333657 0.62025421 0.74613321
0.62386958 0.61019954 0.86776359
0.61244782 0.59871665 0.99878696
0.64294878 0.75636487 0.00000000
0.64493656 0.76084117 0.10437658
0.64426774 0.76034734 0.25151332
0.64320505 0.75956314 0.37520905
0.59897608 0.78218768 0.50554749
0.63786824 0.77517644 0.65816730
0.63890326 0.75656488 0.75552946
0.62127067 0.74717150 0.87080491
0.61349722 0.74054832 1.00000000
0.52065534 0.89458916 0.00000000
0.51593448 0.90363457 0.00000000
0.51558838 0.90968739 0.18305202
0.52632726 0.90655126 0.34585207
0.54272188 0.90200835 0.49233096
0.64130658 0.88791575 0.69247151
0.64938431 0.88772678 0.81258276
0.63576814 0.87597306 0.87287895
0.61588455 0.86900075 1.00000000
0.48779446 1.00000000 0.22970700
0.49228569 1.00000000 0.27411735
0.50226196 1.00000000 0.35151537
0.51780294 1.00000000 0.44336070
0.55224648 1.00000000 0.56253868
0.66544649 1.00000000 0.74333259
0.67187198 1.00000000 0.84317442
0.67187198 1.00000000 0.93861416
0.64408847 0.99846816 0.99505575
0.77206423 0.21193151 0.00000000
0.77204226 0.14911616 0.00000000
0.77199289 0.00000000 0.15175805
0.77191462 0.00000000 0.38062465
0.77179180 0.00000000 0.50410502
0.77162686 0.00000000 0.62606230
0.77141709 0.00000000 0.74700594
0.77040823 0.00000000 0.86061092
0.76936682 0.00000000 0.98504091
0.77200080 0.25751148 0.00000000
0.77669968 0.23528051 0.09266703
0.77664966 0.09268212 0.11929198
0.77657036 0.09270605 0.37307779
0.77644591 0.09274357 0.50204069
0.77627880 0.09279393 0.62775733
0.77606625 0.09285792 0.75163865
0.77389363 0.06867576 0.86680364
0.77041166 0.00952894 0.99259148
0.77153621 0.33730754 0.00000000
0.77621557 0.32497969 0.09843673
0.77569938 0.31637687 0.24397891
0.77561993 0.24399257 0.31319992
0.77549525 0.24401400 0.50171130
0.77532783 0.24404277 0.62772881
0.77511488 0.24407934 0.75183663
0.77291189 0.23581339 0.86715714
0.76941775 0.22173464 0.99311557
0.77078640 0.43181240 0.00000000
0.77544987 0.42521399 0.09903329
0.77491705 0.42054235 0.24758192
0.77408387 0.41162665 0.36929442
0.77395881 0.36931491 0.50117869
0.77379088 0.36934241 0.62768209
0.77357728 0.36937737 0.75215508
0.77132511 0.36427197 0.86772618
0.76781124 0.35599956 0.99395935
0.76959297 0.54374487 0.00000000
0.77082788 0.54226632 0.13102303
0.77054323 0.53927507 0.26093033
0.77284294 0.53267719 0.37202451
0.77150767 0.52347586 0.49990999
0.77133892 0.49993966 0.62760596
0.77112428 0.49997737 0.75265928
0.76879340 0.49637956 0.86862817
0.76524790 0.49077260 0.99529717
0.76797020 0.66021534 0.00000000
0.77257379 0.66155412 0.10123895
0.77203255 0.65887120 0.24965194
0.76843625 0.65381283 0.38021616
0.76772025 0.64790405 0.50566143
0.76799895 0.63849249 0.62750590
0.76777757 0.62789985 0.75333962
0.76533879 0.62510719 0.86984735
0.75129560 0.59869910 0.99996757
0.76588281 0.75638475 0.00000000
0.77044187 0.76077812 0.10283946
0.76989435 0.76028413 0.25116734
0.76905827 0.75949249 0.37523525
0.76781800 0.75823174 0.50412720
0.76614820 0.75653425 0.62982952
0.76401726 0.75506326 0.75365887
0.75276222 0.74245031 0.86778349
0.74328111 0.73265304 1.00000000
0.76476024 0.87390039 0.00000000
0.76799169 0.87972445 0.07649463
0.76749121 0.87930572 0.24204625
0.76669675 0.87864122 0.36991841
0.76539817 0.87743470 0.50111318
0.72577026 0.88756389 0.64205064
0.76515043 0.88460619 0.78207006
0.76203465 0.87375653 0.87096797
0.74456647 0.86537439 0.99972192
0.64312372 1.00000000 0.22971328
0.64619133 1.00000000 0.27415190
0.65305165 1.00000000 0.35159025
0.66385638 1.00000000 0.44347560
0.68071260 1.00000000 0.55240335
0.70346586 1.00000000 0.66564366
0.78099149 1.00000000 0.82469232
0.78837441 1.00000000 0.92509319
0.76663555 0.99801792 0.99494759
0.88773854 0.24945464 0.00000000
0.88771340 0.20001969 0.00000000
0.88765692 0.00000000 0.07291299
0.88756736 0.00000000 0.29101646
0.88742684 0.00000000 0.50418863
0.88723813 0.00000000 0.62615942
0.88699813 0.00000000 0.74711641
0.88671946 0.00000000 0.86158249
0.88572695 0.00000000 0.98635828
0.88762668 0.28834105 0.00000000
0.89363301 0.26073336 0.05922356
0.89357586 0.12598692 0.05925108
0.89348523 0.05929470 0.27109227
0.89334303 0.05936310 0.49835321
0.89315206 0.05945482 0.62532812
0.89290918 0.05957130 0.75005739
0.89262718 0.05970628 0.86748267
0.89010804 0.00888012 0.99392104
0.88709407 0.36015470 0.00000000
0.89308240 0.34301973 0.06785666
0.89263790 0.33468545 0.23322508
0.89254713 0.23324203 0.27617635
0.89240470 0.23326860 0.49802652
0.89221343 0.23330428 0.62530379
0.89197016 0.23334963 0.75025934
0.89168771 0.23340226 0.86786165
0.88913459 0.22163930 0.99444406
0.88623451 0.44873343 0.00000000
0.89220762 0.43839982 0.06875010
0.89174767 0.43388830 0.23746395
0.89103150 0.42489080 0.36286257
0.89088870 0.36288589 0.44629349
0.89069694 0.36291719 0.62526382
0.89045305 0.36295699 0.75058417
0.89016987 0.36300317 0.86847172
0.88756176 0.35598964 0.99528610
0.88486636 0.55623661 0.00000000
0.88689368 0.55381431 0.12119222
0.89035227 0.54809051 0.23842585
0.88961732 0.54266538 0.36619353
0.88847151 0.53310842 0.49557994
0.88827896 0.49561212 0.62519841
0.88803406 0.49565302 0.75109850
0.88774971 0.49570049 0.86943875
0.88505366 0.49081387 0.99662119
0.88300599 0.66968609 0.00000000
0.88500942 0.66889776 0.12214658
0.88475445 0.66659450 0.25775874
0.88434987 0.66291977 0.37781531
0.88371420 0.65709580 0.50430211
0.88498268 0.64603584 0.62469169
0.88473640 0.62473614 0.75179253
0.88445046 0.62478773 0.87074587
0.88163403 0.62101078 0.99842644
0.88130291 0.75536101 0.00000000
0.88721286 0.75822946 0.07379809
0.88679963 0.75772158 0.24097538
0.88614389 0.78369777 0.36905990
0.88229602 0.77727143 0.50579996
0.88162818 0.77086897 0.63006299
0.88195980 0.76139111 0.75135117
0.88195337 0.75175537 0.87062108
0.87946457 0.74868417 0.99835860
0.88130762 0.87383937 0.00000000
0.88574868 0.87815406 0.09542734
0.88529069 0.87769602 0.24891010
0.88459366 0.87699922 0.37431396
0.88357211 0.87597888 0.50387033
0.88233970 0.87474970 0.62980058
0.88100430 0.87342108 0.75351240
0.87978159 0.87287932 0.86977612
0.86780177 0.85940042 0.99743610
0.87804277 0.99719301 0.09661597
0.87806426 0.99717658 0.18108857
0.87812318 0.99714868 0.28909936
0.87824678 0.99712997 0.39879338
0.87851528 0.99716374 0.51938224
0.87901887 0.99733032 0.63978924
0.84553295 1.00000000 0.78126559
0.89210243 1.00000000 0.90830315
0.88164505 0.99834104 0.99566406
1.00000000 0.34334367 0.19732269
1.00000000 0.31333936 0.19710653
1.00000000 0.22886658 0.19661996
1.00000000 0.19584586 0.31306462
1.00000000 0.19462458 0.52359658
1.00000000 0.19297168 0.63470810
1.00000000 0.19084754 0.74766373
1.00000000 0.18834958 0.85619423
1.00000000 0.18501424 0.97646026
1.00000000 0.36889512 0.19611996
1.00000000 0.36716579 0.24380207
1.00000000 0.30108294 0.24341997
1.00000000 0.24281279 0.31601334
1.00000000 0.24185667 0.52416334
1.00000000 0.24056622 0.63525445
1.00000000 0.23891397 0.74821586
1.00000000 0.23697991 0.85676876
1.00000000 0.23441295 0.97707406
1.00000000 0.42033502 0.19144798
1.00000000 0.41990386 0.24261836
1.00000000 0.41713680 0.32400287
1.00000000 0.32450008 0.32357200
1.00000000 0.32289461 0.52544136
1.00000000 0.32198251 0.63649416
1.00000000 0.32081832 0.74947572
1.00000000 0.31946079 0.85808594
1.00000000 0.31766783 0.97848782
1.00000000 0.49036435 0.18364329
1.00000000 0.48987635 0.23682366
1.00000000 0.48887559 0.32298614
1.00000000 0.48573284 0.41797775
1.00000000 0.41748822 0.46530671
1.00000000 0.41682990 0.63842794
1.00000000 0.41599100 0.75146448
1.00000000 0.41501474 0.86018595
1.00000000 0.41372859 0.98076352
1.00000000 0.58213836 0.17044927
1.00000000 0.58159199 0.22726927
1.00000000 0.58042114 0.31678554
1.00000000 0.57874962 0.41634188
1.00000000 0.57527669 0.52862132
1.00000000 0.52814159 0.64129926
1.00000000 0.52753082 0.75449383
1.00000000 0.52682084 0.86345169
1.00000000 0.52588679 0.98437207
1.00000000 0.68470858 0.15060454
1.00000000 0.68412121 0.21353562
1.00000000 0.68282851 0.30813559
1.00000000 0.68086747 0.41077565
1.00000000 0.67807381 0.52691825
1.00000000 0.67397672 0.64337131
1.00000000 0.64313568 0.75824054
1.00000000 0.64313568 0.86725596
1.00000000 0.64313568 0.98763898
1.00000000 0.79445608 0.14334920
1.00000000 0.79390048 0.20902550
1.00000000 0.79267146 0.30579427
1.00000000 0.79078591 0.40975653
1.00000000 0.78802845 0.52683360
1.00000000 0.78490496 0.64522559
1.00000000 0.78273866 0.76399935
1.00000000 0.76401674 0.87063807
1.00000000 0.76401674 0.98887465
1.00000000 0.86874494 0.14339058
1.00000000 0.86882458 0.20921228
1.00000000 0.86901439 0.30614562
1.00000000 0.86935044 0.41025960
1.00000000 0.89622548 0.52749483
1.00000000 0.89277370 0.64604025
1.00000000 0.88926427 0.76496442
1.00000000 0.88870552 0.87817968
1.00000000 0.88011360 0.99055383
1.00000000 0.99357437 0.14344460
1.00000000 0.99357794 0.20945587
1.00000000 0.99358645 0.30660365
1.00000000 0.99360153 0.41091530
1.00000000 0.99363014 0.52835659
1.00000000 0.99368240 0.64710194
1.00000000 0.99379122 0.76622211
1.00000000 0.99408373 0.87962137
1.00000000 1.00000000 1.00000000
