luts/S9_Standard_to_c200.cube
# Film Emulation LUT
# Generated by lutex.py
# Grid: 33³
TITLE "Panasonic S9 Standard to Fujifilm Fujicolor C200 (Japan)"
LUT_3D_SIZE 33
DOMAIN_MIN 0.0 0.0 0.0
DOMAIN_MAX 1.0 1.0 1.0
0.04247796 0.03603611 0.03874771
0.00000000 0.00000000 0.00000000
0.00000000 0.00000000 0.00000000
0.00000000 0.00000000 0.00000000
0.00471647 0.00384619 0.03517029
0.01152081 0.00919867 0.10025667
0.01460697 0.01130777 0.14702460
0.01520690 0.01122339 0.18717936
0.01402399 0.00954488 0.22370949
0.01147850 0.00663025 0.25789423
0.00783202 0.00270226 0.29041436
0.00532824 0.00000000 0.32137834
0.00547110 0.00000000 0.35436654
0.00558405 0.00000000 0.38742145
0.00567257 0.00000000 0.41997615
0.00574277 0.00000000 0.45213030
0.00579893 0.00000000 0.48395697
0.00584414 0.00000000 0.51551120
0.00588066 0.00000000 0.54683541
0.00591019 0.00000000 0.57796300
0.00593400 0.00000000 0.60892067
0.00595307 0.00000000 0.63973015
0.00596818 0.00000000 0.67040933
0.00597993 0.00000000 0.70097316
0.00598880 0.00000000 0.73143422
0.00599516 0.00000000 0.76180329
0.00599934 0.00000000 0.79208962
0.00600159 0.00000000 0.82230125
0.00600213 0.00000000 0.84665343
0.00600158 0.00000000 0.87264739
0.00599953 0.00000000 0.90329473
0.00599571 0.00000000 0.93683523
0.00598999 0.00000000 0.97245931
0.14941817 0.18288792 0.14823612
0.04205643 0.05328586 0.05620355
0.00000000 0.00000000 0.00000000
0.00000000 0.00000000 0.00000000
0.00533274 0.00725777 0.03995485
0.01178363 0.01643417 0.10207882
0.01468768 0.02119068 0.14802068
0.01518703 0.02299756 0.18779999
0.01394521 0.02270916 0.22412597
0.01136343 0.02084226 0.25818838
0.00769362 0.01772145 0.29063040
0.00309932 0.01355763 0.32184384
0.00000000 0.01078935 0.35517835
0.00000000 0.01100707 0.38815168
0.00000000 0.01118099 0.42063926
0.00000000 0.01132241 0.45273723
0.00000000 0.01143924 0.48451621
0.00000000 0.01153716 0.51602948
0.00000000 0.01162035 0.54731817
0.00000000 0.01169191 0.57841467
0.00000000 0.01175420 0.60934495
0.00000000 0.01180905 0.64013012
0.00000000 0.01185786 0.67078762
0.00000000 0.01190176 0.70133199
0.00000000 0.01194163 0.73177553
0.00000000 0.01197819 0.76212874
0.00000000 0.01201202 0.79240066
0.00000000 0.01204359 0.82259916
0.00000000 0.01206773 0.84694156
0.00000000 0.01209239 0.87292581
0.00000000 0.01212024 0.90356255
0.00000000 0.01214948 0.93709241
0.00000000 0.01217940 0.97270615
0.11552372 0.21658240 0.13510151
0.12151665 0.21419257 0.17001391
0.04104386 0.08755388 0.09057928
0.00000000 0.00000000 0.00000000
0.00533633 0.01521279 0.03999838
0.01178417 0.03562761 0.10211155
0.01468573 0.04752141 0.14805246
0.01518294 0.05366005 0.18783247
0.01393920 0.05658519 0.22415975
0.01135565 0.05742666 0.25822375
0.00768411 0.05674457 0.29066751
0.00308811 0.05482761 0.32188278
0.00000000 0.05368234 0.35521778
0.00000000 0.05457861 0.38819339
0.00000000 0.05528341 0.42068329
0.00000000 0.05584793 0.45278362
0.00000000 0.05630733 0.48456498
0.00000000 0.05668637 0.51608064
0.00000000 0.05700298 0.54737174
0.00000000 0.05727037 0.57847066
0.00000000 0.05749846 0.60940336
0.00000000 0.05769482 0.64019097
0.00000000 0.05786530 0.67085090
0.00000000 0.05801449 0.70139770
0.00000000 0.05814603 0.73184368
0.00000000 0.05826284 0.76219932
0.00000000 0.05836725 0.79247368
0.00000000 0.05846119 0.82267461
0.00000000 0.05853051 0.84701898
0.00000000 0.05859900 0.87300532
0.00000000 0.05867339 0.90364455
0.00000000 0.05874798 0.93717712
0.00000000 0.05882055 0.97279375
0.09040929 0.24169029 0.13003523
0.09658883 0.24006504 0.15836075
0.09658763 0.24006549 0.21143592
0.03969765 0.11991775 0.12290977
0.00534104 0.02567206 0.04005551
0.01178488 0.05813728 0.10215448
0.01468317 0.07392973 0.14809415
0.01517758 0.08270823 0.18787508
0.01393133 0.08774611 0.22420407
0.01134543 0.09046538 0.25827014
0.00767164 0.09159577 0.29071618
0.00307341 0.09154664 0.32193386
0.00000000 0.09174877 0.35526951
0.00000000 0.09295666 0.38824811
0.00000000 0.09390586 0.42074106
0.00000000 0.09466550 0.45284448
0.00000000 0.09528300 0.48462896
0.00000000 0.09579182 0.51614776
0.00000000 0.09621614 0.54744202
0.00000000 0.09657379 0.57854411
0.00000000 0.09687817 0.60948000
0.00000000 0.09713949 0.64027079
0.00000000 0.09736565 0.67093390
0.00000000 0.09756285 0.70148390
0.00000000 0.09773599 0.73193307
0.00000000 0.09788900 0.76229191
0.00000000 0.09802505 0.79256946
0.00000000 0.09814673 0.82277359
0.00000000 0.09823598 0.84712054
0.00000000 0.09832364 0.87310964
0.00000000 0.09841816 0.90375211
0.00000000 0.09851208 0.93728825
0.00000000 0.09860251 0.97290867
0.06986937 0.26393045 0.12962439
0.07623874 0.26280442 0.15295513
0.07623751 0.26280481 0.19801991
0.03817598 0.15136555 0.12231198
0.03800870 0.15131044 0.15417130
0.01178577 0.07968030 0.10220823
0.01467995 0.09893471 0.14814635
0.01517085 0.11000434 0.18792844
0.01392146 0.11676470 0.22425956
0.01133263 0.12090490 0.25832823
0.00765601 0.12329813 0.29077713
0.00305499 0.12444166 0.32199782
0.00000000 0.12549462 0.35533429
0.00000000 0.12697892 0.38831663
0.00000000 0.12814506 0.42081340
0.00000000 0.12907802 0.45292069
0.00000000 0.12983610 0.48470907
0.00000000 0.13046044 0.51623182
0.00000000 0.13098079 0.54753003
0.00000000 0.13141906 0.57863609
0.00000000 0.13179173 0.60957596
0.00000000 0.13211135 0.64037074
0.00000000 0.13238763 0.67103785
0.00000000 0.13262820 0.70159185
0.00000000 0.13283908 0.73204502
0.00000000 0.13302509 0.76240786
0.00000000 0.13319015 0.79268941
0.00000000 0.13333742 0.82289754
0.00000000 0.13344520 0.84724772
0.00000000 0.13355080 0.87324027
0.00000000 0.13366433 0.90388682
0.00000000 0.13377674 0.93742742
0.00000000 0.13388450 0.97305258
0.05166035 0.28537305 0.13239074
0.05840920 0.28457375 0.15193999
0.05840788 0.28457410 0.19078434
0.05840618 0.28457457 0.23103187
0.03617569 0.18198723 0.15360896
0.03598729 0.18193632 0.18459431
0.03364923 0.18129246 0.21427951
0.01516275 0.13619971 0.18799268
0.01390957 0.14448824 0.22432637
0.01131721 0.14983601 0.25839817
0.00763719 0.15325084 0.29085051
0.00303280 0.15530936 0.32207483
0.00000000 0.15701636 0.35541228
0.00000000 0.15875876 0.38839913
0.00000000 0.16012751 0.42090049
0.00000000 0.16122239 0.45301244
0.00000000 0.16211186 0.48480554
0.00000000 0.16284425 0.51633302
0.00000000 0.16345445 0.54763599
0.00000000 0.16396823 0.57874684
0.00000000 0.16440490 0.60969150
0.00000000 0.16477922 0.64049108
0.00000000 0.16510259 0.67116301
0.00000000 0.16538397 0.70172182
0.00000000 0.16563041 0.73217981
0.00000000 0.16584760 0.76254747
0.00000000 0.16604012 0.79283384
0.00000000 0.16621169 0.82304678
0.00000000 0.16633709 0.84740084
0.00000000 0.16645983 0.87339755
0.00000000 0.16659157 0.90404901
0.00000000 0.16672176 0.93759498
0.00000000 0.16684629 0.97322585
0.03392351 0.30685444 0.13735408
0.04125189 0.30627327 0.15400820
0.04125042 0.30627362 0.18794212
0.04124850 0.30627408 0.22395226
0.04124613 0.30627465 0.26116919
0.03383206 0.21197620 0.18406090
0.03363107 0.21193050 0.21433226
0.03095998 0.21130838 0.24342790
0.01389563 0.17131162 0.22440460
0.01129914 0.17774520 0.25848007
0.00761513 0.18204943 0.29093645
0.00300680 0.18487646 0.32216501
0.00000000 0.18713449 0.35550362
0.00000000 0.18912327 0.38849575
0.00000000 0.19068545 0.42100249
0.00000000 0.19193496 0.45311990
0.00000000 0.19294994 0.48491851
0.00000000 0.19378555 0.51645154
0.00000000 0.19448164 0.54776009
0.00000000 0.19506760 0.57887654
0.00000000 0.19556550 0.60982682
0.00000000 0.19599219 0.64063203
0.00000000 0.19636067 0.67130959
0.00000000 0.19668116 0.70187404
0.00000000 0.19696173 0.73233767
0.00000000 0.19720887 0.76271097
0.00000000 0.19742779 0.79300298
0.00000000 0.19762276 0.82322156
0.00000000 0.19776517 0.84758018
0.00000000 0.19790444 0.87358176
0.00000000 0.19805380 0.90423895
0.00000000 0.19820125 0.93779122
0.00000000 0.19834209 0.97342878
0.01804147 0.32868622 0.14387241
0.02461677 0.32825420 0.15827428
0.02461538 0.32825456 0.18826679
0.02461358 0.32825504 0.22079343
0.02461134 0.32825563 0.25490745
0.02460867 0.32825633 0.28981485
0.03114169 0.24142876 0.21382410
0.03093770 0.24138904 0.24349493
0.02793183 0.24078476 0.27208193
0.01127839 0.20489630 0.25857405
0.00758981 0.21000744 0.29103504
0.00297696 0.21351412 0.32226849
0.00000000 0.21626029 0.35560842
0.00000000 0.21848702 0.38860661
0.00000000 0.22023606 0.42111953
0.00000000 0.22163495 0.45324320
0.00000000 0.22277121 0.48504813
0.00000000 0.22370658 0.51658753
0.00000000 0.22448568 0.54790249
0.00000000 0.22514144 0.57902536
0.00000000 0.22569857 0.60998208
0.00000000 0.22617591 0.64079375
0.00000000 0.22658805 0.67147777
0.00000000 0.22694642 0.70204869
0.00000000 0.22726006 0.73251880
0.00000000 0.22753623 0.76289857
0.00000000 0.22778077 0.79319706
0.00000000 0.22799846 0.82342212
0.00000000 0.22815739 0.84778596
0.00000000 0.22831276 0.87379312
0.00000000 0.22847928 0.90445691
0.00000000 0.22864355 0.93801639
0.00000000 0.22880032 0.97366163
0.00377327 0.35095357 0.15151700
0.00975610 0.35062596 0.16413624
0.00975480 0.35062634 0.19091544
0.00975312 0.35062684 0.22052679
0.00975102 0.35062747 0.25201949
0.00974852 0.35062821 0.28456625
0.02810331 0.27041580 0.21319609
0.02810154 0.27041688 0.24300997
0.02790484 0.27038370 0.27216484
0.02456248 0.26979444 0.30030602
0.00756119 0.23731295 0.29114640
0.00294323 0.24144020 0.32238535
0.00000000 0.24463195 0.35572677
0.00000000 0.24709013 0.38873181
0.00000000 0.24902093 0.42125171
0.00000000 0.25056515 0.45338245
0.00000000 0.25181939 0.48519453
0.00000000 0.25285184 0.51674112
0.00000000 0.25371174 0.54806331
0.00000000 0.25443543 0.57919344
0.00000000 0.25505021 0.61015744
0.00000000 0.25557689 0.64097640
0.00000000 0.25603156 0.67166772
0.00000000 0.25642683 0.70224595
0.00000000 0.25677271 0.73272337
0.00000000 0.25707719 0.76311046
0.00000000 0.25734673 0.79341626
0.00000000 0.25758660 0.82364862
0.00000000 0.25776167 0.84801837
0.00000000 0.25793276 0.87403183
0.00000000 0.25811606 0.90470307
0.00000000 0.25829679 0.93827071
0.00000000 0.25846919 0.97392461
0.00000000 0.37247715 0.16184486
0.00000000 0.37288785 0.17187207
0.00000000 0.37288811 0.19577630
0.00000000 0.37288845 0.22270546
0.00000000 0.37288888 0.25175405
0.00000000 0.37288939 0.28209224
0.00000000 0.37288998 0.31319166
0.02471085 0.29899505 0.24242226
0.02470883 0.29899636 0.27170204
0.02453011 0.29897012 0.30040640
0.02084955 0.29839377 0.32815195
0.01683209 0.29776315 0.35553434
0.00000000 0.27240147 0.35585877
0.00000000 0.27508579 0.38887144
0.00000000 0.27719420 0.42139913
0.00000000 0.27888043 0.45353776
0.00000000 0.28024999 0.48535780
0.00000000 0.28137731 0.51691242
0.00000000 0.28231619 0.54824267
0.00000000 0.28310631 0.57938090
0.00000000 0.28377746 0.61035302
0.00000000 0.28435238 0.64118011
0.00000000 0.28484865 0.67187958
0.00000000 0.28528003 0.70246596
0.00000000 0.28565745 0.73295153
0.00000000 0.28598964 0.76334678
0.00000000 0.28628366 0.79366073
0.00000000 0.28654526 0.82390125
0.00000000 0.28673615 0.84827758
0.00000000 0.28692265 0.87429808
0.00000000 0.28712241 0.90497762
0.00000000 0.28731931 0.93855435
0.00000000 0.28750704 0.97421792
0.00000000 0.39414456 0.17318366
0.00000000 0.39452217 0.18192429
0.00000000 0.39452248 0.20306826
0.00000000 0.39452289 0.22733726
0.00000000 0.39452339 0.25391334
0.00000000 0.39452399 0.28199551
0.00000000 0.39452468 0.31104077
0.00000000 0.39452548 0.34068621
0.02096328 0.32721016 0.27115187
0.02096100 0.32721174 0.29996542
0.02081105 0.32719268 0.32827138
0.01679059 0.32662759 0.35566227
0.01190161 0.32593885 0.38585969
0.00000000 0.30257881 0.38902559
0.00000000 0.30486131 0.42156187
0.00000000 0.30668676 0.45370921
0.00000000 0.30816936 0.48553805
0.00000000 0.30938970 0.51710153
0.00000000 0.31040602 0.54844068
0.00000000 0.31126127 0.57958785
0.00000000 0.31198771 0.61056893
0.00000000 0.31260995 0.64140500
0.00000000 0.31314702 0.67211346
0.00000000 0.31361384 0.70270884
0.00000000 0.31402222 0.73320342
0.00000000 0.31438161 0.76360767
0.00000000 0.31469966 0.79393063
0.00000000 0.31498260 0.82418015
0.00000000 0.31518902 0.84856374
0.00000000 0.31539067 0.87459201
0.00000000 0.31560661 0.90528071
0.00000000 0.31581940 0.93886748
0.00000000 0.31602222 0.97454173
0.00000000 0.41631129 0.18472191
0.00000000 0.41665851 0.19245348
0.00000000 0.41665886 0.21137401
0.00000000 0.41665933 0.23342949
0.00000000 0.41665990 0.25790105
0.00000000 0.41666059 0.28403641
0.00000000 0.41666139 0.31129703
0.00000000 0.41666230 0.33930605
0.00000000 0.41666333 0.36780159
0.01685821 0.35509749 0.29945118
0.01685566 0.35509935 0.32785233
0.01674514 0.35508761 0.35580231
0.01185216 0.35446484 0.38600998
0.00636296 0.35376461 0.41677277
0.00000000 0.33209831 0.42174000
0.00000000 0.33406054 0.45389688
0.00000000 0.33565421 0.48573535
0.00000000 0.33696595 0.51730852
0.00000000 0.33805837 0.54865743
0.00000000 0.33897763 0.57981438
0.00000000 0.33975842 0.61080526
0.00000000 0.34042717 0.64165117
0.00000000 0.34100436 0.67236947
0.00000000 0.34150601 0.70297470
0.00000000 0.34194482 0.73347913
0.00000000 0.34233096 0.76389324
0.00000000 0.34267266 0.79422605
0.00000000 0.34297659 0.82448543
0.00000000 0.34319830 0.84887697
0.00000000 0.34341486 0.87491374
0.00000000 0.34364673 0.90561248
0.00000000 0.34387518 0.93921025
0.00000000 0.34409287 0.97489618
0.00000000 0.44152339 0.19779498
0.00000000 0.44183964 0.20463188
0.00000000 0.44184005 0.22153644
0.00000000 0.44184058 0.24152483
0.00000000 0.44184123 0.26398623
0.00000000 0.44184201 0.28823327
0.00000000 0.44184292 0.31374710
0.00000000 0.44184396 0.34014769
0.00000000 0.44184513 0.36716040
0.01185202 0.38588486 0.29882226
0.01184941 0.38588685 0.32731475
0.01184657 0.38588903 0.35535563
0.01179185 0.38588575 0.38619322
0.00629718 0.38525434 0.41696874
0.00029340 0.38456298 0.44766488
0.00000000 0.36418599 0.45412569
0.00000000 0.36590163 0.48597589
0.00000000 0.36731374 0.51756089
0.00000000 0.36848972 0.54892168
0.00000000 0.36947929 0.58009056
0.00000000 0.37031975 0.61109341
0.00000000 0.37103960 0.64195130
0.00000000 0.37166085 0.67268160
0.00000000 0.37220077 0.70329885
0.00000000 0.37267303 0.73381529
0.00000000 0.37308857 0.76424142
0.00000000 0.37345624 0.79458625
0.00000000 0.37378326 0.82485764
0.00000000 0.37402178 0.84925888
0.00000000 0.37425474 0.87530602
0.00000000 0.37450413 0.90601699
0.00000000 0.37474980 0.93962816
0.00000000 0.37498385 0.97532833
0.00000000 0.46791313 0.21143949
0.00000000 0.46820041 0.21753854
0.00000000 0.46820087 0.23274831
0.00000000 0.46820146 0.25095113
0.00000000 0.46820219 0.27163682
0.00000000 0.46820307 0.29418777
0.00000000 0.46820409 0.31811507
0.00000000 0.46820526 0.34304532
0.00000000 0.46820657 0.36869872
0.00000000 0.46820803 0.39486731
0.00621408 0.41728512 0.32670829
0.00621117 0.41728745 0.35483645
0.00620762 0.41729028 0.38576301
0.00620365 0.41729345 0.41718710
0.00021266 0.41666883 0.44789956
0.00000000 0.41566466 0.47797802
0.00000000 0.39666760 0.48624641
0.00000000 0.39818154 0.51784470
0.00000000 0.39944230 0.54921886
0.00000000 0.40050319 0.58040116
0.00000000 0.40140422 0.61141746
0.00000000 0.40217591 0.64228883
0.00000000 0.40284188 0.67303263
0.00000000 0.40342064 0.70366338
0.00000000 0.40392685 0.73419334
0.00000000 0.40437224 0.76463299
0.00000000 0.40476629 0.79499133
0.00000000 0.40511674 0.82527623
0.00000000 0.40537234 0.84968838
0.00000000 0.40562195 0.87574717
0.00000000 0.40588914 0.90647191
0.00000000 0.40615231 0.94009815
0.00000000 0.40640300 0.97581434
0.00000000 0.49484788 0.22533696
0.00000000 0.49510866 0.23083035
0.00000000 0.49510916 0.24462708
0.00000000 0.49510981 0.26130565
0.00000000 0.49511063 0.28044382
0.00000000 0.49511160 0.30149196
0.00000000 0.49511273 0.32399634
0.00000000 0.49511402 0.34759719
0.00000000 0.49511548 0.37201582
0.00000000 0.49511709 0.39703901
0.00000000 0.49511887 0.42250450
0.00003385 0.44864756 0.35426621
0.00003022 0.44865057 0.38528418
0.00002614 0.44865395 0.41678909
0.00002170 0.44865765 0.44814672
0.00000000 0.44759226 0.47824247
0.00000000 0.44670288 0.50829141
0.00000000 0.42894716 0.51815548
0.00000000 0.43029219 0.54954428
0.00000000 0.43142396 0.58074127
0.00000000 0.43238518 0.61177230
0.00000000 0.43320841 0.64265843
0.00000000 0.43391884 0.67341702
0.00000000 0.43453622 0.70406256
0.00000000 0.43507618 0.73460732
0.00000000 0.43555124 0.76506177
0.00000000 0.43597153 0.79543492
0.00000000 0.43634529 0.82573461
0.00000000 0.43661787 0.85015871
0.00000000 0.43688404 0.87623027
0.00000000 0.43716896 0.90697006
0.00000000 0.43744954 0.94061281
0.00000000 0.43771679 0.97634655
0.00000000 0.52224118 0.23944949
0.00000000 0.52247766 0.24443774
0.00000000 0.52247821 0.25704100
0.00000000 0.52247893 0.27240583
0.00000000 0.52247982 0.29018498
0.00000000 0.52248088 0.30989226
0.00000000 0.52248212 0.33111115
0.00000000 0.52248354 0.35350002
0.00000000 0.52248513 0.37678609
0.00000000 0.52248689 0.40075498
0.00000000 0.52248884 0.42523961
0.00000000 0.52249096 0.45011022
0.00000000 0.47938583 0.38456608
0.00000000 0.47938906 0.41601809
0.00000000 0.47939258 0.44732297
0.00000000 0.47939641 0.47850047
0.00000000 0.47848272 0.50859658
0.00000000 0.47770201 0.53863513
0.00000000 0.47704970 0.56864461
0.00000000 0.46225911 0.58111151
0.00000000 0.46328017 0.61215859
0.00000000 0.46415464 0.64306079
0.00000000 0.46490928 0.67383547
0.00000000 0.46556505 0.70449712
0.00000000 0.46613858 0.73505799
0.00000000 0.46664316 0.76552855
0.00000000 0.46708955 0.79591781
0.00000000 0.46748649 0.82623361
0.00000000 0.46777596 0.85067072
0.00000000 0.46805863 0.87675617
0.00000000 0.46836116 0.90751238
0.00000000 0.46865908 0.94117310
0.00000000 0.46894282 0.97692593
0.00000000 0.55002209 0.25374527
0.00000000 0.55023628 0.25830644
0.00000000 0.55023688 0.26989023
0.00000000 0.55023765 0.28411309
0.00000000 0.55023862 0.30069088
0.00000000 0.55023978 0.31919505
0.00000000 0.55024112 0.33924615
0.00000000 0.55024266 0.36052332
0.00000000 0.55024438 0.38276319
0.00000000 0.55024630 0.40575355
0.00000000 0.55024841 0.42932527
0.00000000 0.55025072 0.45334437
0.00000000 0.55025352 0.48056451
0.00000000 0.51013438 0.41545805
0.00000000 0.51013816 0.44672407
0.00000000 0.51014226 0.47786300
0.00000000 0.51014670 0.50889045
0.00000000 0.50935828 0.53898424
0.00000000 0.50866882 0.56901222
0.00000000 0.50808766 0.59901044
0.00000000 0.49410290 0.61257694
0.00000000 0.49502832 0.64349654
0.00000000 0.49582692 0.67428865
0.00000000 0.49652089 0.70496774
0.00000000 0.49712780 0.73554607
0.00000000 0.49766174 0.76603408
0.00000000 0.49813408 0.79644080
0.00000000 0.49855409 0.82677404
0.00000000 0.49886038 0.85122523
0.00000000 0.49915944 0.87732574
0.00000000 0.49947952 0.90809971
0.00000000 0.49979469 0.94177989
0.00000000 0.50009483 0.97755342
0.00000000 0.57813237 0.26819771
0.00000000 0.57832603 0.27239351
0.00000000 0.57832667 0.28309778
0.00000000 0.57832751 0.29632046
0.00000000 0.57832855 0.31183015
0.00000000 0.57832980 0.32924970
0.00000000 0.57833125 0.34823531
0.00000000 0.57833290 0.36848817
0.00000000 0.57833476 0.38975664
0.00000000 0.57833683 0.41183329
0.00000000 0.57833910 0.43454930
0.00000000 0.57834159 0.45776841
0.00000000 0.57834461 0.48415659
0.00000000 0.57834799 0.51175670
0.00000000 0.54089185 0.44630656
0.00000000 0.54089623 0.47741806
0.00000000 0.54090096 0.50841830
0.00000000 0.54090605 0.53931990
0.00000000 0.54022067 0.56940853
0.00000000 0.53960853 0.59942660
0.00000000 0.53908849 0.62941472
0.00000000 0.52584044 0.64396629
0.00000000 0.52668276 0.67477719
0.00000000 0.52741471 0.70547509
0.00000000 0.52805483 0.73607223
0.00000000 0.52861798 0.76657906
0.00000000 0.52911614 0.79700459
0.00000000 0.52955909 0.82735664
0.00000000 0.52988210 0.85182302
0.00000000 0.53019749 0.87793975
0.00000000 0.53053502 0.90873288
0.00000000 0.53086736 0.94243404
0.00000000 0.53118383 0.97822987
0.00000000 0.60652399 0.28278462
0.00000000 0.60669869 0.28666462
0.00000000 0.60669939 0.29660343
0.00000000 0.60670028 0.30894419
0.00000000 0.60670140 0.32349934
0.00000000 0.60670273 0.33993716
0.00000000 0.60670428 0.35794726
0.00000000 0.60670605 0.37725307
0.00000000 0.60670805 0.39761625
0.00000000 0.60671026 0.41883603
0.00000000 0.60671270 0.44074584
0.00000000 0.60671536 0.46320882
0.00000000 0.60671859 0.48880907
0.00000000 0.60672221 0.51565440
0.00000000 0.57165045 0.44603707
0.00000000 0.57165509 0.47713020
0.00000000 0.57166011 0.50811226
0.00000000 0.57166551 0.53899584
0.00000000 0.57167130 0.56979131
0.00000000 0.57107139 0.59987340
0.00000000 0.57052533 0.62988275
0.00000000 0.57005818 0.65986241
0.00000000 0.55748576 0.67530168
0.00000000 0.55825549 0.70601977
0.00000000 0.55892864 0.73663711
0.00000000 0.55952083 0.76716415
0.00000000 0.56004467 0.79760987
0.00000000 0.56051046 0.82798212
0.00000000 0.56085011 0.85246480
0.00000000 0.56118173 0.87859896
0.00000000 0.56153663 0.90941265
0.00000000 0.56188605 0.94313634
0.00000000 0.56221878 0.97895611
0.00000000 0.63515723 0.29748747
0.00000000 0.63531439 0.30109205
0.00000000 0.63531513 0.31035946
0.00000000 0.63531609 0.32191783
0.00000000 0.63531727 0.33561600
0.00000000 0.63531869 0.35116206
0.00000000 0.63532035 0.36827644
0.00000000 0.63532224 0.38670436
0.00000000 0.63532436 0.40622155
0.00000000 0.63532672 0.42663529
0.00000000 0.63532931 0.44778278
0.00000000 0.63533214 0.46952802
0.00000000 0.63533559 0.49437819
0.00000000 0.63533945 0.52050370
0.00000000 0.63534367 0.54727117
0.00000000 0.60241667 0.47697298
0.00000000 0.60242197 0.50794436
0.00000000 0.60242768 0.53881740
0.00000000 0.60243380 0.56960245
0.00000000 0.60244034 0.60030821
0.00000000 0.60191184 0.63038338
0.00000000 0.60142269 0.66038565
0.00000000 0.60100160 0.69035876
0.00000000 0.60063708 0.72030353
0.00000000 0.58975667 0.73724132
0.00000000 0.59037775 0.76778997
0.00000000 0.59092715 0.79825730
0.00000000 0.59141564 0.82865115
0.00000000 0.59177184 0.85315127
0.00000000 0.59211962 0.87930407
0.00000000 0.59249179 0.91013976
0.00000000 0.59285822 0.94388755
0.00000000 0.59320711 0.97973293
0.00000000 0.66399915 0.31229078
0.00000000 0.66414002 0.31565322
0.00000000 0.66414080 0.32432764
0.00000000 0.66414182 0.33518808
0.00000000 0.66414308 0.34811361
0.00000000 0.66414458 0.36284706
0.00000000 0.66414634 0.37913697
0.00000000 0.66414834 0.39674941
0.00000000 0.66415059 0.41547444
0.00000000 0.66415309 0.43512833
0.00000000 0.66415584 0.45555320
0.00000000 0.66415885 0.47661505
0.00000000 0.66416250 0.50074857
0.00000000 0.66416659 0.52618456
0.00000000 0.66417107 0.55230405
0.00000000 0.66417593 0.57900808
0.00000000 0.63318509 0.50789344
0.00000000 0.63319110 0.53876225
0.00000000 0.63319755 0.56954319
0.00000000 0.63320444 0.60024491
0.00000000 0.63321177 0.63087479
0.00000000 0.63274334 0.66094346
0.00000000 0.63230355 0.69094059
0.00000000 0.63192283 0.72090929
0.00000000 0.63159162 0.75085054
0.00000000 0.62119504 0.76845711
0.00000000 0.62176984 0.79894748
0.00000000 0.62228092 0.82936436
0.00000000 0.62265359 0.85388307
0.00000000 0.62301743 0.88005574
0.00000000 0.62340680 0.91091488
0.00000000 0.62379014 0.94468836
0.00000000 0.62415513 0.98056105
0.00000000 0.69302230 0.32718156
0.00000000 0.69314799 0.33032964
0.00000000 0.69314882 0.33847704
0.00000000 0.69314989 0.34871176
0.00000000 0.69315122 0.36093801
0.00000000 0.69315281 0.37492885
0.00000000 0.69315466 0.39045820
0.00000000 0.69315678 0.40731184
0.00000000 0.69315916 0.42529401
0.00000000 0.69316180 0.44423049
0.00000000 0.69316471 0.46396916
0.00000000 0.69316788 0.48437903
0.00000000 0.69317174 0.50782611
0.00000000 0.69317607 0.53259954
0.00000000 0.69318079 0.55809499
0.00000000 0.69318593 0.58421212
0.00000000 0.69319148 0.61086514
0.00000000 0.66395490 0.53881329
0.00000000 0.66396167 0.56959551
0.00000000 0.66396891 0.60029860
0.00000000 0.66397661 0.63092992
0.00000000 0.66398479 0.66149582
0.00000000 0.66356718 0.69155897
0.00000000 0.66317048 0.72155311
0.00000000 0.66282537 0.75151972
0.00000000 0.66252378 0.78145986
0.00000000 0.65257817 0.79968099
0.00000000 0.65311171 0.83012234
