luts/S9_Standard_to_5219.cube
# Film Emulation LUT
# Generated by lutex.py
# Grid: 17³
TITLE "Panasonic S9 Standard to Kodak Vision3 5219 (500T)"
LUT_3D_SIZE 9
DOMAIN_MIN 0.0 0.0 0.0
DOMAIN_MAX 1.0 1.0 1.0
0.02805247 0.03128672 0.02323590
0.03473190 0.04375988 0.11132696
0.05180245 0.07085900 0.21713243
0.07417215 0.10356975 0.32040551
0.10538812 0.14716000 0.44610712
0.14030936 0.19462705 0.57708050
0.17746591 0.24440397 0.71149936
0.21618942 0.29585350 0.84882725
0.25608412 0.34859556 0.98864675
0.03644055 0.12711482 0.03161288
0.03670875 0.12722151 0.11218190
0.05179052 0.14174600 0.21707123
0.07415233 0.16116662 0.32032094
0.10535881 0.19190718 0.44599412
0.14027049 0.22970555 0.57693785
0.17741749 0.27243900 0.71132622
0.21613140 0.31871961 0.84862287
0.25601642 0.36759902 0.98841046
0.05516437 0.23502905 0.05115751
0.05538104 0.23508500 0.12101884
0.05538104 0.23508500 0.21791923
0.07410359 0.25028533 0.32011291
0.10528673 0.27022034 0.44571615
0.14017489 0.29711950 0.57658694
0.17729838 0.33002912 0.71090031
0.21598867 0.36793438 0.84812013
0.25584986 0.40986094 0.98782920
0.07817200 0.33797211 0.07510115
0.07833971 0.33800901 0.13395163
0.07833971 0.33800901 0.22499527
0.07833971 0.33800901 0.32077115
0.10517164 0.35773476 0.44527230
0.14002225 0.37742581 0.57602662
0.17710820 0.40265032 0.71022023
0.21576077 0.43299930 0.84731736
0.25558392 0.46788569 0.98690104
0.10918641 0.46115777 0.10687409
0.10931354 0.46118335 0.15437534
0.10931354 0.46118335 0.23703955
0.10931354 0.46118335 0.32857534
0.10931354 0.46118335 0.44537732
0.13974935 0.48374520 0.57502463
0.17676816 0.50251679 0.70900408
0.21535327 0.52583739 0.84588180
0.25510839 0.55351712 0.98524128
0.14311656 0.58771634 0.14130525
0.14321651 0.58773558 0.17967340
0.14321651 0.58773558 0.25327540
0.14321651 0.58773558 0.33945438
0.14321651 0.58773558 0.45241366
0.14321651 0.58773558 0.57433196
0.17627650 0.61316638 0.70724528
0.21476404 0.63134792 0.84380570
0.25442074 0.65337272 0.98284091
0.17869553 0.71617099 0.17721865
0.17877720 0.71618635 0.20853680
0.17877720 0.71618635 0.27332125
0.17877720 0.71618635 0.35340913
0.17877720 0.71618635 0.46163626
0.17877720 0.71618635 0.58041309
0.17877720 0.71618635 0.70547982
0.21397138 0.70157560 0.84101227
0.25349564 0.76230567 0.97961117
0.21523340 0.84567102 0.21397876
0.21530155 0.84567831 0.23988059
0.21529806 0.84566346 0.29658643
0.21529220 0.84563849 0.37021936
0.21528128 0.84559206 0.47295428
0.21526499 0.84552273 0.58785506
0.21524252 0.84542710 0.71006821
0.21521303 0.84530162 0.83737627
0.25211959 0.82795666 0.97471211
0.29596170 0.96699846 0.29503572
0.29629032 0.96695146 0.31269996
0.29696456 0.96678196 0.35449440
0.29809321 0.96649711 0.41353569
0.30017864 0.96596711 0.50152903
0.30326000 0.96517526 0.60424962
0.30744785 0.96408221 0.71594089
0.31283807 0.96264650 0.83329948
0.31949642 0.96082770 0.95409923
0.12093229 0.04357317 0.03082305
0.12111904 0.03932436 0.11192943
0.11896293 0.05461510 0.21715633
0.12025603 0.07633881 0.32040820
0.12262488 0.10699191 0.44609335
0.14152525 0.15543537 0.57705375
0.17841522 0.21533099 0.71146126
0.21695000 0.27309969 0.84877857
0.25670665 0.33014012 0.98858790
0.12126504 0.12711475 0.03160966
0.12408871 0.12981451 0.11509129
0.13100210 0.14202059 0.21880939
0.14234368 0.16140465 0.32141895
0.16129451 0.19210063 0.44671216
0.18586854 0.22985893 0.57744005
0.21485231 0.27255930 0.71169201
0.24723568 0.31881325 0.84889491
0.28220894 0.36767110 0.98861384
0.12957974 0.23502902 0.05115478
0.13222652 0.23644423 0.12372524
0.13268312 0.23669024 0.21965077
0.14231676 0.25043219 0.32121177
0.16124711 0.27035192 0.44643475
0.18579729 0.29723342 0.57708953
0.21475569 0.33012501 0.71126639
0.24711309 0.36801313 0.84839238
0.28206022 0.40992403 0.98803274
0.14185130 0.33797209 0.07509909
0.14426832 0.33889674 0.13640006
0.14469280 0.33906044 0.22666629
0.14469280 0.33906044 0.32186855
0.16117146 0.35782902 0.44599179
0.18568357 0.37751126 0.57652983
0.21460145 0.40272562 0.71058677
0.24691740 0.43306376 0.84758995
0.28182280 0.46793919 0.98710484
0.16142907 0.46115775 0.10687257
0.16354129 0.46178708 0.15649043
0.16392373 0.46190182 0.23861552
0.16392373 0.46190182 0.32964171
0.16392373 0.46190182 0.44609824
0.18548036 0.48380802 0.57552896
0.21432580 0.50257391 0.70937143
0.24656762 0.52588790 0.84615500
0.28139839 0.55356040 0.98544553
0.18592910 0.58771632 0.14130409
0.18773968 0.58817690 0.18146728
0.18808152 0.58826435 0.25473707
0.18808152 0.58826435 0.34047993
0.18808152 0.58826435 0.45312064
0.18808152 0.58826435 0.57483915
0.21392755 0.61321071 0.70761382
0.24606214 0.63138790 0.84407978
0.28078495 0.65340770 0.98304582
0.21411950 0.71617099 0.17721774
0.21566065 0.71652527 0.21004996
0.21596760 0.71659615 0.27466015
0.21596760 0.71659615 0.35438610
0.21596760 0.71659615 0.46232567
0.21596760 0.71659615 0.58091351
0.21596760 0.71659615 0.70585209
0.24538272 0.70237468 0.84128755
0.27996022 0.76233430 0.97981698
0.24497264 0.84565181 0.21397228
0.24628473 0.84592852 0.24115254
0.24656673 0.84597450 0.29779760
0.24656748 0.84594962 0.37113520
0.24656889 0.84590333 0.47361316
0.24657098 0.84583421 0.58833495
0.24657387 0.84573888 0.71042233
0.24657767 0.84561379 0.83763842
0.27886610 0.82858505 0.97489869
0.31741686 0.96677943 0.29590968
0.31898214 0.96704204 0.31478365
0.31993332 0.96695763 0.35654600
0.32095800 0.96667610 0.41518161
0.32285307 0.96615229 0.50274356
0.32565725 0.96536969 0.60511409
0.32947602 0.96428946 0.71653148
0.33440372 0.96287065 0.83367252
0.34050936 0.96107336 0.95429419
0.22776560 0.06850670 0.04963286
0.22786185 0.05665683 0.12041755
0.22786185 0.05665683 0.21769435
0.23380257 0.07632535 0.32034943
0.22439814 0.10697183 0.44601482
0.22624572 0.14149848 0.57695461
0.22876302 0.17838176 0.71134093
0.23201328 0.21690983 0.84863654
0.25665973 0.27552441 0.98842369
0.22776547 0.14050800 0.04962273
0.22923292 0.14149209 0.12304288
0.22965615 0.13768583 0.21952499
0.23553942 0.14763108 0.32147537
0.22785079 0.16595524 0.44671067
0.22966613 0.18988254 0.57739661
0.23214030 0.21827544 0.71161421
0.25015149 0.26402258 0.84878663
0.28470204 0.32288474 0.98847721
0.22815397 0.23502893 0.05114788
0.22961668 0.23644361 0.12370189
0.23345621 0.24015973 0.22338147
0.23938139 0.25080245 0.32396552
0.25062250 0.27068369 0.44824212
0.26638910 0.29752073 0.57835560
0.28647833 0.33036691 0.71218930
0.31051771 0.36821182 0.84907904
0.33801058 0.41008320 0.98854624
0.23509207 0.33797203 0.07509390
0.23650333 0.33889633 0.13637885
0.24021057 0.34133970 0.23025771
0.24074982 0.34169695 0.32461868
0.25057589 0.35806681 0.44780138
0.26631320 0.37772684 0.57779747
0.28636747 0.40291559 0.71151082
0.31036785 0.43322640 0.84827746
0.33781912 0.46807421 0.98761898
0.24693084 0.46115771 0.10686875
0.24826059 0.46178680 0.15647198
0.25175772 0.46345456 0.24198688
0.25228785 0.46370906 0.33231500
0.25228785 0.46370906 0.44791141
0.26617764 0.48396654 0.57679941
0.28616944 0.50271804 0.71029754
0.31010013 0.52601537 0.84684404
0.33747702 0.55366960 0.98596082
0.26294088 0.58771629 0.14130117
0.26417148 0.58817669 0.18145150
0.26741217 0.58939881 0.25784160
0.26793228 0.58959625 0.34305203
0.26793228 0.58959625 0.45489897
0.26793228 0.58959625 0.57611678
0.28588356 0.61332258 0.70854291
0.30971352 0.63148882 0.84477105
0.33698287 0.65349598 0.98356278
0.28277629 0.71617096 0.17721543
0.28389895 0.71652512 0.21003651
0.28685945 0.71746582 0.27747504
0.28737029 0.71762914 0.35683759
0.28737029 0.71762914 0.46406004
0.28737029 0.71762914 0.58217412
0.28737029 0.71762914 0.70679058
0.30919440 0.70438633 0.84198183
0.33631914 0.76240656 0.98033620
0.30601046 0.84560333 0.21395593
0.30702584 0.84587992 0.24112508
0.30970672 0.84661482 0.30029887
0.31023122 0.84673467 0.37343589
0.31025307 0.84668875 0.47527204
0.31028570 0.84662018 0.58954470
0.31033069 0.84652560 0.71131567
0.31038970 0.84640149 0.83830009
0.33573359 0.83016919 0.97536980
0.36493722 0.96622639 0.29810174
0.36626768 0.96649411 0.31679143
0.36979681 0.96721122 0.36099417
0.37136024 0.96714981 0.41936497
0.37291657 0.96664162 0.50584392
0.37522491 0.96588242 0.60732979
0.37837863 0.96483457 0.71805240
0.38246511 0.96345845 0.83464050
0.38755409 0.96171553 0.95480929
0.33045594 0.09824675 0.07328832
0.33051842 0.07866867 0.11886590
0.33051842 0.07866867 0.22470107
0.33051842 0.07866867 0.32080407
0.33781421 0.10693922 0.44588733
0.32498456 0.14145501 0.57679366
0.32664075 0.17832744 0.71114557
0.32879469 0.21684463 0.84840594
0.33148917 0.25658355 0.98815707
0.33045585 0.15777893 0.07328071
0.33140811 0.15865308 0.13546739
0.33168427 0.14892861 0.22646832
0.33168427 0.14892861 0.32193253
0.33894164 0.16593413 0.44658342
0.32723887 0.18985060 0.57723581
0.32888058 0.21823189 0.71141896
0.33101590 0.25009601 0.84855609
0.33368743 0.28463452 0.98821062
0.33045564 0.24823685 0.07326199
0.33140664 0.24876935 0.13539181
0.33391985 0.25017914 0.22980603
0.33452987 0.24701977 0.32468701
0.34169446 0.25714375 0.44828909
0.33270355 0.27246792 0.57832103
0.33431098 0.29206071 0.71209050
0.33640219 0.31558773 0.84892509
0.34258226 0.34610108 0.98834225
0.33085604 0.33797194 0.07508548
0.33180364 0.33889567 0.13634441
0.33430795 0.34133756 0.23019309
0.33846429 0.34539231 0.32845836
0.34565150 0.35845234 0.45071919
0.35659572 0.37807642 0.57984739
0.37103408 0.40322368 0.71300728
0.38896543 0.43349022 0.84939177
0.41024116 0.46829326 0.98845271
0.33890695 0.46115765 0.10686255
0.33982412 0.46178635 0.15644203
0.34224880 0.46345309 0.24192581
0.34627541 0.46623587 0.33602009
0.34683444 0.46662367 0.45083495
0.35649989 0.48422367 0.57885384
0.37088889 0.50295186 0.71179732
0.38876166 0.52622217 0.84796083
0.40997126 0.55384678 0.98679640
0.35012821 0.58771625 0.14129644
0.35100525 0.58817636 0.18142588
0.35332480 0.58939772 0.25778481
0.35717983 0.59144191 0.34657857
0.35775765 0.59174984 0.45776695
0.35775765 0.59174984 0.57818275
0.37067937 0.61350410 0.71004751
0.38846755 0.63165256 0.84589143
0.40958162 0.65363924 0.98440106
0.36451928 0.71617093 0.17721169
0.36534840 0.71652486 0.21001468
0.36754224 0.71746498 0.27742289
0.37119163 0.71904044 0.36014929
0.37179341 0.71930162 0.46685786
0.37179341 0.71930162 0.58421275
0.37179341 0.71930162 0.70831035
0.38807288 0.74477679 0.84310709
0.40905861 0.76252383 0.98117814
0.38216213 0.84552464 0.21392939
0.38294173 0.84580102 0.24108051
0.38500543 0.84653539 0.30022028
0.38844118 0.84776683 0.37645960
0.38913588 0.84796286 0.47795199
0.38919899 0.84789517 0.59150362
0.38928600 0.84780181 0.71276423
0.38940011 0.84767930 0.83937393
0.41057025 0.83255377 0.97563275
0.42874091 0.96532815 0.30161835
0.42984157 0.96560418 0.32001715
0.43276758 0.96634334 0.36364373
0.43767889 0.96760154 0.42513483
0.43996779 0.96750272 0.51097979
0.44178517 0.96678156 0.61102755
0.44427491 0.96578635 0.72061256
0.44751247 0.96447965 0.83629196
0.45156195 0.96282507 0.95571537
0.45404999 0.13763199 0.10503709
0.45409244 0.10904251 0.12822780
0.45409244 0.10904251 0.23679173
0.45409244 0.10904251 0.32883502
0.45409244 0.10904251 0.44610545
0.46157588 0.14137630 0.57650224
0.47221735 0.17822909 0.71079186
0.44742629 0.21672656 0.84798841
0.44927658 0.25644563 0.98767433
0.45404993 0.18483062 0.10503151
0.45469490 0.18556963 0.15544732
0.45488319 0.16732067 0.22475929
0.45488319 0.16732067 0.32993068
0.45488319 0.16732067 0.44680705
0.46234073 0.18979279 0.57694468
0.47295502 0.21815305 0.71106542
0.44895266 0.24999557 0.84813866
0.45079415 0.28451228 0.98772791
0.45404979 0.26550763 0.10501777
0.45469390 0.26599993 0.15538160
0.45640129 0.26730401 0.24160303
0.45682003 0.25802879 0.33260603
0.45682003 0.25802879 0.44852618
0.46421446 0.27242944 0.57803059
0.45122931 0.29200431 0.71173740
0.45267810 0.31551123 0.84850790
0.45449833 0.34248423 0.98785963
0.45404956 0.35443265 0.10499586
0.45469230 0.35478149 0.15527669
0.45639607 0.35570717 0.24139020
0.45924006 0.35725544 0.33586961
0.45988855 0.35342091 0.45125160
0.46718394 0.36343872 0.57975744
0.45712026 0.37754517 0.71280761
0.45854281 0.39509838 0.84909646
0.46033029 0.41596826 0.98806968
0.45442674 0.46115753 0.10685133
0.45506638 0.46178553 0.15638782
0.45676193 0.46345042 0.24181523
0.45959230 0.46623013 0.33585701
0.46479639 0.47134276 0.45554638
0.47206724 0.48468857 0.58254828
0.48234030 0.50337466 0.71450112
0.49539204 0.52659617 0.84997700
0.51126943 0.55416725 0.98830620
0.46232602 0.58771616 0.14128787
0.46294859 0.58817576 0.18137952
0.46459913 0.58939575 0.25768200
0.46735505 0.59143766 0.34642146
0.47242448 0.59520944 0.46233300
0.47297722 0.59562192 0.58189779
0.48218900 0.61383243 0.71275993
0.49517451 0.63194876 0.84791407
0.51097381 0.65389838 0.98591572
0.47265660 0.71617086 0.17720492
0.47325769 0.71652439 0.20997517
0.47485156 0.71746345 0.27732848
0.47751367 0.71903714 0.35999934
0.48241320 0.72195054 0.47123893
0.48302450 0.72231558 0.58787916
0.48302450 0.72231558 0.71105000
0.49488275 0.74501607 0.84513849
0.51057721 0.76273600 0.98269938
0.48599437 0.84538220 0.21388135
0.48657629 0.84565822 0.24099983
0.48811948 0.84639161 0.30007800
0.49069750 0.84762141 0.37624914
0.49544394 0.84990073 0.48200445
0.49627503 0.85020046 0.59503458
0.49640996 0.85010928 0.71538142
0.49709014 0.84973783 0.84107861
0.51505577 0.87564323 0.97590193
0.52030404 0.96370062 0.30785823
0.52117994 0.96399170 0.32575477
0.52351268 0.96477082 0.36837741
0.52744187 0.96609594 0.42877658
0.53478086 0.96861365 0.51911211
0.53752424 0.96861893 0.61803118
0.53934005 0.96771924 0.72552999
0.54170801 0.96653842 0.83953173
0.54468040 0.96504403 0.95757500
0.58165034 0.18029902 0.13969996
0.58168150 0.14473129 0.14277602
0.58168150 0.14277602 0.22901048
0.58168150 0.14277602 0.34014706
0.58168150 0.14277602 0.45381235
0.58168150 0.14277602 0.57637343
0.58936649 0.17808549 0.71027537
0.59961055 0.21655418 0.84737874
0.57227995 0.25624424 0.98696944
0.58165029 0.21796840 0.13969571
0.58212127 0.21858429 0.18055643
0.58225994 0.19085117 0.23180395
0.58225994 0.19085117 0.34119921
0.58225994 0.19085117 0.45449915
0.58225994 0.19085117 0.57682351
0.58992370 0.21803796 0.71054919
0.60015008 0.24984893 0.84752913
0.57339890 0.28433383 0.98702307
0.58165019 0.28858820 0.13968528
0.58212054 0.28903419 0.18050030
0.58336900 0.29021629 0.25772109
0.58367896 0.27318107 0.32974293
0.58367896 0.27318107 0.45618219
0.58367896 0.27318107 0.57792814
0.59129078 0.29192200 0.71122180
0.60147391 0.31539958 0.84789872
0.57613810 0.34234113 0.98715491
0.56640545 0.37929309 0.20326757
0.56741476 0.38053562 0.23092437
0.57008777 0.38381601 0.29060340
0.58545006 0.37383254 0.34689501
0.58593344 0.36402465 0.45885099
0.58593344 0.36402465 0.57968465
0.59346317 0.37748471 0.71229302
0.60357795 0.39501336 0.84848783
0.58047348 0.41585542 0.98736516
0.58164972 0.47928981 0.13963889
0.58211728 0.47952890 0.18025070
0.57007313 0.47749329 0.29031410
0.57451039 0.48163520 0.36641526
0.58927123 0.48319897 0.46267226
0.58993063 0.47932629 0.58280346
0.59731607 0.48889417 0.71420012
0.58680906 0.50171168 0.84953816
0.58811144 0.51732044 0.98774035
0.58197062 0.58771604 0.14127537
0.58243526 0.58817488 0.18131185
0.58366861 0.58939288 0.25753191
0.58573272 0.59143147 0.34619209
0.58954504 0.59519715 0.46201105
0.59517419 0.60075861 0.58679482
0.60251035 0.61431106 0.71669356
0.61234225 0.63238060 0.85085385
0.62446797 0.65427625 0.98812014
0.58973268 0.71617076 0.17719504
0.59018612 0.71652371 0.20991750
0.59138979 0.71746122 0.27719068
0.59340450 0.71903233 0.35978041
0.59712640 0.72194096 0.47092459
0.60262397 0.72625183 0.59261490
0.60317379 0.72668391 0.71502282
0.61211962 0.74536500 0.84809092
0.62416096 0.76304542 0.98491335
0.60058401 0.84517433 0.21381124
0.60103232 0.84544980 0.24088206
0.60222237 0.84618177 0.29987026
0.60421426 0.84740919 0.37594182
0.60789398 0.84968408 0.48157443
0.61350923 0.85293324 0.59957091
0.61518244 0.85287822 0.71935825
0.61635992 0.85214677 0.84303954
0.63081314 0.87553514 0.97678055
0.62409485 0.96132146 0.31669354
0.62480302 0.96163453 0.33390791
0.62669113 0.96247205 0.37514830
0.62987813 0.96389495 0.43401848
0.63585313 0.96659342 0.52266936
0.64488474 0.97074695 0.62710834
0.64793337 0.97102326 0.73334623
0.64960622 0.97002648 0.84483180
0.65171020 0.96876615 0.96079397
0.71168081 0.22484227 0.17604008
0.71170496 0.19813919 0.17848299
0.71170496 0.17848299 0.23829583
0.71170496 0.17848299 0.35476842
0.71170496 0.17848299 0.46398818
0.71170496 0.17848299 0.58370828
0.71170496 0.17848299 0.70968795
0.71963844 0.21632066 0.84655281
0.72962801 0.25597143 0.98601451
0.71168077 0.25540447 0.17603674
0.71204313 0.25591803 0.20950508
0.71215100 0.21839519 0.24096763
0.71215100 0.21839519 0.33136166
0.71215100 0.21839519 0.46465623
0.71215100 0.21839519 0.58415114
0.71215100 0.21839519 0.70997120
0.72006476 0.24965035 0.84670339
0.73004133 0.28409213 0.98606821
0.71168069 0.31673419 0.17602852
0.71204256 0.31713282 0.20945736
0.71300373 0.31818999 0.27783717
0.71324607 0.29224545 0.33571982
0.71324607 0.29224545 0.46629357
0.71324607 0.29224545 0.58523812
0.71324607 0.29224545 0.71066695
0.72111150 0.31524842 0.84707345
0.73105621 0.34214737 0.98620021
0.69328250 0.41246608 0.25386876
0.69405925 0.41358484 0.27587508
0.71300077 0.39356569 0.27765608
0.71460799 0.39492963 0.36117246
0.71498837 0.37780188 0.46889061
0.71498837 0.37780188 0.58696671
0.71498837 0.37780188 0.71177498
0.72277716 0.39489827 0.84766332
0.73267134 0.41570266 0.98641074
0.69328201 0.49971257 0.25385406
0.69405578 0.50059012 0.27578139
0.69610809 0.50291445 0.32597480
0.69953769 0.50678826 0.39395745
0.71756042 0.49876041 0.47258833
0.71808499 0.48922737 0.59003639
0.71808499 0.48922737 0.71374740
0.72573824 0.50162625 0.84871499
0.73554310 0.51720421 0.98678641
0.71168000 0.60757697 0.17595828
0.71203773 0.60775251 0.20904886
0.71298789 0.60821904 0.27686494
0.69950252 0.60480791 0.39333002
0.70578583 0.61046357 0.49089396
0.72189569 0.61260954 0.59362348
0.72252078 0.60867715 0.71657975
0.72998141 0.61796049 0.85022876
0.71913040 0.62992124 0.98732789
0.71191685 0.71617063 0.17718167
0.71227175 0.71652279 0.20983944
0.71321442 0.71745821 0.27700407
0.71479414 0.71902582 0.35948390
0.71771856 0.72192799 0.47049880
0.72205253 0.72622934 0.59205895
0.72796697 0.73209995 0.71990247
0.73556808 0.74577232 0.85200072
0.74544635 0.76325616 0.98765602
0.72105457 0.84361079 0.22055017
0.72141305 0.84385555 0.24686109
0.72237356 0.84451279 0.30464206
0.72401026 0.84563742 0.37967425
0.72712971 0.84779644 0.48428979
0.73196655 0.85118128 0.60110389
0.73897871 0.85616010 0.72502920
0.74060426 0.85647337 0.84679988
0.75276421 0.87651441 0.97888822
0.73429491 0.95809330 0.32818600
0.73488316 0.95843620 0.34456042
0.73645246 0.95935292 0.38406940
0.73910442 0.96090842 0.44098218
0.74408669 0.96385190 0.52743214
0.75164311 0.96836725 0.62997485
0.76228407 0.97482575 0.74284157
0.76558633 0.97565235 0.85306453
0.76700594 0.97470851 0.96609662
0.84379319 0.27070656 0.21354877
0.84381266 0.24966731 0.21554607
0.84381266 0.21554607 0.24970654
0.84381266 0.21554607 0.33726637
0.84381266 0.21554607 0.47672602
0.84381266 0.21554607 0.59300680
0.84381266 0.21554607 0.71662699
0.84390079 0.21601877 0.84548494
0.85201077 0.25561873 0.98477985
0.84379316 0.29595109 0.21354606
0.84408242 0.29638246 0.24133434
0.84416975 0.24904150 0.25224072
0.84416975 0.24904150 0.33901007
0.84416975 0.24904150 0.47737180
0.84416975 0.24904150 0.59344079
0.84416975 0.24904150 0.71690668
0.84424699 0.24939371 0.84563577
0.85234822 0.28377973 0.98483364
0.84379310 0.34916219 0.21353940
0.84408197 0.34951581 0.24129364
0.84484953 0.35045410 0.30152640
0.84504681 0.31487766 0.34325177
0.84504681 0.31487766 0.47895486
0.84504681 0.31487766 0.59450608
0.84504681 0.31487766 0.71759371
0.84509735 0.31505314 0.84600645
0.85317711 0.34189703 0.98496587
0.84379300 0.41797707 0.21352879
0.84408124 0.41826027 0.24122870
0.84484716 0.41901223 0.30136194
0.84613159 0.42027152 0.37864785
0.84644341 0.39472819 0.45984802
0.84644341 0.39472819 0.59620034
0.84644341 0.39472819 0.71868787
0.84645151 0.39474963 0.84659730
0.85449715 0.41550535 0.98517674
0.82219782 0.53054902 0.30564863
0.82281560 0.53136036 0.32350706
0.82445551 0.53351035 0.36604441
0.84612244 0.51619203 0.37816374
0.84849410 0.51798743 0.48501662
0.84892903 0.50164845 0.59920959
0.84892903 0.50164845 0.72063574
0.84892903 0.50164845 0.84771805
0.85684695 0.51705411 0.98555304
0.82219725 0.62398261 0.30563157
0.82281160 0.62463859 0.32339513
0.82444242 0.62637877 0.36572795
0.82717213 0.62928773 0.42578020
0.83221503 0.63464949 0.51574330
0.85197027 0.62752955 0.60268998
0.85249719 0.61814159 0.72343309
0.85249719 0.61814159 0.84934267
0.86022114 0.62980455 0.98609542
0.84395488 0.72359864 0.21349164
0.84425488 0.72394166 0.24076078
0.84505198 0.72485277 0.30010183
0.84638848 0.73891955 0.37653470
0.84886509 0.74001572 0.48258021
0.84013665 0.74152880 0.61975057
0.85756868 0.74388384 0.72624684
0.85851277 0.73973773 0.85116361
0.86628645 0.74851554 0.98612965
0.84302554 0.84022087 0.23752813
0.84333679 0.84051357 0.26164584
0.84417051 0.84129813 0.31575045
0.84559047 0.84263605 0.38748324
0.84829475 0.84518962 0.48901259
0.85248364 0.84915808 0.60346997
0.85855075 0.85493033 0.72555468
0.86700383 0.86301286 0.85266627
0.87364608 0.87511011 0.98283907
0.84751785 0.95391074 0.34232083
0.84802028 0.95429229 0.35772938
0.84936103 0.95531159 0.39520727
0.85162804 0.95703876 0.44976356
0.85589153 0.96029923 0.53349714
0.86236891 0.96528223 0.63365313
0.87151336 0.97237429 0.74451426
0.88386360 0.98205184 0.86261828
0.88746296 0.98389224 0.97452674
0.97773101 0.31757667 0.25193684
0.97774718 0.30045514 0.25361021
0.97774718 0.25361021 0.26315136
0.97774718 0.25361021 0.34658102
0.97774718 0.25361021 0.49203974
0.97774718 0.25361021 0.60435019
0.97774718 0.25361021 0.72516216
0.97774718 0.25361021 0.85188072
0.97803713 0.25517798 0.98323686
0.97773099 0.33878479 0.25193460
0.97796830 0.33915070 0.27532608
0.97804119 0.29752496 0.28206304
0.97804119 0.28206304 0.34826864
0.97804119 0.28206304 0.45868551
0.97804119 0.28206304 0.60477378
0.97804119 0.28206304 0.72543758
0.97804119 0.28206304 0.85204077
0.97831841 0.28338948 0.98329076
0.97773094 0.38510230 0.25192908
0.97796792 0.38541509 0.27529112
0.97859778 0.38624537 0.32829364
0.97876351 0.34064208 0.35237629
0.97876351 0.34064208 0.46149560
0.97876351 0.34064208 0.60581358
0.97876351 0.34064208 0.72611413
0.97876351 0.34064208 0.85243408
0.97900949 0.34158445 0.98342326
0.97773085 0.44734536 0.25192027
0.97796733 0.44760474 0.27523535
0.97859583 0.44829361 0.32814504
0.97965029 0.44944771 0.39915220
0.97991427 0.41466628 0.46593439
0.97991427 0.41466628 0.60746752
0.97991427 0.41466628 0.72719165
0.97991427 0.41466628 0.85306099
0.98011054 0.41525906 0.98363457
0.95289919 0.56608484 0.35838773
0.95340605 0.56682937 0.37322566
0.97859235 0.53816537 0.32787956
0.97964275 0.53907927 0.39869844
0.98159132 0.54077285 0.49997944
0.98196410 0.51661845 0.58956607
0.98196410 0.51661845 0.72911002
0.98196410 0.51661845 0.85417861
0.98207201 0.51686680 0.98401165
0.95289872 0.65321704 0.35837364
0.95340275 0.65383325 0.37313149
0.95474144 0.65546832 0.40927521
0.95698438 0.65820285 0.46239233
0.96113524 0.66324726 0.54476156
0.98445087 0.64552362 0.61375990
0.98491055 0.62969252 0.73186531
0.98491055 0.62969252 0.85578713
0.98526379 0.62965799 0.98447832
0.95459698 0.75058029 0.35903823
0.95511407 0.75109032 0.37364384
0.95648730 0.75244439 0.40944455
0.95878776 0.75471135 0.46211618
0.96304391 0.75890100 0.54388443
0.96934545 0.76509345 0.64272317
0.99081445 0.75834806 0.73446703
0.99111295 0.74973630 0.85745434
0.99082702 0.75082798 0.98307603
0.97371070 0.84725614 0.30177240
0.97400215 0.84762112 0.32020723
0.97478218 0.84859746 0.36391279
0.97610857 0.85025598 0.42550434
0.97862778 0.86631242 0.51715995
0.98251437 0.86914301 0.62416794
0.97555058 0.87369212 0.75866415
0.99587635 0.87951318 0.86369566
0.99678654 0.87626985 0.98119113
0.96296392 0.95036730 0.36480141
0.96340807 0.95080122 0.37890616
0.96459341 0.95195953 0.41358441
0.96659791 0.95391931 0.46480750
0.97036877 0.95760920 0.54461789
0.97610068 0.96322551 0.64129717
0.98419964 0.97117526 0.74925329
0.99515252 0.98194980 0.86493353
1.00000000 0.99763090 0.99559128
