luts/S9_Standard_to_leica_classic.cube
# Film Emulation LUT
# Generated by lutex.py
# Grid: 33³
TITLE "Panasonic S9 Standard to Leica Classic Look — Draft v1"
LUT_3D_SIZE 33
DOMAIN_MIN 0.0 0.0 0.0
DOMAIN_MAX 1.0 1.0 1.0
0.03274874 0.03534540 0.02236018
0.03256922 0.03516592 0.02702669
0.00000000 0.00000000 0.00000000
0.00000000 0.00000000 0.00000000
0.00000000 0.00000000 0.00000000
0.00000000 0.00000000 0.00000000
0.00000000 0.00000000 0.00000000
0.00000000 0.00000000 0.00000000
0.00000000 0.00000000 0.00000000
0.00000000 0.00000000 0.00000000
0.00000000 0.00000000 0.00000000
0.00000000 0.00040967 0.10766766
0.00000000 0.00078008 0.17659125
0.00000000 0.00106935 0.23133144
0.00000000 0.00129291 0.27905552
0.00000000 0.00146899 0.32290184
0.00000000 0.00161001 0.36432437
0.00000000 0.00172466 0.40412125
0.00000000 0.00181914 0.44277807
0.00000000 0.00189798 0.48061157
0.00000000 0.00196455 0.51783899
0.00000000 0.00202140 0.55461510
0.00000000 0.00207046 0.59105354
0.00000000 0.00211323 0.62723975
0.00000000 0.00215091 0.66323929
0.00000000 0.00218441 0.69910327
0.00000000 0.00221450 0.73487214
0.00000000 0.00224178 0.77057827
0.00000000 0.00226074 0.79739525
0.00000000 0.00227997 0.82639991
0.00000000 0.00230251 0.86277725
0.00000000 0.00232630 0.90403602
0.00000000 0.00235047 0.94893769
0.03249145 0.04197807 0.02210392
0.03231193 0.04180526 0.02677053
0.00000000 0.00000000 0.00000000
0.00000000 0.00000000 0.00000000
0.00000000 0.00000000 0.00000000
0.00000000 0.00000000 0.00000000
0.00000000 0.00000000 0.00000000
0.00000000 0.00000000 0.00000000
0.00000000 0.00000000 0.00000000
0.00000000 0.00000000 0.00000000
0.00000000 0.00000000 0.00000000
0.00000000 0.00150074 0.10767654
0.00000000 0.00285623 0.17659788
0.00000000 0.00391332 0.23133741
0.00000000 0.00472868 0.27906128
0.00000000 0.00536923 0.32290757
0.00000000 0.00588049 0.36433017
0.00000000 0.00629432 0.40412718
0.00000000 0.00663349 0.44278417
0.00000000 0.00691459 0.48061786
0.00000000 0.00714997 0.51784549
0.00000000 0.00734892 0.55462183
0.00000000 0.00751854 0.59106051
0.00000000 0.00766434 0.62724698
0.00000000 0.00779061 0.66324678
0.00000000 0.00790079 0.69911102
0.00000000 0.00799758 0.73488016
0.00000000 0.00808319 0.77058657
0.00000000 0.00814127 0.79740376
0.00000000 0.00819887 0.82640865
0.00000000 0.00826445 0.86278628
0.00000000 0.00833114 0.90404538
0.00000000 0.00839595 0.94894741
0.03090319 0.07392963 0.02052203
0.03072365 0.07381370 0.02518927
0.03051845 0.07368115 0.05410337
0.02994583 0.07108073 0.08284942
0.00000000 0.00000000 0.00000000
0.00000000 0.00000000 0.00000000
0.00000000 0.00000000 0.00000000
0.00000000 0.00000000 0.00000000
0.00000000 0.00000000 0.00000000
0.00000000 0.00000000 0.00000000
0.00000000 0.00000000 0.00000000
0.00000000 0.00824120 0.10773137
0.00000000 0.01567662 0.17663880
0.00000000 0.02147269 0.23137427
0.00000000 0.02594073 0.27909682
0.00000000 0.02944795 0.32294294
0.00000000 0.03224439 0.36436597
0.00000000 0.03450483 0.40416378
0.00000000 0.03635422 0.44282180
0.00000000 0.03788373 0.48065670
0.00000000 0.03916100 0.51788565
0.00000000 0.04023701 0.55466341
0.00000000 0.04113551 0.59110358
0.00000000 0.04189219 0.62729159
0.00000000 0.04253728 0.66329299
0.00000000 0.04309152 0.69915887
0.00000000 0.04357108 0.73492967
0.00000000 0.04398869 0.77063778
0.00000000 0.04426806 0.79745627
0.00000000 0.04454155 0.82646258
0.00000000 0.04484792 0.86284200
0.00000000 0.04515325 0.90410317
0.00000000 0.04544282 0.94900747
0.02878235 0.10429152 0.01840969
0.02860277 0.10420530 0.02307777
0.02839792 0.10410696 0.05236723
0.02839761 0.10410697 0.08194871
0.02788357 0.10084797 0.11035527
0.00000000 0.00000000 0.00000000
0.00000000 0.00000000 0.00000000
0.00000000 0.00000000 0.00000000
0.00000000 0.00000000 0.00000000
0.00000000 0.00000000 0.00000000
0.00000000 0.00000000 0.00000000
0.00000000 0.01725590 0.10780455
0.00000000 0.03280732 0.17669342
0.00000000 0.04471968 0.23142347
0.00000000 0.05288747 0.27914426
0.00000000 0.05873829 0.32299016
0.00000000 0.06311738 0.36441378
0.00000000 0.06649720 0.40421265
0.00000000 0.06916705 0.44287206
0.00000000 0.07131534 0.48070856
0.00000000 0.07307037 0.51793928
0.00000000 0.07452260 0.55471893
0.00000000 0.07573759 0.59116108
0.00000000 0.07676394 0.62735116
0.00000000 0.07763835 0.66335468
0.00000000 0.07838904 0.69922275
0.00000000 0.07903797 0.73499579
0.00000000 0.07960245 0.77070617
0.00000000 0.07997967 0.79752638
0.00000000 0.08034852 0.82653458
0.00000000 0.08076112 0.86291641
0.00000000 0.08117149 0.90418032
0.00000000 0.08155966 0.94908765
0.02608909 0.13389459 0.01572721
0.02590947 0.13382667 0.02039637
0.02570506 0.13374940 0.05010419
0.02570475 0.13374941 0.08035560
0.02570434 0.13374941 0.10937738
0.02531277 0.12990098 0.13754456
0.02221987 0.13760155 0.16445953
0.00000000 0.00000000 0.00000000
0.00000000 0.00000000 0.00000000
0.00000000 0.00000000 0.00000000
0.00000000 0.00000000 0.00000000
0.00000000 0.02872670 0.10789740
0.00000000 0.05314116 0.17676277
0.00000000 0.06826930 0.23148594
0.00000000 0.07836061 0.27920450
0.00000000 0.08558940 0.32305011
0.00000000 0.09099976 0.36447447
0.00000000 0.09517538 0.40427469
0.00000000 0.09847369 0.44293586
0.00000000 0.10112746 0.48077440
0.00000000 0.10329522 0.51800736
0.00000000 0.10508874 0.55478941
0.00000000 0.10658903 0.59123409
0.00000000 0.10785612 0.62742680
0.00000000 0.10893540 0.66343302
0.00000000 0.10986169 0.69930386
0.00000000 0.11066214 0.73507973
0.00000000 0.11135817 0.77079300
0.00000000 0.11182309 0.79761541
0.00000000 0.11227752 0.82662601
0.00000000 0.11278557 0.86301088
0.00000000 0.11329049 0.90427829
0.00000000 0.11376765 0.94918946
0.02280853 0.16290143 0.01245980
0.02262886 0.16284581 0.01713027
0.02242499 0.16278273 0.04725204
0.02242468 0.16278274 0.07837891
0.02242427 0.16278274 0.10788441
0.02242377 0.16278275 0.13650289
0.02221064 0.15837599 0.16448532
0.01856857 0.15562307 0.19118850
0.00000000 0.00000000 0.00000000
0.00000000 0.00000000 0.00000000
0.00000000 0.00000000 0.00000000
0.00000000 0.04265927 0.10801041
0.00000000 0.07256045 0.17684719
0.00000000 0.09039081 0.23156201
0.00000000 0.10228572 0.27927785
0.00000000 0.11080681 0.32312312
0.00000000 0.11718447 0.36454838
0.00000000 0.12210662 0.40435026
0.00000000 0.12599454 0.44301356
0.00000000 0.12912260 0.48085459
0.00000000 0.13167768 0.51809028
0.00000000 0.13379152 0.55487525
0.00000000 0.13555963 0.59132301
0.00000000 0.13705278 0.62751891
0.00000000 0.13832445 0.66352843
0.00000000 0.13941571 0.69940265
0.00000000 0.14035858 0.73518197
0.00000000 0.14117827 0.77089874
0.00000000 0.14172568 0.79772383
0.00000000 0.14226064 0.82673736
0.00000000 0.14285856 0.86312594
0.00000000 0.14345257 0.90439760
0.00000000 0.14401365 0.94931345
0.01892793 0.19141752 0.00859475
0.01874820 0.19137068 0.01326676
0.01854496 0.19131775 0.04372742
0.01854465 0.19131776 0.07598640
0.01854425 0.19131776 0.10609325
0.01854375 0.19131776 0.13508708
0.01854314 0.19131777 0.16339143
0.01854242 0.19131778 0.19121899
0.01434669 0.18369280 0.21774531
0.00000000 0.00000000 0.00000000
0.00000000 0.00000000 0.00000000
0.00000000 0.05698416 0.10814395
0.00000000 0.09121464 0.17694700
0.00000000 0.11163311 0.23165195
0.00000000 0.12525614 0.27936458
0.00000000 0.13501572 0.32320945
0.00000000 0.14232052 0.36463579
0.00000000 0.14795828 0.40443962
0.00000000 0.15241144 0.44310546
0.00000000 0.15599423 0.48094942
0.00000000 0.15892068 0.51818835
0.00000000 0.16134170 0.55497678
0.00000000 0.16336666 0.59142817
0.00000000 0.16507662 0.62762784
0.00000000 0.16653286 0.66364126
0.00000000 0.16778241 0.69951948
0.00000000 0.16886193 0.73530288
0.00000000 0.16980032 0.77102380
0.00000000 0.17042694 0.79785205
0.00000000 0.17103923 0.82686904
0.00000000 0.17172347 0.86326201
0.00000000 0.17240309 0.90453871
0.00000000 0.17304487 0.94946010
0.01443608 0.21951697 0.00412089
0.01425628 0.21947670 0.00879469
0.01405378 0.21943136 0.03940438
0.01405347 0.21943137 0.07313831
0.01405306 0.21943137 0.10398451
0.01405256 0.21943137 0.13342960
0.01405195 0.21943138 0.16203902
0.01405124 0.21943138 0.19008676
0.01405041 0.21943139 0.21772559
0.00953640 0.21132749 0.24415469
0.00414307 0.22566882 0.27037703
0.00000000 0.07092430 0.10829833
0.00000000 0.10934246 0.17706246
0.00000000 0.13226738 0.23175601
0.00000000 0.14756474 0.27946494
0.00000000 0.15852453 0.32330935
0.00000000 0.16672797 0.36473693
0.00000000 0.17305941 0.40454302
0.00000000 0.17806054 0.44321180
0.00000000 0.18208420 0.48105916
0.00000000 0.18537073 0.51830183
0.00000000 0.18808960 0.55509426
0.00000000 0.19036363 0.59154986
0.00000000 0.19228387 0.62775391
0.00000000 0.19391911 0.66377184
0.00000000 0.19532220 0.69965468
0.00000000 0.19653430 0.73544280
0.00000000 0.19758786 0.77116853
0.00000000 0.19829134 0.79800044
0.00000000 0.19897867 0.82702144
0.00000000 0.19974670 0.86341949
0.00000000 0.20050946 0.90470201
0.00000000 0.20122960 0.94962980
0.01026365 0.24706448 0.00000000
0.00914309 0.24721962 0.00370410
0.00894142 0.24718017 0.03432806
0.00894111 0.24718017 0.06978449
0.00894071 0.24718017 0.10153543
0.00894020 0.24718018 0.13151768
0.00893960 0.24718018 0.16048507
0.00893888 0.24718019 0.18878896
0.00893805 0.24718019 0.21662032
0.00893711 0.24718020 0.24409412
0.00412083 0.23858545 0.27043629
0.00000000 0.07569647 0.10847381
0.00000000 0.12708095 0.17719378
0.00000000 0.15244883 0.23187440
0.00000000 0.16937893 0.27957913
0.00000000 0.18150944 0.32342303
0.00000000 0.19058957 0.36485202
0.00000000 0.19759783 0.40466069
0.00000000 0.20313367 0.44333280
0.00000000 0.20758755 0.48118403
0.00000000 0.21122549 0.51843096
0.00000000 0.21423506 0.55522795
0.00000000 0.21675220 0.59168834
0.00000000 0.21887768 0.62789737
0.00000000 0.22068768 0.66392044
0.00000000 0.22224066 0.69980854
0.00000000 0.22358219 0.73560203
0.00000000 0.22474820 0.77133324
0.00000000 0.22552673 0.79816932
0.00000000 0.22628736 0.82719487
0.00000000 0.22713723 0.86359869
0.00000000 0.22798119 0.90488785
0.00000000 0.22877791 0.94982293
0.01009962 0.27351037 0.00000000
0.00538614 0.27429286 0.00000000
0.00319883 0.27460760 0.02862595
0.00319852 0.27460760 0.06586005
0.00319812 0.27460761 0.09871885
0.00319761 0.27460761 0.12933681
0.00319701 0.27460761 0.15872062
0.00319629 0.27460762 0.18731954
0.00319547 0.27460762 0.21537124
0.00319453 0.27460763 0.24301604
0.00319347 0.27460764 0.27034351
0.00000000 0.26530313 0.29630250
0.00000000 0.13198938 0.17734117
0.00000000 0.17227561 0.23200730
0.00000000 0.19080439 0.27970734
0.00000000 0.20408154 0.32355065
0.00000000 0.21402049 0.36498124
0.00000000 0.22169186 0.40479282
0.00000000 0.22775161 0.44346868
0.00000000 0.23262708 0.48132426
0.00000000 0.23660939 0.51857597
0.00000000 0.23990385 0.55537808
0.00000000 0.24265926 0.59184385
0.00000000 0.24498592 0.62805847
0.00000000 0.24696719 0.66408730
0.00000000 0.24866710 0.69998131
0.00000000 0.25013552 0.73578084
0.00000000 0.25141178 0.77151819
0.00000000 0.25226389 0.79835895
0.00000000 0.25309639 0.82738962
0.00000000 0.25402651 0.86379994
0.00000000 0.25495011 0.90509654
0.00000000 0.25582194 0.95003981
0.00997072 0.29977356 0.00000000
0.00529209 0.30047675 0.00000000
0.00000000 0.30125354 0.02530334
0.00000000 0.30125350 0.06329121
0.00000000 0.30125344 0.09672268
0.00000000 0.30125336 0.12762675
0.00000000 0.30125327 0.15716964
0.00000000 0.30125316 0.18585913
0.00000000 0.30125304 0.21395998
0.00000000 0.30125290 0.24162688
0.00000000 0.30125274 0.26895782
0.00000000 0.30125257 0.29601872
0.00000000 0.29077782 0.32553240
0.00000000 0.17635281 0.23215488
0.00000000 0.21191281 0.27984971
0.00000000 0.22631611 0.32369240
0.00000000 0.23709870 0.36512477
0.00000000 0.24542155 0.40493957
0.00000000 0.25199608 0.44361960
0.00000000 0.25728581 0.48148001
0.00000000 0.26160654 0.51873704
0.00000000 0.26518099 0.55554484
0.00000000 0.26817056 0.59201658
0.00000000 0.27069495 0.62823742
0.00000000 0.27284458 0.66427265
0.00000000 0.27468891 0.70017323
0.00000000 0.27628206 0.73597947
0.00000000 0.27766671 0.77172364
0.00000000 0.27859116 0.79856960
0.00000000 0.27949431 0.82760595
0.00000000 0.28050334 0.86402348
0.00000000 0.28150525 0.90532835
0.00000000 0.28245095 0.95028072
0.00986485 0.32585700 0.00000000
0.00521192 0.32649422 0.00000000
0.00000000 0.32719399 0.02506850
0.00000000 0.32719394 0.06279121
0.00000000 0.32719389 0.09606715
0.00000000 0.32719382 0.12683018
0.00000000 0.32719374 0.15623951
0.00000000 0.32719364 0.18480001
0.00000000 0.32719353 0.21277494
0.00000000 0.32719340 0.24031818
0.00000000 0.32719326 0.26752716
0.00000000 0.32719310 0.29446747
0.00000000 0.32719289 0.32552698
0.00000000 0.31594932 0.35598485
0.00000000 0.21469958 0.28000641
0.00000000 0.24826702 0.32384842
0.00000000 0.25987994 0.36528276
0.00000000 0.26884409 0.40510110
0.00000000 0.27592542 0.44378573
0.00000000 0.28162302 0.48165146
0.00000000 0.28627697 0.51891435
0.00000000 0.29012711 0.55572841
0.00000000 0.29334728 0.59220674
0.00000000 0.29606639 0.62843441
0.00000000 0.29838182 0.66447670
0.00000000 0.30036840 0.70038451
0.00000000 0.30208440 0.73619813
0.00000000 0.30357580 0.77194981
0.00000000 0.30457150 0.79880149
0.00000000 0.30554425 0.82784411
0.00000000 0.30663102 0.86426957
0.00000000 0.30771008 0.90558355
0.00000000 0.30872855 0.95054593
0.00976077 0.35597840 0.00000000
0.00512960 0.35655176 0.00000000
0.00000000 0.35717651 0.02487930
0.00000000 0.35717647 0.06236746
0.00000000 0.35717642 0.09550559
0.00000000 0.35717636 0.12614468
0.00000000 0.35717628 0.15543715
0.00000000 0.35717620 0.18388506
0.00000000 0.35717610 0.21175026
0.00000000 0.35717598 0.23918583
0.00000000 0.35717585 0.26628872
0.00000000 0.35717571 0.29312417
0.00000000 0.35717552 0.32406298
0.00000000 0.35717531 0.35605719
0.00000000 0.34548592 0.38682075
0.00000000 0.25333962 0.32404802
0.00000000 0.28606002 0.36548489
0.00000000 0.29575870 0.40530779
0.00000000 0.30342058 0.44399831
0.00000000 0.30958545 0.48187085
0.00000000 0.31462118 0.51914123
0.00000000 0.31878721 0.55596331
0.00000000 0.32227161 0.59245006
0.00000000 0.32521385 0.62868648
0.00000000 0.32771929 0.66473780
0.00000000 0.32986887 0.70065486
0.00000000 0.33172567 0.73647793
0.00000000 0.33333942 0.77223923
0.00000000 0.33441680 0.79909824
0.00000000 0.33546932 0.82814887
0.00000000 0.33664519 0.86458449
0.00000000 0.33781269 0.90591013
0.00000000 0.33891460 0.95088532
0.00966639 0.38714415 0.00000000
0.00505130 0.38766228 0.00000000
0.00000000 0.38822168 0.02475078
0.00000000 0.38822165 0.06205454
0.00000000 0.38822160 0.09508363
0.00000000 0.38822155 0.12562589
0.00000000 0.38822148 0.15482761
0.00000000 0.38822140 0.18318840
0.00000000 0.38822131 0.21096892
0.00000000 0.38822121 0.23832152
0.00000000 0.38822109 0.26534275
0.00000000 0.38822096 0.29209755
0.00000000 0.38822079 0.32294359
0.00000000 0.38822060 0.35484206
0.00000000 0.38822038 0.38692496
0.00000000 0.37608563 0.41800724
0.00000000 0.37324367 0.44932198
0.00000000 0.39978954 0.48090147
0.00000000 0.33175181 0.44424228
0.00000000 0.33839645 0.48212265
0.00000000 0.34382420 0.51940165
0.00000000 0.34831462 0.55623292
0.00000000 0.35207039 0.59272935
0.00000000 0.35524179 0.62897583
0.00000000 0.35794238 0.66503751
0.00000000 0.36025940 0.70096520
0.00000000 0.36226082 0.73679911
0.00000000 0.36400025 0.77257145
0.00000000 0.36516153 0.79943887
0.00000000 0.36629600 0.82849869
0.00000000 0.36756342 0.86494599
0.00000000 0.36882178 0.90628500
0.00000000 0.37000941 0.95127490
0.00957999 0.41847862 0.00000000
0.00497620 0.41894990 0.00000000
0.00000000 0.41945347 0.02467266
0.00000000 0.41945344 0.06183439
0.00000000 0.41945340 0.09477852
0.00000000 0.41945335 0.12524660
0.00000000 0.41945329 0.15437942
0.00000000 0.41945321 0.18267443
0.00000000 0.41945313 0.21039120
0.00000000 0.41945304 0.23768151
0.00000000 0.41945293 0.26464151
0.00000000 0.41945281 0.29133593
0.00000000 0.41945266 0.32211258
0.00000000 0.41945248 0.35393948
0.00000000 0.41945229 0.38595055
0.00000000 0.41945206 0.41814931
0.00000000 0.40681079 0.44952163
0.00000000 0.40409712 0.48111431
0.00000000 0.43202520 0.51295518
0.00000000 0.36727053 0.48240197
0.00000000 0.37308965 0.51969052
0.00000000 0.37790395 0.55653201
0.00000000 0.38193067 0.59303917
0.00000000 0.38533089 0.62929680
0.00000000 0.38822636 0.66536998
0.00000000 0.39071059 0.70130946
0.00000000 0.39285644 0.73715541
0.00000000 0.39472139 0.77294000
0.00000000 0.39596647 0.79981675
0.00000000 0.39718279 0.82888678
0.00000000 0.39854164 0.86534701
0.00000000 0.39989076 0.90670087
0.00000000 0.40116402 0.95170710
0.00949819 0.44996545 0.00000000
0.00490207 0.45039661 0.00000000
0.00000000 0.45085199 0.02463375
0.00000000 0.45085196 0.06168521
0.00000000 0.45085192 0.09456220
0.00000000 0.45085188 0.12497300
0.00000000 0.45085182 0.15405328
0.00000000 0.45085176 0.18229849
0.00000000 0.45085168 0.20996724
0.00000000 0.45085159 0.23721077
0.00000000 0.45085150 0.26412492
0.00000000 0.45085139 0.29077420
0.00000000 0.45085125 0.32149904
0.00000000 0.45085109 0.35327257
0.00000000 0.45085091 0.38523013
0.00000000 0.45085070 0.41737519
0.00000000 0.45085048 0.44970828
0.00000000 0.43765480 0.48134887
0.00000000 0.43504557 0.51320431
0.00000000 0.46437636 0.54529386
0.00000000 0.40242421 0.52000881
0.00000000 0.40756182 0.55686157
0.00000000 0.41185903 0.59338056
0.00000000 0.41548771 0.62965049
0.00000000 0.41857775 0.66573634
0.00000000 0.42122893 0.70168882
0.00000000 0.42351900 0.73754803
0.00000000 0.42550930 0.77334612
0.00000000 0.42683805 0.80023316
0.00000000 0.42813612 0.82931443
0.00000000 0.42958627 0.86578893
0.00000000 0.43102604 0.90715915
0.00000000 0.43238482 0.95218336
0.00941862 0.48159133 0.00000000
0.00482728 0.48198784 0.00000000
0.00000000 0.48240123 0.02462640
0.00000000 0.48240121 0.06159185
0.00000000 0.48240117 0.09441519
0.00000000 0.48240113 0.12478160
0.00000000 0.48240108 0.15382186
0.00000000 0.48240102 0.18202955
0.00000000 0.48240095 0.20966238
0.00000000 0.48240087 0.23687109
0.00000000 0.48240078 0.26375122
0.00000000 0.48240068 0.29036710
0.00000000 0.48240055 0.32105369
0.00000000 0.48240041 0.35278788
0.00000000 0.48240024 0.38470606
0.00000000 0.48240005 0.41681164
0.00000000 0.48239985 0.44910514
0.00000000 0.48239962 0.48158529
0.00000000 0.46861094 0.51347726
0.00000000 0.46608723 0.54558283
0.00000000 0.40010708 0.52035746
0.00000000 0.43729246 0.55722256
0.00000000 0.44185963 0.59375453
0.00000000 0.44571633 0.63003793
0.00000000 0.44900059 0.66613767
0.00000000 0.45181843 0.70210439
0.00000000 0.45425247 0.73797814
0.00000000 0.45636789 0.77379102
0.00000000 0.45778018 0.80068933
0.00000000 0.45915985 0.82978293
0.00000000 0.46070117 0.86627305
0.00000000 0.46223144 0.90766119
0.00000000 0.46367562 0.95270512
0.00933954 0.51334525 0.00000000
0.00475066 0.51371159 0.00000000
0.00000000 0.51408809 0.02464525
0.00000000 0.51408807 0.06154360
0.00000000 0.51408804 0.09432367
0.00000000 0.51408800 0.12465572
0.00000000 0.51408795 0.15366577
0.00000000 0.51408790 0.18184558
0.00000000 0.51408783 0.20945200
0.00000000 0.51408776 0.23663530
0.00000000 0.51408768 0.26349074
0.00000000 0.51408758 0.29008248
0.00000000 0.51408747 0.32074151
0.00000000 0.51408733 0.35244746
0.00000000 0.51408717 0.38433741
0.00000000 0.51408700 0.41641474
0.00000000 0.51408681 0.44867995
0.00000000 0.51408660 0.48113174
0.00000000 0.51408638 0.51376773
0.00000000 0.49967271 0.54589776
0.00000000 0.49721932 0.57824285
0.00000000 0.43368539 0.55761592
0.00000000 0.47193500 0.59416203
0.00000000 0.47601922 0.63046013
0.00000000 0.47949727 0.66657501
0.00000000 0.48248141 0.70255725
0.00000000 0.48505912 0.73844684
0.00000000 0.48729942 0.77427585
0.00000000 0.48879509 0.80118644
0.00000000 0.49025621 0.83029347
0.00000000 0.49188852 0.86680063
0.00000000 0.49350912 0.90820830
0.00000000 0.49503854 0.95327371
0.00925966 0.54521793 0.00000000
0.00467131 0.54555782 0.00000000
0.00000000 0.54590166 0.02468649
0.00000000 0.54590164 0.06153271
0.00000000 0.54590161 0.09427762
0.00000000 0.54590157 0.12458330
0.00000000 0.54590153 0.15357097
0.00000000 0.54590147 0.18173062
0.00000000 0.54590142 0.20931827
0.00000000 0.54590135 0.23648373
0.00000000 0.54590127 0.26332200
0.00000000 0.54590119 0.28989706
0.00000000 0.54590108 0.32053716
0.00000000 0.54590095 0.35222379
0.00000000 0.54590081 0.38409451
0.00000000 0.54590065 0.41615266
0.00000000 0.54590047 0.44839871
0.00000000 0.54590028 0.48083132
0.00000000 0.54590007 0.51344810
0.00000000 0.53316918 0.54623939
0.00000000 0.53083398 0.57860349
0.00000000 0.52843856 0.61117916
0.00000000 0.46698944 0.59460400
0.00000000 0.56378447 0.67692928
0.00000000 0.51006909 0.66704935
0.00000000 0.51321913 0.70304843
0.00000000 0.51594017 0.73895522
0.00000000 0.51830505 0.77480171
0.00000000 0.51988389 0.80172563
0.00000000 0.52142628 0.83084723
0.00000000 0.52314937 0.86737287
0.00000000 0.52486010 0.90880174
0.00000000 0.52647457 0.95389046
0.00917799 0.57720145 0.00000000
0.00458853 0.57751799 0.00000000
0.00000000 0.57783272 0.02474737
0.00000000 0.57783270 0.06155349
0.00000000 0.57783267 0.09426972
0.00000000 0.57783264 0.12455546
0.00000000 0.57783260 0.15352713
0.00000000 0.57783255 0.18167294
0.00000000 0.57783250 0.20924808
0.00000000 0.57783243 0.23640191
0.00000000 0.57783236 0.26322918
0.00000000 0.57783228 0.28979369
0.00000000 0.57783218 0.32042197
0.00000000 0.57783206 0.35209663
0.00000000 0.57783193 0.38395554
0.00000000 0.57783178 0.41600198
0.00000000 0.57783162 0.44823637
0.00000000 0.57783144 0.48065737
0.00000000 0.57783124 0.51326257
0.00000000 0.57783103 0.54604894
0.00000000 0.56436873 0.57899304
0.00000000 0.56208902 0.61158932
0.00000000 0.55974143 0.64438799
0.00000000 0.50006963 0.63141259
0.00000000 0.59660044 0.71056081
0.00000000 0.54403209 0.70357893
0.00000000 0.54689605 0.73950429
0.00000000 0.54938517 0.77536969
0.00000000 0.55104696 0.80230800
0.00000000 0.55267039 0.83144535
0.00000000 0.55448402 0.86799095
0.00000000 0.55628464 0.90944272
0.00000000 0.55798395 0.95455661
0.00909374 0.60928897 0.00000000
0.00450176 0.60958481 0.00000000
0.00000000 0.60987341 0.02482588
0.00000000 0.60987339 0.06160171
0.00000000 0.60987337 0.09429448
0.00000000 0.60987334 0.12456558
0.00000000 0.60987330 0.15352654
0.00000000 0.60987326 0.18166377
0.00000000 0.60987320 0.20923162
0.00000000 0.60987315 0.23637903
0.00000000 0.60987308 0.26320046
0.00000000 0.60987301 0.28975958
0.00000000 0.60987291 0.32038197
0.00000000 0.60987280 0.35205085
0.00000000 0.60987268 0.38390417
0.00000000 0.60987254 0.41594517
0.00000000 0.60987239 0.44817423
0.00000000 0.60987222 0.48058998
0.00000000 0.60987203 0.51319000
0.00000000 0.60987183 0.54597123
0.00000000 0.60987161 0.57893029
0.00000000 0.59566702 0.61203068
0.00000000 0.59343251 0.64485161
0.00000000 0.59112436 0.67786686
0.00000000 0.53296525 0.66811285
0.00000000 0.62951560 0.74445216
0.00000000 0.57792673 0.74009506
0.00000000 0.58053968 0.77598080
0.00000000 0.58228416 0.80293460
0.00000000 0.58398838 0.83208889
0.00000000 0.58589227 0.86865598
0.00000000 0.58778251 0.91013239
0.00000000 0.58956639 0.95527337
0.00900632 0.64147455 0.00000000
0.00441055 0.64175191 0.00000000
0.00000000 0.64201694 0.02492056
0.00000000 0.64201692 0.06167419
0.00000000 0.64201690 0.09434777
0.00000000 0.64201687 0.12460867
0.00000000 0.64201683 0.15356337
0.00000000 0.64201679 0.18169648
0.00000000 0.64201674 0.20926149
0.00000000 0.64201669 0.23640690
0.00000000 0.64201663 0.26322691
0.00000000 0.64201656 0.28978502
0.00000000 0.64201647 0.32040662
0.00000000 0.64201637 0.35207500
0.00000000 0.64201625 0.38392806
0.00000000 0.64201612 0.41596899
0.00000000 0.64201598 0.44819813
0.00000000 0.64201582 0.48061409
0.00000000 0.64201565 0.51321441
0.00000000 0.64201546 0.54599602
0.00000000 0.64201526 0.57895553
0.00000000 0.64201504 0.61208938
0.00000000 0.62705734 0.64534876
0.00000000 0.62485954 0.67838796
0.00000000 0.62258382 0.71161433
0.00000000 0.56570739 0.70476168
0.00000000 0.66252721 0.77860347
0.00000000 0.61176816 0.77663603
