luts/S9_Standard_to_5207.cube
# Film Emulation LUT
# Generated by lutex.py
# Grid: 33³
TITLE "Panasonic S9 Standard to Kodak Vision3 250D (5207)"
LUT_3D_SIZE 5
DOMAIN_MIN 0.0 0.0 0.0
DOMAIN_MAX 1.0 1.0 1.0
0.04744154 0.04829062 0.04489573
0.00467239 0.02458555 0.16418018
0.00000000 0.11408258 0.46642437
0.00000000 0.20132352 0.73648397
0.00000000 0.28543036 0.99663698
0.05377739 0.27323895 0.05141197
0.05380116 0.27324401 0.26960263
0.00000000 0.27433299 0.46621257
0.00000000 0.32723188 0.73619583
0.00000000 0.38383335 0.99626664
0.06910801 0.50486369 0.06708006
0.06912846 0.50486618 0.27292741
0.06912846 0.50486618 0.50396267
0.00000000 0.52416643 0.73539544
0.00000000 0.56207314 0.99523798
0.09296170 0.75100605 0.09127811
0.09297874 0.75100764 0.27923031
0.09297874 0.75100764 0.50624636
0.09329763 0.75103740 0.75394681
0.00000000 0.78241603 0.99324349
0.13547248 0.99438264 0.13426184
0.13693093 0.99425105 0.29475614
0.14098175 0.99386979 0.51309044
0.14865297 0.99311648 0.75613659
0.16689593 0.99150655 1.00000000
0.27048913 0.05443044 0.05129979
0.27049594 0.05446175 0.26965289
0.20766801 0.00000000 0.46645073
0.14904228 0.00000000 0.73644812
0.00000000 0.11020331 0.99656036
0.27051700 0.27323893 0.05140285
0.27179326 0.27450046 0.27084654
0.23415492 0.26237176 0.47954770
0.20372303 0.28945435 0.75042875
0.24165984 0.36920681 1.00000000
0.27412551 0.50486368 0.06707253
0.27537947 0.50546087 0.27415076
0.27539198 0.50546684 0.50450881
0.20388132 0.51832380 0.74961578
0.23552900 0.55439527 1.00000000
0.28095504 0.75100604 0.09127227
0.28216829 0.75136318 0.28041592
0.28218611 0.75136843 0.50678940
0.28228408 0.75139734 0.75422359
0.22312116 0.78172523 1.00000000
0.29778134 0.99396966 0.13872966
0.29990340 0.99418193 0.29804296
0.30156490 0.99382807 0.51451853
0.30476217 0.99311732 0.75669233
0.31336787 0.99152708 1.00000000
0.50017149 0.06937280 0.06674919
0.50017474 0.06939918 0.27311442
0.50021824 0.06975165 0.50445847
0.50362820 0.09404996 0.75616217
0.40961998 0.00000000 0.99625485
0.50017146 0.27670824 0.06672378
0.50077667 0.27795059 0.27426216
0.50083640 0.27807294 0.50488231
0.43896549 0.20751799 0.75020073
0.40659609 0.24304065 1.00000000
0.50021905 0.50486366 0.06705165
0.50082282 0.50546044 0.27406168
0.50251082 0.50712898 0.50602046
0.47319079 0.50295471 0.74974422
0.48551417 0.54542193 1.00000000
0.50353733 0.75100603 0.09125606
0.50413347 0.75136292 0.28032916
0.50581031 0.75236847 0.50829249
0.50585453 0.75239502 0.75499098
0.48043269 0.77537930 1.00000000
0.51233486 0.99282242 0.15042983
0.51348156 0.99309909 0.30296626
0.51690244 0.99395688 0.51902473
0.51828451 0.99336447 0.75858091
0.52338546 0.99159913 1.00000000
0.74425030 0.09274510 0.09066277
0.74425228 0.09276614 0.27967119
0.74425228 0.09276614 0.50733603
0.74436929 0.09400233 0.75572217
0.74745921 0.19030129 1.00000000
0.74425028 0.28333216 0.09064300
0.74461334 0.28453917 0.28078601
0.74462480 0.28457717 0.50775874
0.74473889 0.28495535 0.75581168
0.74842218 0.32603120 1.00000000
0.73267304 0.51095383 0.17668003
0.73430902 0.51354805 0.31274229
0.74564854 0.51031165 0.50891517
0.74576330 0.51049844 0.75606000
0.75141772 0.53108956 1.00000000
0.74431877 0.75100600 0.09122468
0.74467938 0.75136243 0.28016119
0.74571096 0.75238208 0.50804753
0.74767411 0.75432262 0.75666638
0.73454104 0.76285069 1.00000000
0.74711298 0.99059748 0.17074903
0.74788225 0.99099932 0.31223289
0.75019936 0.99223169 0.52308891
0.75504050 0.99486304 0.76366455
0.76033210 0.99186608 1.00000000
0.98680028 0.12072718 0.11906220
0.98680168 0.12074405 0.28933786
0.98680168 0.12074405 0.51174975
0.98680168 0.12074405 0.75787051
0.98120678 0.18324283 1.00000000
0.98680027 0.29309805 0.11904680
0.98705032 0.29425581 0.29040679
0.98705876 0.29429478 0.51216786
0.98705876 0.29429478 0.75796246
0.98158914 0.32227154 1.00000000
0.97166076 0.53188857 0.23937165
0.98704972 0.51346943 0.29012657
0.98776372 0.51513463 0.51330718
0.98777171 0.51515324 0.75821756
0.98266083 0.52904122 1.00000000
0.97166058 0.75223864 0.23934923
0.97278521 0.75381243 0.34899760
0.97599728 0.75829707 0.53925734
0.98914933 0.75723000 0.75956207
0.98367364 0.76696996 1.00000000
0.97871851 0.98719143 0.19754742
0.97932492 0.98778557 0.32576573
0.98114298 0.98956765 0.52915420
0.98508206 0.99343228 0.76611964
0.98220708 0.99234168 1.00000000
