luts/S9_Standard_to_hassy_blue.cube
# Film Emulation LUT
# Generated by lutex.py
# Grid: 33³
TITLE "Panasonic S9 Standard to Hasselblad HNCS (Natural Color)"
LUT_3D_SIZE 33
DOMAIN_MIN 0.0 0.0 0.0
DOMAIN_MAX 1.0 1.0 1.0
0.00000000 0.00000000 0.00000000
0.00000000 0.00000000 0.00000000
0.00000000 0.00000000 0.00000000
0.00000000 0.00000000 0.00000000
0.00000000 0.00000000 0.00000000
0.00000000 0.00000000 0.00000000
0.00000000 0.00000000 0.00000000
0.00174881 0.00179540 0.01873267
0.00958148 0.00985618 0.10521125
0.01419881 0.01464425 0.15931908
0.01642618 0.01700214 0.20380591
0.01680918 0.01748684 0.24346546
0.01571625 0.01647451 0.28016060
0.01296989 0.01380148 0.31978769
0.00867780 0.00956981 0.35910485
0.00305491 0.00399575 0.39735501
0.00000000 0.00097721 0.43445466
0.00000000 0.00100427 0.47067509
0.00000000 0.00102679 0.50649570
0.00000000 0.00104580 0.54201688
0.00000000 0.00106206 0.57731279
0.00000000 0.00107615 0.61243932
0.00000000 0.00108850 0.64743930
0.00000000 0.00109945 0.68234606
0.00000000 0.00110928 0.71718580
0.00000000 0.00111820 0.75197935
0.00000000 0.00112638 0.78674341
0.00000000 0.00113396 0.82149145
0.00000000 0.00113870 0.84446559
0.00000000 0.00114431 0.87291024
0.00000000 0.00115107 0.90884240
0.00000000 0.00115845 0.95005053
0.00000000 0.00116621 0.99531212
0.00000000 0.00000000 0.00000000
0.00000000 0.00000000 0.00000000
0.00000000 0.00000000 0.00000000
0.00000000 0.00000000 0.00000000
0.00000000 0.00000000 0.00000000
0.00000000 0.00000000 0.00000000
0.00000000 0.00000000 0.00000000
0.00174881 0.00179540 0.01873267
0.00958148 0.00985618 0.10521125
0.01419881 0.01464425 0.15931908
0.01642618 0.01700214 0.20380591
0.01680918 0.01748684 0.24346546
0.01571625 0.01647451 0.28016060
0.01296989 0.01380148 0.31978769
0.00867780 0.00956981 0.35910485
0.00305491 0.00399575 0.39735501
0.00000000 0.00097721 0.43445466
0.00000000 0.00100427 0.47067509
0.00000000 0.00102679 0.50649570
0.00000000 0.00104580 0.54201688
0.00000000 0.00106206 0.57731279
0.00000000 0.00107615 0.61243932
0.00000000 0.00108850 0.64743930
0.00000000 0.00109945 0.68234606
0.00000000 0.00110928 0.71718580
0.00000000 0.00111820 0.75197935
0.00000000 0.00112638 0.78674341
0.00000000 0.00113396 0.82149145
0.00000000 0.00113870 0.84446559
0.00000000 0.00114431 0.87291024
0.00000000 0.00115107 0.90884240
0.00000000 0.00115845 0.95005053
0.00000000 0.00116621 0.99531212
0.05469750 0.06691193 0.05677725
0.05469750 0.06691193 0.05677725
0.05469746 0.06691193 0.06817270
0.00000000 0.00000000 0.00000000
0.00000000 0.00000000 0.00000000
0.00000000 0.00000000 0.00000000
0.00000000 0.00000000 0.00000000
0.00174875 0.00240075 0.01873225
0.00958135 0.01342451 0.10521109
0.01419862 0.02042823 0.15931899
0.01642594 0.02447774 0.20380585
0.01680891 0.02627824 0.24346542
0.01571595 0.02630653 0.28016057
0.01296956 0.02457725 0.31978767
0.00867745 0.02111960 0.35910484
0.00305454 0.01616768 0.39735500
0.00000000 0.01360863 0.43445461
0.00000000 0.01397238 0.47067505
0.00000000 0.01427131 0.50649566
0.00000000 0.01451969 0.54201685
0.00000000 0.01472810 0.57731276
0.00000000 0.01490454 0.61243929
0.00000000 0.01505514 0.64743928
0.00000000 0.01518465 0.68234604
0.00000000 0.01529681 0.71718578
0.00000000 0.01539458 0.75197933
0.00000000 0.01548032 0.78674339
0.00000000 0.01555595 0.82149143
0.00000000 0.01560118 0.84446557
0.00000000 0.01565257 0.87291022
0.00000000 0.01571110 0.90884238
0.00000000 0.01577069 0.95005051
0.00000000 0.01582835 0.99531210
0.05469625 0.09637946 0.05677725
0.05469625 0.09637946 0.05677725
0.05469621 0.09637946 0.06817270
0.05469608 0.09637946 0.09794498
0.00000000 0.00000000 0.00000000
0.00000000 0.00000000 0.00000000
0.00000000 0.00000000 0.00000000
0.00174857 0.00438495 0.01873090
0.00958092 0.02512173 0.10521056
0.01419800 0.03938863 0.15931870
0.01642517 0.04837457 0.20380567
0.01680802 0.05356691 0.24346529
0.01571496 0.05634105 0.28016048
0.01296848 0.05741516 0.31978760
0.00867630 0.05669227 0.35910479
0.00305333 0.05436021 0.39735497
0.00000000 0.05349980 0.43445445
0.00000000 0.05469643 0.47067491
0.00000000 0.05566558 0.50649553
0.00000000 0.05646109 0.54201673
0.00000000 0.05712171 0.57731265
0.00000000 0.05767596 0.61243919
0.00000000 0.05814521 0.64743918
0.00000000 0.05854574 0.68234595
0.00000000 0.05889015 0.71718569
0.00000000 0.05918830 0.75197925
0.00000000 0.05944799 0.78674332
0.00000000 0.05967546 0.82149137
0.00000000 0.05981069 0.84446550
0.00000000 0.05996349 0.87291016
0.00000000 0.06013626 0.90884232
0.00000000 0.06031055 0.95005046
0.00000000 0.06047734 0.99531205
0.05469464 0.12533980 0.05677725
0.05469464 0.12533980 0.05677725
0.05469460 0.12533980 0.06817270
0.05469447 0.12533980 0.09794498
0.05469431 0.12533980 0.12720482
0.00000000 0.00000000 0.00000000
0.00000000 0.00000000 0.00000000
0.00174832 0.00694128 0.01872915
0.00958036 0.04019388 0.10520988
0.01419720 0.06042271 0.15931833
0.01642417 0.07218713 0.20380542
0.01680687 0.07956345 0.24346512
0.01571368 0.08421342 0.28016036
0.01296709 0.08726811 0.31978752
0.00867481 0.08858060 0.35910473
0.00305177 0.08842251 0.39735492
0.00000000 0.08891490 0.43445426
0.00000000 0.09050161 0.47067473
0.00000000 0.09178652 0.50649537
0.00000000 0.09284105 0.54201658
0.00000000 0.09371661 0.57731251
0.00000000 0.09445102 0.61243906
0.00000000 0.09507262 0.64743906
0.00000000 0.09560302 0.68234584
0.00000000 0.09605892 0.71718559
0.00000000 0.09645339 0.75197915
0.00000000 0.09679678 0.78674322
0.00000000 0.09709738 0.82149128
0.00000000 0.09727596 0.84446542
0.00000000 0.09747764 0.87291008
0.00000000 0.09770547 0.90884224
0.00000000 0.09793503 0.95005038
0.00000000 0.09815436 0.99531198
0.05469266 0.15388864 0.05677725
0.05469266 0.15388864 0.05677725
0.05469262 0.15388864 0.06817270
0.05469249 0.15388864 0.09794498
0.05469233 0.15388864 0.12720482
0.05469213 0.15388864 0.15604890
0.05469189 0.15388864 0.18454389
0.00174803 0.01009211 0.01872700
0.00957968 0.05652938 0.10520904
0.01419621 0.08059553 0.15931786
0.01642294 0.09489214 0.20380513
0.01680545 0.10416917 0.24346492
0.01571211 0.11036840 0.28016021
0.01296538 0.11495508 0.31978741
0.00867298 0.11772042 0.35910465
0.00304984 0.11898058 0.39735486
0.00000000 0.12036441 0.43445401
0.00000000 0.12229763 0.47067451
0.00000000 0.12386308 0.50649517
0.00000000 0.12514777 0.54201640
0.00000000 0.12621435 0.57731234
0.00000000 0.12710889 0.61243890
0.00000000 0.12786596 0.64743892
0.00000000 0.12851185 0.68234570
0.00000000 0.12906694 0.71718546
0.00000000 0.12954714 0.75197903
0.00000000 0.12996507 0.78674311
0.00000000 0.13033083 0.82149117
0.00000000 0.13054807 0.84446531
0.00000000 0.13079335 0.87290998
0.00000000 0.13107033 0.90884215
0.00000000 0.13134930 0.95005029
0.00000000 0.13161566 0.99531189
0.05469029 0.18209195 0.05677725
0.05469029 0.18209195 0.05677725
0.05469025 0.18209195 0.06817270
0.05469012 0.18209195 0.09794498
0.05468996 0.18209195 0.12720482
0.05468976 0.18209195 0.15604890
0.05468952 0.18209195 0.18454389
0.05468924 0.18209195 0.21273849
0.00957886 0.07246326 0.10520804
0.01419503 0.10021899 0.15931731
0.01642147 0.11690349 0.20380477
0.01680375 0.12792968 0.24346467
0.01571023 0.13551169 0.28016003
0.01296333 0.14141326 0.31978728
0.00867079 0.14536608 0.35910456
0.00304754 0.14772358 0.39735479
0.00000000 0.14981101 0.43445372
0.00000000 0.15206874 0.47067424
0.00000000 0.15389690 0.50649493
0.00000000 0.15539715 0.54201618
0.00000000 0.15664265 0.57731214
0.00000000 0.15768720 0.61243871
0.00000000 0.15857117 0.64743874
0.00000000 0.15932529 0.68234553
0.00000000 0.15997333 0.71718531
0.00000000 0.16053389 0.75197889
0.00000000 0.16102170 0.78674297
0.00000000 0.16144856 0.82149104
0.00000000 0.16170207 0.84446519
0.00000000 0.16198824 0.87290986
0.00000000 0.16231136 0.90884204
0.00000000 0.16263671 0.95005019
0.00000000 0.16294727 0.99531179
0.05468752 0.20999796 0.05677725
0.05468752 0.20999796 0.05677725
0.05468748 0.20999796 0.06817270
0.05468735 0.20999796 0.09794498
0.05468719 0.20999796 0.12720482
0.05468699 0.20999796 0.15604890
0.05468675 0.20999796 0.18454389
0.05468647 0.20999796 0.21273849
0.05468615 0.20999796 0.24066980
0.01419365 0.11944916 0.15931666
0.01641976 0.13842899 0.20380436
0.01680177 0.15111095 0.24346439
0.01570803 0.15997659 0.28015982
0.01296094 0.16706808 0.31978713
0.00866824 0.17206107 0.35910445
0.00304485 0.17534443 0.39735471
0.00000000 0.17803673 0.43445338
0.00000000 0.18060554 0.47067394
0.00000000 0.18268558 0.50649465
0.00000000 0.18439250 0.54201592
0.00000000 0.18580953 0.57731190
0.00000000 0.18699791 0.61243849
0.00000000 0.18800356 0.64743853
0.00000000 0.18886146 0.68234534
0.00000000 0.18959863 0.71718513
0.00000000 0.19023627 0.75197872
0.00000000 0.19079112 0.78674281
0.00000000 0.19127660 0.82149089
0.00000000 0.19156490 0.84446504
0.00000000 0.19189033 0.87290972
0.00000000 0.19225773 0.90884190
0.00000000 0.19262761 0.95005006
0.00000000 0.19298062 0.99531168
0.05468434 0.23764337 0.05677725
0.05468434 0.23764337 0.05677725
0.05468430 0.23764337 0.06817270
0.05468418 0.23764337 0.09794498
0.05468401 0.23764337 0.12720482
0.05468381 0.23764337 0.15604890
0.05468358 0.23764337 0.18454389
0.05468330 0.23764337 0.21273849
0.05468297 0.23764337 0.24066980
0.05468261 0.23764337 0.26836700
0.01641779 0.15958813 0.20380388
0.01679950 0.17386273 0.24346406
0.01570551 0.18394687 0.28015959
0.01295819 0.19214831 0.31978696
0.00866531 0.19808957 0.35910432
0.00304177 0.20219459 0.39735461
0.00000000 0.20543210 0.43445299
0.00000000 0.20830288 0.47067358
0.00000000 0.21062741 0.50649432
0.00000000 0.21253493 0.54201562
0.00000000 0.21411848 0.57731163
0.00000000 0.21544650 0.61243824
0.00000000 0.21657028 0.64743830
0.00000000 0.21752893 0.68234512
0.00000000 0.21835265 0.71718492
0.00000000 0.21906512 0.75197852
0.00000000 0.21968507 0.78674263
0.00000000 0.22022748 0.82149072
0.00000000 0.22054956 0.84446488
0.00000000 0.22091312 0.87290956
0.00000000 0.22132353 0.90884175
0.00000000 0.22173669 0.95004992
0.00000000 0.22213094 0.99531154
0.05468075 0.26505707 0.05677725
0.05468075 0.26505707 0.05677725
0.05468071 0.26505707 0.06817270
0.05468058 0.26505707 0.09794498
0.05468042 0.26505707 0.12720482
0.05468022 0.26505707 0.15604890
0.05467998 0.26505707 0.18454389
0.05467970 0.26505707 0.21273849
0.05467938 0.26505707 0.24066980
0.05467902 0.26505707 0.26836700
0.05467861 0.26505707 0.29585361
0.01679693 0.19627802 0.24346368
0.01570267 0.20753481 0.28015932
0.01295509 0.21679113 0.31978677
0.00866199 0.22361872 0.35910418
0.00303828 0.22847649 0.39735451
0.00000000 0.23221981 0.43445254
0.00000000 0.23538589 0.47067318
0.00000000 0.23794951 0.50649396
0.00000000 0.24005323 0.54201529
0.00000000 0.24179962 0.57731132
0.00000000 0.24326419 0.61243795
0.00000000 0.24450351 0.64743803
0.00000000 0.24556069 0.68234487
0.00000000 0.24646907 0.71718469
0.00000000 0.24725474 0.75197830
0.00000000 0.24793835 0.78674242
0.00000000 0.24853645 0.82149052
0.00000000 0.24889160 0.84446469
0.00000000 0.24929245 0.87290938
0.00000000 0.24974495 0.90884158
0.00000000 0.25020045 0.95004976
0.00000000 0.25063506 0.99531139
0.05467673 0.29226233 0.05677725
0.05467673 0.29226233 0.05677725
0.05467669 0.29226233 0.06817270
0.05467656 0.29226233 0.09794498
0.05467640 0.29226233 0.12720482
0.05467620 0.29226233 0.15604890
0.05467596 0.29226233 0.18454389
0.05467568 0.29226233 0.21273849
0.05467536 0.29226233 0.24066980
0.05467500 0.29226233 0.26836700
0.05467459 0.29226233 0.29585361
0.05467414 0.29226233 0.32314900
0.05467365 0.29226233 0.35026935
0.01295161 0.24108550 0.31978655
0.00865828 0.24875523 0.35910402
0.00303437 0.25431738 0.39735439
0.00000000 0.25853878 0.43445205
0.00000000 0.26199503 0.47067273
0.00000000 0.26479359 0.50649355
0.00000000 0.26709007 0.54201491
0.00000000 0.26899649 0.57731097
0.00000000 0.27059524 0.61243763
0.00000000 0.27194809 0.64743773
0.00000000 0.27310210 0.68234459
0.00000000 0.27409367 0.71718442
0.00000000 0.27495127 0.75197806
0.00000000 0.27569746 0.78674219
0.00000000 0.27635030 0.82149030
0.00000000 0.27673793 0.84446448
0.00000000 0.27717545 0.87290918
0.00000000 0.27766931 0.90884139
0.00000000 0.27816643 0.95004958
0.00000000 0.27864073 0.99531122
0.05467228 0.31927832 0.05677725
0.05467228 0.31927832 0.05677725
0.05467224 0.31927832 0.06817270
0.05467211 0.31927832 0.09794498
0.05467195 0.31927832 0.12720482
0.05467175 0.31927832 0.15604890
0.05467151 0.31927832 0.18454389
0.05467123 0.31927832 0.21273849
0.05467091 0.31927832 0.24066980
0.05467055 0.31927832 0.26836700
0.05467014 0.31927832 0.29585361
0.05466969 0.31927832 0.32314900
0.05466920 0.31927832 0.35026935
0.05466858 0.31927832 0.38117359
0.00865417 0.27357153 0.35910385
0.00303005 0.27980255 0.39735426
0.00000000 0.28448156 0.43445150
0.00000000 0.28822385 0.47067224
0.00000000 0.29125402 0.50649310
0.00000000 0.29374055 0.54201450
0.00000000 0.29580472 0.57731059
0.00000000 0.29753575 0.61243728
0.00000000 0.29900053 0.64743740
0.00000000 0.30025001 0.68234428
0.00000000 0.30132358 0.71718413
0.00000000 0.30225211 0.75197778
0.00000000 0.30305999 0.78674193
0.00000000 0.30376679 0.82149006
0.00000000 0.30418646 0.84446424
0.00000000 0.30466012 0.87290895
0.00000000 0.30519478 0.90884118
0.00000000 0.30573294 0.95004938
0.00000000 0.30624638 0.99531103
0.05466738 0.34612107 0.05677725
0.05466738 0.34612107 0.05677725
0.05466734 0.34612107 0.06817270
0.05466722 0.34612107 0.09794498
0.05466706 0.34612107 0.12720482
0.05466686 0.34612107 0.15604890
0.05466662 0.34612107 0.18454389
0.05466634 0.34612107 0.21273849
0.05466602 0.34612107 0.24066980
0.05466565 0.34612107 0.26836700
0.05466525 0.34612107 0.29585361
0.05466480 0.34612107 0.32314900
0.05466430 0.34612107 0.35026935
0.05466368 0.34612107 0.38117359
0.05466297 0.34612107 0.41317349
0.00302530 0.30499206 0.39735412
0.00000000 0.31011301 0.43445090
0.00000000 0.31413794 0.47067169
0.00000000 0.31739696 0.50649260
0.00000000 0.32007128 0.54201404
0.00000000 0.32229133 0.57731017
0.00000000 0.32415307 0.61243689
0.00000000 0.32572844 0.64743704
0.00000000 0.32707226 0.68234394
0.00000000 0.32822688 0.71718382
0.00000000 0.32922548 0.75197749
0.00000000 0.33009434 0.78674165
0.00000000 0.33085446 0.82148979
0.00000000 0.33130579 0.84446399
0.00000000 0.33181518 0.87290871
0.00000000 0.33239015 0.90884094
0.00000000 0.33296888 0.95004916
0.00000000 0.33352099 0.99531083
0.05466122 0.37670899 0.05677725
0.05466122 0.37670899 0.05677725
0.05466118 0.37670899 0.06817270
0.05466106 0.37670899 0.09794498
0.05466089 0.37670899 0.12720482
0.05466069 0.37670899 0.15604890
0.05466045 0.37670899 0.18454389
0.05466017 0.37670899 0.21273849
0.05465985 0.37670899 0.24066980
0.05465949 0.37670899 0.26836700
0.05465908 0.37670899 0.29585361
0.05465863 0.37670899 0.32314900
0.05465814 0.37670899 0.35026935
0.05465752 0.37670899 0.38117359
0.05465681 0.37670899 0.41317349
0.05465602 0.37670899 0.44533633
0.00000000 0.33918483 0.43445014
0.00000000 0.34353039 0.47067100
0.00000000 0.34704901 0.50649197
0.00000000 0.34993635 0.54201346
0.00000000 0.35233322 0.57730964
0.00000000 0.35434325 0.61243639
0.00000000 0.35604409 0.64743658
0.00000000 0.35749491 0.68234352
0.00000000 0.35874147 0.71718342
0.00000000 0.35981958 0.75197711
0.00000000 0.36075760 0.78674130
0.00000000 0.36157822 0.82148946
0.00000000 0.36206546 0.84446366
0.00000000 0.36261539 0.87290840
0.00000000 0.36323610 0.90884065
0.00000000 0.36386085 0.95004888
0.00000000 0.36445685 0.99531056
0.05465416 0.40838134 0.05677725
0.05465416 0.40838134 0.05677725
0.05465412 0.40838134 0.06817270
0.05465400 0.40838134 0.09794498
0.05465383 0.40838134 0.12720482
0.05465363 0.40838134 0.15604890
0.05465339 0.40838134 0.18454389
0.05465311 0.40838134 0.21273849
0.05465279 0.40838134 0.24066980
0.05465243 0.40838134 0.26836700
0.05465202 0.40838134 0.29585361
0.05465157 0.40838134 0.32314900
0.05465108 0.40838134 0.35026935
0.05465046 0.40838134 0.38117359
0.05464975 0.40838134 0.41317349
0.05464896 0.40838134 0.44533633
0.05464809 0.40838134 0.47765315
0.00000000 0.37384526 0.47067022
0.00000000 0.37763166 0.50649126
0.00000000 0.38073874 0.54201281
0.00000000 0.38331802 0.57730903
0.00000000 0.38548101 0.61243583
0.00000000 0.38731127 0.64743606
0.00000000 0.38887248 0.68234303
0.00000000 0.39021388 0.71718296
0.00000000 0.39137401 0.75197668
0.00000000 0.39238338 0.78674089
0.00000000 0.39326642 0.82148907
0.00000000 0.39379071 0.84446329
0.00000000 0.39438245 0.87290804
0.00000000 0.39505035 0.90884031
0.00000000 0.39572258 0.95004856
0.00000000 0.39636386 0.99531027
0.05464635 0.44021497 0.05677725
0.05464635 0.44021497 0.05677725
0.05464631 0.44021497 0.06817270
0.05464618 0.44021497 0.09794498
0.05464602 0.44021497 0.12720482
0.05464582 0.44021497 0.15604890
0.05464558 0.44021497 0.18454389
0.05464530 0.44021497 0.21273849
0.05464498 0.44021497 0.24066980
0.05464462 0.44021497 0.26836700
0.05464421 0.44021497 0.29585361
0.05464376 0.44021497 0.32314900
0.05464327 0.44021497 0.35026935
0.05464265 0.44021497 0.38117359
0.05464193 0.44021497 0.41317349
0.05464115 0.44021497 0.44533633
0.05464028 0.44021497 0.47765315
0.05463933 0.44021497 0.51011595
0.00000000 0.40827351 0.50649046
0.00000000 0.41160078 0.54201208
0.00000000 0.41436286 0.57730836
0.00000000 0.41667913 0.61243521
0.00000000 0.41863908 0.64743548
0.00000000 0.42031092 0.68234249
0.00000000 0.42174737 0.71718245
0.00000000 0.42298969 0.75197620
0.00000000 0.42407056 0.78674044
0.00000000 0.42501615 0.82148865
0.00000000 0.42557757 0.84446288
0.00000000 0.42621121 0.87290765
0.00000000 0.42692641 0.90883994
0.00000000 0.42764622 0.95004821
0.00000000 0.42833289 0.99530994
0.05463776 0.47220100 0.05677725
0.05463776 0.47220100 0.05677725
0.05463772 0.47220100 0.06817270
0.05463759 0.47220100 0.09794498
0.05463743 0.47220100 0.12720482
0.05463723 0.47220100 0.15604890
0.05463699 0.47220100 0.18454389
0.05463671 0.47220100 0.21273849
0.05463639 0.47220100 0.24066980
0.05463603 0.47220100 0.26836700
0.05463562 0.47220100 0.29585361
0.05463517 0.47220100 0.32314900
0.05463468 0.47220100 0.35026935
0.05463406 0.47220100 0.38117359
0.05463334 0.47220100 0.41317349
0.05463255 0.47220100 0.44533633
0.05463169 0.47220100 0.47765315
0.05463074 0.47220100 0.51011595
0.05462971 0.47220100 0.54271754
0.00000000 0.44253285 0.54201128
0.00000000 0.44547817 0.57730762
0.00000000 0.44794809 0.61243452
0.00000000 0.45003807 0.64743484
0.00000000 0.45182081 0.68234189
0.00000000 0.45335253 0.71718189
0.00000000 0.45467724 0.75197567
0.00000000 0.45582980 0.78673994
0.00000000 0.45683809 0.82148818
0.00000000 0.45743674 0.84446243
0.00000000 0.45811239 0.87290722
0.00000000 0.45887500 0.90883953
0.00000000 0.45964252 0.95004782
0.00000000 0.46037470 0.99530957
0.05462836 0.50433151 0.05677725
0.05462836 0.50433151 0.05677725
0.05462832 0.50433151 0.06817270
0.05462820 0.50433151 0.09794498
0.05462803 0.50433151 0.12720482
0.05462783 0.50433151 0.15604890
0.05462759 0.50433151 0.18454389
0.05462731 0.50433151 0.21273849
0.05462699 0.50433151 0.24066980
0.05462663 0.50433151 0.26836700
0.05462622 0.50433151 0.29585361
0.05462577 0.50433151 0.32314900
0.05462528 0.50433151 0.35026935
0.05462466 0.50433151 0.38117359
0.05462395 0.50433151 0.41317349
0.05462316 0.50433151 0.44533633
0.05462229 0.50433151 0.47765315
0.05462134 0.50433151 0.51011595
0.05462031 0.50433151 0.54271754
0.05461919 0.50433151 0.57545144
0.00000000 0.47667063 0.57730681
0.00000000 0.47929463 0.61243377
0.00000000 0.48151497 0.64743414
0.00000000 0.48340890 0.68234124
0.00000000 0.48503616 0.71718128
0.00000000 0.48644349 0.75197510
0.00000000 0.48766793 0.78673940
0.00000000 0.48873909 0.82148767
0.00000000 0.48937507 0.84446194
0.00000000 0.49009285 0.87290675
0.00000000 0.49090299 0.90883908
0.00000000 0.49171836 0.95004740
0.00000000 0.49249616 0.99530918
0.05461813 0.53659940 0.05677725
0.05461813 0.53659940 0.05677725
0.05461809 0.53659940 0.06817270
0.05461797 0.53659940 0.09794498
0.05461780 0.53659940 0.12720482
0.05461760 0.53659940 0.15604890
0.05461736 0.53659940 0.18454389
0.05461708 0.53659940 0.21273849
0.05461676 0.53659940 0.24066980
0.05461640 0.53659940 0.26836700
0.05461599 0.53659940 0.29585361
0.05461554 0.53659940 0.32314900
0.05461505 0.53659940 0.35026935
0.05461443 0.53659940 0.38117359
0.05461371 0.53659940 0.41317349
0.05461292 0.53659940 0.44533633
0.05461206 0.53659940 0.47765315
0.05461111 0.53659940 0.51011595
0.05461008 0.53659940 0.54271754
0.05460896 0.53659940 0.57545144
0.05460775 0.53659940 0.60831177
0.05460645 0.53659940 0.64129318
0.00000000 0.51307396 0.64743338
0.00000000 0.51507940 0.68234053
0.00000000 0.51680247 0.71718061
0.00000000 0.51829266 0.75197447
0.00000000 0.51958917 0.78673881
0.00000000 0.52072339 0.82148711
0.00000000 0.52139680 0.84446140
0.00000000 0.52215682 0.87290623
0.00000000 0.52301465 0.90883860
0.00000000 0.52387799 0.95004694
0.00000000 0.52470155 0.99530874
0.05460704 0.56899824 0.05677725
0.05460704 0.56899824 0.05677725
0.05460700 0.56899824 0.06817270
0.05460687 0.56899824 0.09794498
0.05460671 0.56899824 0.12720482
0.05460651 0.56899824 0.15604890
0.05460627 0.56899824 0.18454389
0.05460599 0.56899824 0.21273849
0.05460567 0.56899824 0.24066980
0.05460531 0.56899824 0.26836700
0.05460490 0.56899824 0.29585361
0.05460445 0.56899824 0.32314900
0.05460396 0.56899824 0.35026935
0.05460334 0.56899824 0.38117359
0.05460262 0.56899824 0.41317349
0.05460183 0.56899824 0.44533633
0.05460097 0.56899824 0.47765315
0.05460002 0.56899824 0.51011595
0.05459898 0.56899824 0.54271754
0.05459786 0.56899824 0.57545144
0.05459665 0.56899824 0.60831177
0.05459535 0.56899824 0.64129318
0.05459396 0.56899824 0.67439076
0.00000000 0.54683472 0.68233976
0.00000000 0.54865387 0.71717989
0.00000000 0.55022715 0.75197380
0.00000000 0.55159596 0.78673817
0.00000000 0.55279342 0.82148651
0.00000000 0.55350437 0.84446082
0.00000000 0.55430677 0.87290567
0.00000000 0.55521241 0.90883807
0.00000000 0.55612387 0.95004644
0.00000000 0.55699333 0.99530827
0.05459506 0.60152222 0.05677725
0.05459506 0.60152222 0.05677725
0.05459502 0.60152222 0.06817270
0.05459490 0.60152222 0.09794498
0.05459474 0.60152222 0.12720482
0.05459453 0.60152222 0.15604890
0.05459430 0.60152222 0.18454389
0.05459402 0.60152222 0.21273849
0.05459369 0.60152222 0.24066980
0.05459333 0.60152222 0.26836700
0.05459293 0.60152222 0.29585361
0.05459248 0.60152222 0.32314900
0.05459198 0.60152222 0.35026935
0.05459136 0.60152222 0.38117359
0.05459064 0.60152222 0.41317349
0.05458986 0.60152222 0.44533633
0.05458899 0.60152222 0.47765315
0.05458804 0.60152222 0.51011595
0.05458701 0.60152222 0.54271754
0.05458589 0.60152222 0.57545144
0.05458468 0.60152222 0.60831177
0.05458337 0.60152222 0.64129318
0.05458198 0.60152222 0.67439076
0.05458049 0.60152222 0.70759999
0.00000000 0.58059154 0.71717911
0.00000000 0.58224817 0.75197306
0.00000000 0.58368948 0.78673748
0.00000000 0.58495036 0.82148585
0.00000000 0.58569898 0.84446019
0.00000000 0.58654387 0.87290507
0.00000000 0.58749747 0.90883750
0.00000000 0.58845720 0.95004591
0.00000000 0.58937269 0.99530777
0.05458217 0.63416603 0.05677725
0.05458217 0.63416603 0.05677725
0.05458214 0.63416603 0.06817270
0.05458201 0.63416603 0.09794498
0.05458185 0.63416603 0.12720482
0.05458165 0.63416603 0.15604890
0.05458141 0.63416603 0.18454389
0.05458113 0.63416603 0.21273849
0.05458081 0.63416603 0.24066980
0.05458044 0.63416603 0.26836700
0.05458004 0.63416603 0.29585361
0.05457959 0.63416603 0.32314900
0.05457909 0.63416603 0.35026935
0.05457847 0.63416603 0.38117359
0.05457776 0.63416603 0.41317349
0.05457697 0.63416603 0.44533633
0.05457610 0.63416603 0.47765315
0.05457515 0.63416603 0.51011595
0.05457412 0.63416603 0.54271754
0.05457300 0.63416603 0.57545144
0.05457179 0.63416603 0.60831177
0.05457048 0.63416603 0.64129318
0.05456909 0.63416603 0.67439076
0.05456760 0.63416603 0.70759999
0.05456601 0.63416603 0.74091673
0.00000000 0.61435600 0.75197228
0.00000000 0.61587003 0.78673674
0.00000000 0.61719453 0.82148515
