luts/S9_Standard_to_c200.cube
# Film Emulation LUT
# Generated by lutex.py
# Grid: 33³
TITLE "Panasonic S9 Standard to Fujifilm Fujicolor C200 (Japan)"
LUT_3D_SIZE 5
DOMAIN_MIN 0.0 0.0 0.0
DOMAIN_MAX 1.0 1.0 1.0
0.04247796 0.03603611 0.03874771
0.01402399 0.00954488 0.22370949
0.00579893 0.00000000 0.48395697
0.00598880 0.00000000 0.73143422
0.00598999 0.00000000 0.97245931
0.00377327 0.35095357 0.15151700
0.02790484 0.27038370 0.27216484
0.00000000 0.25181939 0.48519453
0.00000000 0.25677271 0.73272337
0.00000000 0.25846919 0.97392461
0.00000000 0.55002209 0.25374527
0.00000000 0.55024438 0.38276319
0.00000000 0.51014670 0.50889045
0.00000000 0.49712780 0.73554607
0.00000000 0.50009483 0.97755342
0.00000000 0.78096758 0.37227814
0.00000000 0.78106617 0.45752828
0.00000000 0.78110358 0.62881358
0.00000000 0.75631115 0.75373825
0.00000000 0.74764186 0.98439984
0.22969389 1.00000000 0.52143468
0.22991727 1.00000000 0.57516138
0.22991727 1.00000000 0.69981831
0.22991727 1.00000000 0.87617888
0.04136754 1.00000000 0.99588968
0.28415701 0.06685408 0.02024661
0.28412769 0.02025163 0.27167012
0.26575919 0.00000000 0.48417818
0.27112057 0.00000000 0.73174092
0.27272274 0.00000000 0.97285253
0.28387219 0.27017023 0.02308412
0.28144540 0.26763575 0.26860528
0.26105992 0.24686902 0.49147214
0.24503564 0.22929479 0.74098510
0.15010133 0.12058268 0.99300652
0.15646505 0.55005115 0.00000000
0.26886715 0.54798933 0.33867804
0.27336163 0.51004271 0.50895919
0.24341948 0.49415050 0.74386181
0.13494431 0.46851713 0.99765454
0.00000000 0.78100954 0.24529505
0.21824513 0.79213361 0.41860864
0.22649261 0.79199110 0.61762294
0.25712963 0.76021727 0.75785227
0.17381233 0.74827146 1.00000000
0.22969603 1.00000000 0.45791806
0.35138462 1.00000000 0.56530244
0.35400427 1.00000000 0.69281705
0.35400427 1.00000000 0.87060046
0.27814973 1.00000000 0.99599852
0.52616356 0.13197871 0.00000000
0.52611400 0.00000000 0.26636054
0.52597429 0.00000000 0.50616776
0.52261578 0.00000000 0.74568898
0.51597414 0.00000000 0.97395958
0.52591892 0.29890583 0.00000000
0.52640410 0.28525225 0.25962701
0.52626120 0.25965072 0.50735331
0.52029847 0.24592780 0.75070938
0.48709107 0.10711413 0.99513599
0.52458220 0.50960733 0.00000000
0.52498704 0.50988812 0.26314129
0.52157717 0.50758938 0.50596428
0.50602544 0.49084365 0.74423686
0.47563197 0.45887985 0.99662104
0.40222750 0.78112779 0.00000000
0.39641585 0.79224104 0.21870287
0.50503064 0.78211379 0.56578349
0.51219656 0.75821015 0.75657402
0.48004609 0.74477082 1.00000000
0.29450705 1.00000000 0.22970206
0.35145647 1.00000000 0.37895596
0.55212307 1.00000000 0.67049234
0.55740164 1.00000000 0.85515909
0.51964004 0.99929540 0.99561252
0.77206423 0.21193151 0.00000000
0.77199289 0.00000000 0.15175805
0.77179180 0.00000000 0.50410502
0.77141709 0.00000000 0.74700594
0.76936682 0.00000000 0.98504091
0.77153621 0.33730754 0.00000000
0.77569938 0.31637687 0.24397891
0.77549525 0.24401400 0.50171130
0.77511488 0.24407934 0.75183663
0.76941775 0.22173464 0.99311557
0.76959297 0.54374487 0.00000000
0.77054323 0.53927507 0.26093033
0.77150767 0.52347586 0.49990999
0.77112428 0.49997737 0.75265928
0.76524790 0.49077260 0.99529717
0.76588281 0.75638475 0.00000000
0.76989435 0.76028413 0.25116734
0.76781800 0.75823174 0.50412720
0.76401726 0.75506326 0.75365887
0.74328111 0.73265304 1.00000000
0.64312372 1.00000000 0.22971328
0.65305165 1.00000000 0.35159025
0.68071260 1.00000000 0.55240335
0.78099149 1.00000000 0.82469232
0.76663555 0.99801792 0.99494759
1.00000000 0.34334367 0.19732269
1.00000000 0.22886658 0.19661996
1.00000000 0.19462458 0.52359658
1.00000000 0.19084754 0.74766373
1.00000000 0.18501424 0.97646026
1.00000000 0.42033502 0.19144798
1.00000000 0.41713680 0.32400287
1.00000000 0.32289461 0.52544136
1.00000000 0.32081832 0.74947572
1.00000000 0.31766783 0.97848782
1.00000000 0.58213836 0.17044927
1.00000000 0.58042114 0.31678554
1.00000000 0.57527669 0.52862132
1.00000000 0.52753082 0.75449383
1.00000000 0.52588679 0.98437207
1.00000000 0.79445608 0.14334920
1.00000000 0.79267146 0.30579427
1.00000000 0.78802845 0.52683360
1.00000000 0.78273866 0.76399935
1.00000000 0.76401674 0.98887465
1.00000000 0.99357437 0.14344460
1.00000000 0.99358645 0.30660365
1.00000000 0.99363014 0.52835659
1.00000000 0.99379122 0.76622211
1.00000000 1.00000000 1.00000000
