luts/S9_Standard_to_leica_classic.cube
# Film Emulation LUT
# Generated by lutex.py
# Grid: 33³
TITLE "Panasonic S9 Standard to Leica Classic Look — Draft v1"
LUT_3D_SIZE 5
DOMAIN_MIN 0.0 0.0 0.0
DOMAIN_MAX 1.0 1.0 1.0
0.03274874 0.03534540 0.02236018
0.00000000 0.00000000 0.00000000
0.00000000 0.00161001 0.36432437
0.00000000 0.00215091 0.66323929
0.00000000 0.00235047 0.94893769
0.01026365 0.24706448 0.00000000
0.00893805 0.24718019 0.21662032
0.00000000 0.19058957 0.36485202
0.00000000 0.22068768 0.66392044
0.00000000 0.22877791 0.94982293
0.00941862 0.48159133 0.00000000
0.00000000 0.48240095 0.20966238
0.00000000 0.48239985 0.44910514
0.00000000 0.44900059 0.66613767
0.00000000 0.46367562 0.95270512
0.00872030 0.73856997 0.00000000
0.00000000 0.73900848 0.20957851
0.00000000 0.73900784 0.44868943
0.00000000 0.73900642 0.71322000
0.00000000 0.71661176 0.95866930
0.03168949 1.00000000 0.02384870
0.03168775 1.00000000 0.21835256
0.03168144 1.00000000 0.45418703
0.03166741 1.00000000 0.71859448
0.03164362 1.00000000 0.99415563
0.24547344 0.05366761 0.00000000
0.24550009 0.01180988 0.21650074
0.18891312 0.00000000 0.36477319
0.21852938 0.00000000 0.66357364
0.22632059 0.00000000 0.94927738
0.24519519 0.24706699 0.00000000
0.24168039 0.24360285 0.21252499
0.17860928 0.18075034 0.39230951
0.10973526 0.11419709 0.68840531
0.00000000 0.01096181 0.97076308
0.23774483 0.48159246 0.00000000
0.22512573 0.48668769 0.19474067
0.22402772 0.48627470 0.45164131
0.10736818 0.44171192 0.69067169
0.00000000 0.42917231 0.97347894
0.23523731 0.73857061 0.00000000
0.18534225 0.74945703 0.15049553
0.18410891 0.74924329 0.43936041
0.18395937 0.74924435 0.72231947
0.00000000 0.71725870 0.97910157
0.23798653 1.00000000 0.02386151
0.23797982 1.00000000 0.21841374
0.23795552 1.00000000 0.45430092
0.23790143 1.00000000 0.71876727
0.23780971 1.00000000 0.99438946
0.48478018 0.12469283 0.00000000
0.48579532 0.00000000 0.20850271
0.48570879 0.00000000 0.44791397
0.48205915 0.00000000 0.70748088
0.46600136 0.00000000 0.95011694
0.48450074 0.27244251 0.00000000
0.48966490 0.25742562 0.19380241
0.48911804 0.22638969 0.45044897
0.47723081 0.19503177 0.71747948
0.43102214 0.00000000 0.97195135
0.48358714 0.48155977 0.00000000
0.48870309 0.48660667 0.19475452
0.48275636 0.48072196 0.44596783
0.43574752 0.43371259 0.69277678
0.33650828 0.33396856 1.00000000
0.47915376 0.73857281 0.00000000
0.47269478 0.74945520 0.15081574
0.46640393 0.74604158 0.43343361
0.46502310 0.74540565 0.71892281
0.35499832 0.70875000 1.00000000
0.47759587 1.00000000 0.02390481
0.47758365 1.00000000 0.21862028
0.47753945 1.00000000 0.45468544
0.47744107 1.00000000 0.71935070
0.47727424 1.00000000 0.99517897
0.74887081 0.20797152 0.00000000
0.74942572 0.00000000 0.00771293
0.74929559 0.00000000 0.44525417
0.74900592 0.00000000 0.70831067
0.74692387 0.00000000 0.97952413
0.74844760 0.31549498 0.00000000
0.75952762 0.28087855 0.14536753
0.75913796 0.18677334 0.43526296
0.75884179 0.18683565 0.71717372
0.74718810 0.11047144 0.99534695
0.74483980 0.51697504 0.04427533
0.74487876 0.51459846 0.21963067
0.75463684 0.49431764 0.43061862
0.75366522 0.46471099 0.71538914
0.74168876 0.44304963 0.99556179
0.74417223 0.73853737 0.00000000
0.75512284 0.74923206 0.15001642
0.75159465 0.74580887 0.43390611
0.74365072 0.73810183 0.71262140
0.68332569 0.67651262 1.00000000
0.74039606 1.00000000 0.02399697
0.74037779 1.00000000 0.21905926
0.74031170 1.00000000 0.45550267
0.74016458 1.00000000 0.72059069
0.73991511 1.00000000 0.99685695
1.00000000 0.36259477 0.23085851
1.00000000 0.30477162 0.23302042
1.00000000 0.23191276 0.40046757
1.00000000 0.22942612 0.71220829
1.00000000 0.22513971 0.96622505
1.00000000 0.42174418 0.22718925
1.00000000 0.42210990 0.31009594
1.00000000 0.32793277 0.40802659
1.00000000 0.32627789 0.71400614
1.00000000 0.32344927 0.96762231
1.00000000 0.56785481 0.21471878
1.00000000 0.56752415 0.30199555
1.00000000 0.56759690 0.49107018
1.00000000 0.51714548 0.72010106
1.00000000 0.51554815 0.97216781
1.00000000 0.77872939 0.19088618
1.00000000 0.77788821 0.28756257
1.00000000 0.77528988 0.48545999
1.00000000 0.77424127 0.73449631
1.00000000 0.75484831 0.98058847
1.00000000 0.99102129 0.16431089
1.00000000 0.99105930 0.27335729
1.00000000 0.99120658 0.48133430
1.00000000 0.99163815 0.73624563
1.00000000 1.00000000 1.00000000
