luts/S9_Standard_to_hassy_blue.cube
# Film Emulation LUT
# Generated by lutex.py
# Grid: 33³
TITLE "Panasonic S9 Standard to Hasselblad HNCS (Natural Color)"
LUT_3D_SIZE 5
DOMAIN_MIN 0.0 0.0 0.0
DOMAIN_MAX 1.0 1.0 1.0
0.00000000 0.00000000 0.00000000
0.00958148 0.00985618 0.10521125
0.00000000 0.00097721 0.43445466
0.00000000 0.00110928 0.71718580
0.00000000 0.00116621 0.99531212
0.05468434 0.23764337 0.05677725
0.05468297 0.23764337 0.24066980
0.00000000 0.20543210 0.43445299
0.00000000 0.21835265 0.71718492
0.00000000 0.22213094 0.99531154
0.05463776 0.47220100 0.05677725
0.05463639 0.47220100 0.24066980
0.05463169 0.47220100 0.47765315
0.00000000 0.45335253 0.71718189
0.00000000 0.46037470 0.99530957
0.05453780 0.73276985 0.05677725
0.05453643 0.73276985 0.24066980
0.05453172 0.73276985 0.47765315
0.05452162 0.73276985 0.74091673
0.00000000 0.71976389 0.99530535
0.13811611 0.99442380 0.13914213
0.13996766 0.99424949 0.26971784
0.14615705 0.99364953 0.48771311
0.15859878 0.99236165 0.74077384
0.18752579 0.98947538 1.00000000
0.23515886 0.05563311 0.05677725
0.23515525 0.05563311 0.24066980
0.20284397 0.00000000 0.43457131
0.21552876 0.00000000 0.71724808
0.21919575 0.00000000 0.99535330
0.23512306 0.23764337 0.05677725
0.17389522 0.17598788 0.17849550
0.20432762 0.20691994 0.44244786
0.19344764 0.19654131 0.72370402
0.19005409 0.19331112 1.00000000
0.23499983 0.47220100 0.05677725
0.23499621 0.47220100 0.24066980
0.23498377 0.47220100 0.47765315
0.19330136 0.45101919 0.72370264
0.18989798 0.45256904 1.00000000
0.23473540 0.73276985 0.05677725
0.23473178 0.73276985 0.24066980
0.23471932 0.73276985 0.47765315
0.23469260 0.73276985 0.74091673
0.18956284 0.71964650 1.00000000
0.26617362 0.99391179 0.14449854
0.26833959 0.99399224 0.27343425
0.27130992 0.99341654 0.48921613
0.27755365 0.99218079 0.74125438
0.29320006 0.98949798 1.00000000
0.46765916 0.05563311 0.05677725
0.46765265 0.05563311 0.24066980
0.46763025 0.05563311 0.47765315
0.46758221 0.05563311 0.74091673
0.45559880 0.00000000 0.99535330
0.46759465 0.23764337 0.05677725
0.46758814 0.23764337 0.24066980
0.46756573 0.23764337 0.47765315
0.44618562 0.19648243 0.72373287
0.44760666 0.19334439 1.00000000
0.46737262 0.47220100 0.05677725
0.46736610 0.47220100 0.24066980
0.44337368 0.44824407 0.45370714
0.44512450 0.45027867 0.72657813
0.44913232 0.45430387 1.00000000
0.46689615 0.73276985 0.05677725
0.46688963 0.73276985 0.24066980
0.46686718 0.73276985 0.47765315
0.46681904 0.73276985 0.74091673
0.44863152 0.72025337 1.00000000
0.47981310 0.99214337 0.16150994
0.48098318 0.99231443 0.28194469
0.48506223 0.99293454 0.49513277
0.48772172 0.99187881 0.74337304
0.49503762 0.98959238 1.00000000
0.72577183 0.05563311 0.05677725
0.72576210 0.05563311 0.24066980
0.72572861 0.05563311 0.47765315
0.72565680 0.05563311 0.74091673
0.72650703 0.18790942 1.00000000
0.72567540 0.23764337 0.05677725
0.72566566 0.23764337 0.24066980
0.72563216 0.23764337 0.47765315
0.72556034 0.23764337 0.74091673
0.72716733 0.29557858 1.00000000
0.71559611 0.47605055 0.14726259
0.71645888 0.47751755 0.27249566
0.72530024 0.47220100 0.47765315
0.72522837 0.47220100 0.74091673
0.73000531 0.50017908 1.00000000
0.72463127 0.73276985 0.05677725
0.72462152 0.73276985 0.24066980
0.72458796 0.73276985 0.47765315
0.71085520 0.71937757 0.72778337
0.71433806 0.72260163 1.00000000
0.72516378 0.98833788 0.19277593
0.72594086 0.98867321 0.29910026
0.72877761 0.98994043 0.50282891
0.73518896 0.99290428 0.75031047
0.74104451 0.98995867 1.00000000
0.99016301 0.05563311 0.05677725
0.99014997 0.05563311 0.24066980
0.99010509 0.05563311 0.47765315
0.99000886 0.05563311 0.74091673
0.97968879 0.18790942 1.00000000
0.99003378 0.23764337 0.05677725
0.99002073 0.23764337 0.24066980
0.98997584 0.23764337 0.47765315
0.98987960 0.23764337 0.74091673
0.97960951 0.29557858 1.00000000
0.97647781 0.49263354 0.20199771
0.98957596 0.47220100 0.24066980
0.98953105 0.47220100 0.47765315
0.98943474 0.47220100 0.74091673
0.97937610 0.50017908 1.00000000
0.97582638 0.73251991 0.20185674
0.97640711 0.73336619 0.30363941
0.97840147 0.73626793 0.50357924
0.98892921 0.73276985 0.74091673
0.97982932 0.74907450 1.00000000
0.97162911 0.98204636 0.23460825
0.97225550 0.98265507 0.32498501
0.97452348 0.98486088 0.51483658
0.97996983 0.99016714 0.75522983
0.98220708 0.99115650 1.00000000
