luts/S9_Standard_to_hassy_blue.cube
# Film Emulation LUT
# Generated by lutex.py
# Grid: 33³
TITLE "Panasonic S9 Standard to Hasselblad HNCS (Natural Color)"
LUT_3D_SIZE 9
DOMAIN_MIN 0.0 0.0 0.0
DOMAIN_MAX 1.0 1.0 1.0
0.00000000 0.00000000 0.00000000
0.00000000 0.00000000 0.00000000
0.00958148 0.00985618 0.10521125
0.01571625 0.01647451 0.28016060
0.00000000 0.00097721 0.43445466
0.00000000 0.00106206 0.57731279
0.00000000 0.00110928 0.71718580
0.00000000 0.00113870 0.84446559
0.00000000 0.00116621 0.99531212
0.05469464 0.12533980 0.05677725
0.05469431 0.12533980 0.12720482
0.00958036 0.04019388 0.10520988
0.01571368 0.08421342 0.28016036
0.00000000 0.08891490 0.43445426
0.00000000 0.09371661 0.57731251
0.00000000 0.09605892 0.71718559
0.00000000 0.09727596 0.84446542
0.00000000 0.09815436 0.99531198
0.05468434 0.23764337 0.05677725
0.05468401 0.23764337 0.12720482
0.05468297 0.23764337 0.24066980
0.01570551 0.18394687 0.28015959
0.00000000 0.20543210 0.43445299
0.00000000 0.21411848 0.57731163
0.00000000 0.21835265 0.71718492
0.00000000 0.22054956 0.84446488
0.00000000 0.22213094 0.99531154
0.05466738 0.34612107 0.05677725
0.05466706 0.34612107 0.12720482
0.05466602 0.34612107 0.24066980
0.05466430 0.34612107 0.35026935
0.00000000 0.31011301 0.43445090
0.00000000 0.32229133 0.57731017
0.00000000 0.32822688 0.71718382
0.00000000 0.33130579 0.84446399
0.00000000 0.33352099 0.99531083
0.05463776 0.47220100 0.05677725
0.05463743 0.47220100 0.12720482
0.05463639 0.47220100 0.24066980
0.05463468 0.47220100 0.35026935
0.05463169 0.47220100 0.47765315
0.00000000 0.44547817 0.57730762
0.00000000 0.45335253 0.71718189
0.00000000 0.45743674 0.84446243
0.00000000 0.46037470 0.99530957
0.05459506 0.60152222 0.05677725
0.05459474 0.60152222 0.12720482
0.05459369 0.60152222 0.24066980
0.05459198 0.60152222 0.35026935
0.05458899 0.60152222 0.47765315
0.05458468 0.60152222 0.60831177
0.00000000 0.58059154 0.71717911
0.00000000 0.58569898 0.84446019
0.00000000 0.58937269 0.99530777
0.05453780 0.73276985 0.05677725
0.05453747 0.73276985 0.12720482
0.05453643 0.73276985 0.24066980
0.05453471 0.73276985 0.35026935
0.05453172 0.73276985 0.47765315
0.05452740 0.73276985 0.60831177
0.05452162 0.73276985 0.74091673
0.05451490 0.73276985 0.86375619
0.00000000 0.71976389 0.99530535
0.05447217 0.85435195 0.05677725
0.05447217 0.85435195 0.12720482
0.05447217 0.85435195 0.24066980
0.05447217 0.85435195 0.35026935
0.05447217 0.85435195 0.47765315
0.05447217 0.85435195 0.60831177
0.05447217 0.85435195 0.74091673
0.05447217 0.85435195 0.86375619
0.18752579 0.84941739 1.00000000
0.13811611 0.99442380 0.13914213
0.13856129 0.99438211 0.18010568
0.13996766 0.99424949 0.26971784
0.14225281 0.99403109 0.36802496
0.14615705 0.99364953 0.48771311
0.15160160 0.99309952 0.61288286
0.15859878 0.99236165 0.74077384
0.16633799 0.99150426 0.85930486
0.18752579 0.98947538 1.00000000
0.12381373 0.05563311 0.05677725
0.12381320 0.05563311 0.12720482
0.03953624 0.00990891 0.10560908
0.08280145 0.01646516 0.28023134
0.08665975 0.00000000 0.43457131
0.09134729 0.00000000 0.57739468
0.09362398 0.00000000 0.71724808
0.09479711 0.00000000 0.84451624
0.09563055 0.00000000 0.99535330
0.12380845 0.12533980 0.05677725
0.00000000 0.00000000 0.00000000
0.05730824 0.05838186 0.13682494
0.08455481 0.08603950 0.28701448
0.08443762 0.08628313 0.43698930
0.06600648 0.06846639 0.58109194
0.02098485 0.02470575 0.72268576
0.00000000 0.00379954 0.84979955
0.00000000 0.00385803 0.99960992
0.12379167 0.23764337 0.05677725
0.12379113 0.23764337 0.12720482
0.12378944 0.23764337 0.24066980
0.08453809 0.18853058 0.28701247
0.08441772 0.20558285 0.43698863
0.06598017 0.20648324 0.58109167
0.02094592 0.19838841 0.72268565
0.00000000 0.19451428 0.84979782
0.00000000 0.19506095 0.99960852
0.12376402 0.34612107 0.05677725
0.12376349 0.34612107 0.12720482
0.12376180 0.34612107 0.24066980
0.12375901 0.34612107 0.35026935
0.08438495 0.31152157 0.43698754
0.06593682 0.31992140 0.58109124
0.02088184 0.31926115 0.72268546
0.00000000 0.31837927 0.84979496
0.00000000 0.31918882 0.99960622
0.12371573 0.47220100 0.05677725
0.12371520 0.47220100 0.12720482
0.12371350 0.47220100 0.24066980
0.12371071 0.47220100 0.35026935
0.12370584 0.47220100 0.47765315
0.06586107 0.44659936 0.58109048
0.02076992 0.45092510 0.72268513
0.00000000 0.45187634 0.84978998
0.00000000 0.45297306 0.99960219
0.12364614 0.60152222 0.05677725
0.12364560 0.60152222 0.12720482
0.12364390 0.60152222 0.24066980
0.12364111 0.60152222 0.35026935
0.12363623 0.60152222 0.47765315
0.12362920 0.60152222 0.60831177
0.02060870 0.58252818 0.72268466
0.00000000 0.58479906 0.84978279
0.00000000 0.58618448 0.99959640
0.12355278 0.73276985 0.05677725
0.12355225 0.73276985 0.12720482
0.12355055 0.73276985 0.24066980
0.12354776 0.73276985 0.35026935
0.12354288 0.73276985 0.47765315
0.12353584 0.73276985 0.60831177
0.12352641 0.73276985 0.74091673
0.12351547 0.73276985 0.86375619
0.00000000 0.71956422 0.99958863
0.12344738 0.85435195 0.05677725
0.12344738 0.85435195 0.12720482
0.12344738 0.85435195 0.24066980
0.12344738 0.85435195 0.35026935
0.12344738 0.85435195 0.47765315
0.12344738 0.85435195 0.60831177
0.12344738 0.85435195 0.74091673
0.12344738 0.85435195 0.86375619
0.21818020 0.84950071 1.00000000
0.17822551 0.99430230 0.14045225
0.17900997 0.99431549 0.18153160
0.18007972 0.99418416 0.27059269
0.18182637 0.99396787 0.36859029
0.18483420 0.99358999 0.48806362
0.18907655 0.99304530 0.61309275
0.19460607 0.99231457 0.74088323
0.20081661 0.99146549 0.85934249
0.21818020 0.98948062 1.00000000
0.23515886 0.05563311 0.05677725
0.23515800 0.05563311 0.12720482
0.23515525 0.05563311 0.24066980
0.23515072 0.05563311 0.35026935
0.20284397 0.00000000 0.43457131
0.21137973 0.00000000 0.57739468
0.21552876 0.00000000 0.71724808
0.21766998 0.00000000 0.84451624
0.21919575 0.00000000 0.99535330
0.23515030 0.12533980 0.05677725
0.23514943 0.12533980 0.12720482
0.23514668 0.12533980 0.24066980
0.23514216 0.12533980 0.35026935
0.20309515 0.08625934 0.43705052
0.20373489 0.06841448 0.58111631
0.19535561 0.02461831 0.72269640
0.19045175 0.00000000 0.84996254
0.19092073 0.00000000 0.99974279
0.23512306 0.23764337 0.05677725
0.23512219 0.23764337 0.12720482
0.17389522 0.17598788 0.17849550
0.19553448 0.19789873 0.30159426
0.20432762 0.20691994 0.44244786
0.20271800 0.20553283 0.58337759
0.19344764 0.19654131 0.72370402
0.17852622 0.18199011 0.85207371
0.19005409 0.19331112 1.00000000
0.23507820 0.34612107 0.05677725
0.23507733 0.34612107 0.12720482
0.23507458 0.34612107 0.24066980
0.23507005 0.34612107 0.35026935
0.20428130 0.31496531 0.44244538
0.20266896 0.32034126 0.58337649
0.19339439 0.31863605 0.72370352
0.17846706 0.31257949 0.85207347
0.18999727 0.31833033 1.00000000
0.23499983 0.47220100 0.05677725
0.23499897 0.47220100 0.12720482
0.23499621 0.47220100 0.24066980
0.23499168 0.47220100 0.35026935
0.23498377 0.47220100 0.47765315
0.20258329 0.44802834 0.58337458
0.19330136 0.45101919 0.72370264
0.17836370 0.44942783 0.85207304
0.18989798 0.45256904 1.00000000
0.23488689 0.60152222 0.05677725
0.23488602 0.60152222 0.12720482
0.23488327 0.60152222 0.24066980
0.23487874 0.60152222 0.35026935
0.23487082 0.60152222 0.47765315
0.23485941 0.60152222 0.60831177
0.19316726 0.58311991 0.72370137
0.17821468 0.58439529 0.85207243
0.18975487 0.58605926 1.00000000
0.23473540 0.73276985 0.05677725
0.23473453 0.73276985 0.12720482
0.23473178 0.73276985 0.24066980
0.23472724 0.73276985 0.35026935
0.23471932 0.73276985 0.47765315
0.23470790 0.73276985 0.60831177
0.23469260 0.73276985 0.74091673
0.23467484 0.73276985 0.86375619
0.18956284 0.71964650 1.00000000
0.23457248 0.85435195 0.05677725
0.23457248 0.85435195 0.12720482
0.23457248 0.85435195 0.24066980
0.23457248 0.85435195 0.35026935
0.23457248 0.85435195 0.47765315
0.23457248 0.85435195 0.60831177
0.23457248 0.85435195 0.74091673
0.23457248 0.85435195 0.86375619
0.29320006 0.84977659 1.00000000
0.26617362 0.99391179 0.14449854
0.26670471 0.99393316 0.18464713
0.26833959 0.99399224 0.27343425
0.26942553 0.99378267 0.37043754
0.27130992 0.99341654 0.48921613
0.27399801 0.99288878 0.61378953
0.27755365 0.99218079 0.74125438
0.28161517 0.99135815 0.85948144
0.29320006 0.98949798 1.00000000
0.34269733 0.05563311 0.05677725
0.34269615 0.05563311 0.12720482
0.34269238 0.05563311 0.24066980
0.34268617 0.05563311 0.35026935
0.34267533 0.05563311 0.47765315
0.31881876 0.00000000 0.57739468
0.32464243 0.00000000 0.71724808
0.32764870 0.00000000 0.84451624
0.32979198 0.00000000 0.99535330
0.34268559 0.12533980 0.05677725
0.34268441 0.12533980 0.12720482
0.34268064 0.12533980 0.24066980
0.34267443 0.12533980 0.35026935
0.34266359 0.12533980 0.47765315
0.31638463 0.06841448 0.58111631
0.31551873 0.02461831 0.72269640
0.31410847 0.00000000 0.84996254
0.31482346 0.00000000 0.99974279
0.34264825 0.23764337 0.05677725
0.34264706 0.23764337 0.12720482
0.34264330 0.23764337 0.24066980
0.34263709 0.23764337 0.35026935
0.34262625 0.23764337 0.47765315
0.31673428 0.20549957 0.58344015
0.31481083 0.19648243 0.72373287
0.30854131 0.18191539 0.85208779
0.31441370 0.19334439 1.00000000
0.34258676 0.34612107 0.05677725
0.34258557 0.34612107 0.12720482
0.34258180 0.34612107 0.24066980
0.30647711 0.30986476 0.31382572
0.31473532 0.31829704 0.44833774
0.31670878 0.32043829 0.58617681
0.31350459 0.31741768 0.72503303
0.30665728 0.31077294 0.85272583
0.31532006 0.31930553 1.00000000
0.34247934 0.47220100 0.05677725
0.34247815 0.47220100 0.12720482
0.34247438 0.47220100 0.24066980
0.34246817 0.47220100 0.35026935
0.34245732 0.47220100 0.47765315
0.31659683 0.44961423 0.58617398
0.31338910 0.45094073 0.72503163
0.30653714 0.44865965 0.85272514
0.31520140 0.45314126 1.00000000
0.34232452 0.60152222 0.05677725
0.34232333 0.60152222 0.12720482
0.34231955 0.60152222 0.24066980
0.34231334 0.60152222 0.35026935
0.34230249 0.60152222 0.47765315
0.34228685 0.60152222 0.60831177
0.31322265 0.58380784 0.72502962
0.30636397 0.58424575 0.85272414
0.31503036 0.58640695 1.00000000
0.34211686 0.73276985 0.05677725
0.34211567 0.73276985 0.12720482
0.34211190 0.73276985 0.24066980
0.34210568 0.73276985 0.35026935
0.34209482 0.73276985 0.47765315
0.34207917 0.73276985 0.60831177
0.34205819 0.73276985 0.74091673
0.30613167 0.71927852 0.85272280
0.31480094 0.71984648 1.00000000
0.34191185 0.85435195 0.05677725
0.34191185 0.85435195 0.12720482
0.34191185 0.85435195 0.24066980
0.34191185 0.85435195 0.35026935
0.34191185 0.85435195 0.47765315
0.34191185 0.85435195 0.60831177
0.34191185 0.85435195 0.74091673
0.34191185 0.85435195 0.86375619
0.31470573 0.84260792 1.00000000
0.36266026 0.99326837 0.15092114
0.36303658 0.99329635 0.18960403
0.36425077 0.99339102 0.27661484
0.36618041 0.99353045 0.37363960
0.36742092 0.99318368 0.49123794
0.36919903 0.99268386 0.61503342
0.37156621 0.99201337 0.74194250
0.37429100 0.99123435 0.85977407
0.38219920 0.98952907 1.00000000
0.46765916 0.05563311 0.05677725
0.46765761 0.05563311 0.12720482
0.46765265 0.05563311 0.24066980
0.46764449 0.05563311 0.35026935
0.46763025 0.05563311 0.47765315
0.46760972 0.05563311 0.60831177
0.46758221 0.05563311 0.74091673
0.45275370 0.00000000 0.84451624
0.45559880 0.00000000 0.99535330
0.46764373 0.12533980 0.05677725
0.46764217 0.12533980 0.12720482
0.46763722 0.12533980 0.24066980
0.46762906 0.12533980 0.35026935
0.46761481 0.12533980 0.47765315
0.46759429 0.12533980 0.60831177
0.46756677 0.12533980 0.74091673
0.44682892 0.00000000 0.84996254
0.44780515 0.00000000 0.99974279
0.46759465 0.23764337 0.05677725
0.46759309 0.23764337 0.12720482
0.46758814 0.23764337 0.24066980
0.46757998 0.23764337 0.35026935
0.46756573 0.23764337 0.47765315
0.46754520 0.23764337 0.60831177
0.44618562 0.19648243 0.72373287
0.44441916 0.18191539 0.85208779
0.44760666 0.19334439 1.00000000
0.46751382 0.34612107 0.05677725
0.46751226 0.34612107 0.12720482
0.46750730 0.34612107 0.24066980
0.46749914 0.34612107 0.35026935
0.46748489 0.34612107 0.47765315
0.46746436 0.34612107 0.60831177
0.44597942 0.31736318 0.72507979
0.44351506 0.31069609 0.85274921
0.44812073 0.31934858 1.00000000
0.46737262 0.47220100 0.05677725
0.46737106 0.47220100 0.12720482
0.46736610 0.47220100 0.24066980
0.46735793 0.47220100 0.35026935
0.44337368 0.44824407 0.45370714
0.44586667 0.45087271 0.58917271
0.44512450 0.45027867 0.72657813
0.44178577 0.44709502 0.85349908
0.44913232 0.45430387 1.00000000
0.46716911 0.60152222 0.05677725
0.46716755 0.60152222 0.12720482
0.46716259 0.60152222 0.24066980
0.46715442 0.60152222 0.35026935
0.46714015 0.60152222 0.47765315
0.46711960 0.60152222 0.60831177
0.44491240 0.58436793 0.72657588
0.44157006 0.58371963 0.85349795
0.44891843 0.58711415 1.00000000
0.46689615 0.73276985 0.05677725
0.46689459 0.73276985 0.12720482
0.46688963 0.73276985 0.24066980
0.46688145 0.73276985 0.35026935
0.46686718 0.73276985 0.47765315
0.46684661 0.73276985 0.60831177
0.46681904 0.73276985 0.74091673
0.44128071 0.71948268 0.85349644
0.44863152 0.72025337 1.00000000
0.46666874 0.85435195 0.05677725
0.46666874 0.85435195 0.12720482
0.46666874 0.85435195 0.24066980
0.46666874 0.85435195 0.35026935
0.46666874 0.85435195 0.47765315
0.46666874 0.85435195 0.60831177
0.46666874 0.85435195 0.74091673
0.46666874 0.85435195 0.86375619
0.44855667 0.84281136 1.00000000
0.47981310 0.99214337 0.16150994
0.48008984 0.99218293 0.19793859
0.48098318 0.99231443 0.28194469
0.48249760 0.99254977 0.37729327
0.48506223 0.99293454 0.49513277
0.48620081 0.99248364 0.61749154
0.48772172 0.99187881 0.74337304
0.48947965 0.99117616 0.86047536
0.49503762 0.98959238 1.00000000
0.59579102 0.05563311 0.05677725
0.59578908 0.05563311 0.12720482
0.59578291 0.05563311 0.24066980
0.59577275 0.05563311 0.35026935
0.59575500 0.05563311 0.47765315
0.59572944 0.05563311 0.60831177
0.59569517 0.05563311 0.74091673
0.59565539 0.05563311 0.86375619
0.58344217 0.00000000 0.99535330
0.59577180 0.12533980 0.05677725
0.59576986 0.12533980 0.12720482
0.59576369 0.12533980 0.24066980
0.59575353 0.12533980 0.35026935
0.59573578 0.12533980 0.47765315
0.59571022 0.12533980 0.60831177
0.59567595 0.12533980 0.74091673
0.59563617 0.12533980 0.86375619
0.57999093 0.00000000 0.99974279
0.59571067 0.23764337 0.05677725
0.59570873 0.23764337 0.12720482
0.59570255 0.23764337 0.24066980
0.59569239 0.23764337 0.35026935
0.59567464 0.23764337 0.47765315
0.59564908 0.23764337 0.60831177
0.59561480 0.23764337 0.74091673
0.59557502 0.23764337 0.86375619
0.57991831 0.19334439 1.00000000
0.58752583 0.35226696 0.12230503
0.58779321 0.35277640 0.16699059
0.58864252 0.35439067 0.26056110
0.59559172 0.34612107 0.35026935
0.59557396 0.34612107 0.47765315
0.59554839 0.34612107 0.60831177
0.59551411 0.34612107 0.74091673
0.59547431 0.34612107 0.86375619
0.58018103 0.31934858 1.00000000
0.58735223 0.47008448 0.12227246
0.58761971 0.47044157 0.16696682
0.58846933 0.47157497 0.26054657
0.58986484 0.47343371 0.36077828
0.59539808 0.47220100 0.47765315
0.59537250 0.47220100 0.60831177
0.59533820 0.47220100 0.74091673
0.57719074 0.44701471 0.85352615
0.58074905 0.45436573 1.00000000
0.59518066 0.60152222 0.05677725
0.59517872 0.60152222 0.12720482
0.59517254 0.60152222 0.24066980
0.59516236 0.60152222 0.35026935
0.59514460 0.60152222 0.47765315
0.57757709 0.58412485 0.59106279
0.57753373 0.58421206 0.72764566
0.56399157 0.57142064 0.86090680
0.58180948 0.58843946 1.00000000
0.59484069 0.73276985 0.05677725
0.59483875 0.73276985 0.12720482
0.59483256 0.73276985 0.24066980
0.59482238 0.73276985 0.35026935
0.59480460 0.73276985 0.47765315
0.59477899 0.73276985 0.60831177
0.59474465 0.73276985 0.74091673
0.56377565 0.71845876 0.86082117
0.58145947 0.72101646 1.00000000
0.59463291 0.85435195 0.05677725
0.59463291 0.85435195 0.12720482
0.59463291 0.85435195 0.24066980
0.59463291 0.85435195 0.35026935
0.59463291 0.85435195 0.47765315
0.59463291 0.85435195 0.60831177
0.59463291 0.85435195 0.74091673
0.59463291 0.85435195 0.86375619
0.58144582 0.84319330 1.00000000
0.60166879 0.99051975 0.17559781
0.60188774 0.99057606 0.20930939
0.60259432 0.99076080 0.28942137
0.60379154 0.99108380 0.38230902
0.60598241 0.99170395 0.49855474
0.60902892 0.99254789 0.62166141
0.60999299 0.99203795 0.74594133
0.61110957 0.99144562 0.86190942
0.61581441 0.98971127 1.00000000
0.72577183 0.05563311 0.05677725
0.72576951 0.05563311 0.12720482
0.72576210 0.05563311 0.24066980
0.72574991 0.05563311 0.35026935
0.72572861 0.05563311 0.47765315
0.72569793 0.05563311 0.60831177
0.72565680 0.05563311 0.74091673
0.72560906 0.05563311 0.86375619
0.72650703 0.18790942 1.00000000
0.72574877 0.12533980 0.05677725
0.72574644 0.12533980 0.12720482
0.72573903 0.12533980 0.24066980
0.72572684 0.12533980 0.35026935
0.72570554 0.12533980 0.47765315
0.72567486 0.12533980 0.60831177
0.72563373 0.12533980 0.74091673
0.72558598 0.12533980 0.86375619
0.72665939 0.21922770 1.00000000
0.72567540 0.23764337 0.05677725
0.72567307 0.23764337 0.12720482
0.72566566 0.23764337 0.24066980
0.72565346 0.23764337 0.35026935
0.72563216 0.23764337 0.47765315
0.72560148 0.23764337 0.60831177
0.72556034 0.23764337 0.74091673
0.72551259 0.23764337 0.86375619
0.72716733 0.29557858 1.00000000
0.71580449 0.36073174 0.14730452
0.71601092 0.36122668 0.18593134
0.72554483 0.34612107 0.24066980
0.72553263 0.34612107 0.35026935
0.72551133 0.34612107 0.47765315
0.72548063 0.34612107 0.60831177
0.72543949 0.34612107 0.74091673
0.72539173 0.34612107 0.86375619
0.72808897 0.38588120 1.00000000
0.71559611 0.47605055 0.14726259
0.71580262 0.47640200 0.18589851
0.71645888 0.47751755 0.27249566
0.71753773 0.47934722 0.36900132
0.72530024 0.47220100 0.47765315
0.72526953 0.47220100 0.60831177
0.72522837 0.47220100 0.74091673
0.72518060 0.47220100 0.86375619
0.73000531 0.50017908 1.00000000
0.72503929 0.60152222 0.05677725
0.72503696 0.60152222 0.12720482
0.71615904 0.59872215 0.27246489
0.71723847 0.60009649 0.36897989
0.71911853 0.60248700 0.48749796
0.72496529 0.60152222 0.60831177
0.72492411 0.60152222 0.74091673
0.72487630 0.60152222 0.86375619
0.71305512 0.58853317 1.00000000
0.72463127 0.73276985 0.05677725
0.72462894 0.73276985 0.12720482
0.72462152 0.73276985 0.24066980
0.72460930 0.73276985 0.35026935
0.72458796 0.73276985 0.47765315
0.72455722 0.73276985 0.60831177
0.71085520 0.71937757 0.72778337
0.70258704 0.71206036 0.85947311
0.71433806 0.72260163 1.00000000
0.72450327 0.85435195 0.05677725
0.72450327 0.85435195 0.12720482
0.72450327 0.85435195 0.24066980
0.72450327 0.85435195 0.35026935
0.72450327 0.85435195 0.47765315
0.72455342 0.85410583 0.60869435
0.72492348 0.85401306 0.74123133
0.72526153 0.85383171 0.86315311
0.71433806 0.84398752 1.00000000
0.72516378 0.98833788 0.19277593
0.72534771 0.98841674 0.22355346
0.72594086 0.98867321 0.29910026
0.72694455 0.98911427 0.38890845
0.72877761 0.98994043 0.50282891
0.73159584 0.99125511 0.62467685
0.73518896 0.99290428 0.75031047
0.73584783 0.99246010 0.86461094
0.74104451 0.98995867 1.00000000
0.84611162 0.05563311 0.05677725
0.84610894 0.05563311 0.12720482
0.84610038 0.05563311 0.24066980
0.84608630 0.05563311 0.35026935
0.84606171 0.05563311 0.47765315
0.84602629 0.05563311 0.60831177
0.84597880 0.05563311 0.74091673
0.84592368 0.05563311 0.86375619
0.84126603 0.18790942 1.00000000
0.84608499 0.12533980 0.05677725
0.84608230 0.12533980 0.12720482
0.84607375 0.12533980 0.24066980
0.84605967 0.12533980 0.35026935
0.84603508 0.12533980 0.47765315
0.84599965 0.12533980 0.60831177
0.84595216 0.12533980 0.74091673
0.84589703 0.12533980 0.86375619
0.84133127 0.21922770 1.00000000
0.84600027 0.23764337 0.05677725
0.84599759 0.23764337 0.12720482
0.84598903 0.23764337 0.24066980
0.84597495 0.23764337 0.35026935
0.84595036 0.23764337 0.47765315
0.84591492 0.23764337 0.60831177
0.84586743 0.23764337 0.74091673
0.84581230 0.23764337 0.86375619
0.84155116 0.29557858 1.00000000
0.84586077 0.34612107 0.05677725
0.84585808 0.34612107 0.12720482
0.84584952 0.34612107 0.24066980
0.84583544 0.34612107 0.35026935
0.84581084 0.34612107 0.47765315
0.84577540 0.34612107 0.60831177
0.84572789 0.34612107 0.74091673
0.84567275 0.34612107 0.86375619
0.84195843 0.38588120 1.00000000
0.83433586 0.48285453 0.17168467
0.83450406 0.48319973 0.20552864
0.83503872 0.48429549 0.28563121
0.84559172 0.47220100 0.35026935
0.84556711 0.47220100 0.47765315
0.84553165 0.47220100 0.60831177
0.84548413 0.47220100 0.74091673
0.84542896 0.47220100 0.86375619
0.84283263 0.50017908 1.00000000
0.83398909 0.60273334 0.17161198
0.83415739 0.60299383 0.20546882
0.83469233 0.60382132 0.28559011
0.83557214 0.60518064 0.37823775
0.83710574 0.60754520 0.49409770
0.84518037 0.60152222 0.60831177
0.84513282 0.60152222 0.74091673
0.84507762 0.60152222 0.86375619
0.84459658 0.62240469 1.00000000
0.84480954 0.73276985 0.05677725
0.84480954 0.73276985 0.12720482
0.84480954 0.73276985 0.24066980
0.84480954 0.73276985 0.35026935
0.83670660 0.73046968 0.49407335
0.83894549 0.73314202 0.61717453
0.84480954 0.73276985 0.74091673
0.84480954 0.73276985 0.86375619
0.84884469 0.74907450 1.00000000
0.84338249 0.85287126 0.08086990
0.84337071 0.85285786 0.14066983
0.84334029 0.85282217 0.24791091
0.84331362 0.85278649 0.35507670
0.84333688 0.85279298 0.48093146
0.84352649 0.85295619 0.61047535
0.84406943 0.85345959 0.74199033
0.83278503 0.84343607 0.85391320
0.83651710 0.84590220 1.00000000
0.83840949 0.98579726 0.21082713
0.83857306 0.98590247 0.23890289
0.83910012 0.98624272 0.30988965
0.83999051 0.98682163 0.39640038
0.84161255 0.98788822 0.50773328
0.84409798 0.98954848 0.62778516
0.84770171 0.99200151 0.75260067
0.85153221 0.99457208 0.86885232
0.85839730 0.99055602 1.00000000
0.99016301 0.05563311 0.05677725
0.99015989 0.05563311 0.12720482
0.99014997 0.05563311 0.24066980
0.99013363 0.05563311 0.35026935
0.99010509 0.05563311 0.47765315
0.99006397 0.05563311 0.60831177
0.99000886 0.05563311 0.74091673
0.98994488 0.05563311 0.86375619
0.97968879 0.18790942 1.00000000
0.99013210 0.12533980 0.05677725
0.99012898 0.12533980 0.12720482
0.99011905 0.12533980 0.24066980
0.99010271 0.12533980 0.35026935
0.99007417 0.12533980 0.47765315
0.99003306 0.12533980 0.60831177
0.98997794 0.12533980 0.74091673
0.98991396 0.12533980 0.86375619
0.97966944 0.21922770 1.00000000
0.99003378 0.23764337 0.05677725
0.99003066 0.23764337 0.12720482
0.99002073 0.23764337 0.24066980
0.99000439 0.23764337 0.35026935
0.98997584 0.23764337 0.47765315
0.98993472 0.23764337 0.60831177
0.98987960 0.23764337 0.74091673
0.98981561 0.23764337 0.86375619
0.97960951 0.29557858 1.00000000
0.98987187 0.34612107 0.05677725
0.98986874 0.34612107 0.12720482
0.98985882 0.34612107 0.24066980
0.98984247 0.34612107 0.35026935
0.98981392 0.34612107 0.47765315
0.98977279 0.34612107 0.60831177
0.98971765 0.34612107 0.74091673
0.98965365 0.34612107 0.86375619
0.97951675 0.38588120 1.00000000
0.97647781 0.49263354 0.20199771
0.97661356 0.49297007 0.23107560
0.98957596 0.47220100 0.24066980
0.98955961 0.47220100 0.35026935
0.98953105 0.47220100 0.47765315
0.98948990 0.47220100 0.60831177
0.98943474 0.47220100 0.74091673
0.98937072 0.47220100 0.86375619
0.97937610 0.50017908 1.00000000
0.97607533 0.61014027 0.20191061
0.97621116 0.61039666 0.23100064
0.97664298 0.61121115 0.30367142
0.97735342 0.61254918 0.39135175
0.98912336 0.60152222 0.47765315
0.98908219 0.60152222 0.60831177
0.98902701 0.60152222 0.74091673
0.98896295 0.60152222 0.86375619
0.97929671 0.62240469 1.00000000
0.97582638 0.73251991 0.20185674
0.97596534 0.73272247 0.23095486
0.97640711 0.73336619 0.30363941
0.97713391 0.73442448 0.39132979
0.97840147 0.73626793 0.50357924
0.98022367 0.73891300 0.62436898
0.98892921 0.73276985 0.74091673
0.98892921 0.73276985 0.86375619
0.97982932 0.74907450 1.00000000
0.98357682 0.85154170 0.13591661
0.98359249 0.85158891 0.17813000
0.98364810 0.85174603 0.26945746
0.98375875 0.85202773 0.36903580
0.98400893 0.85258825 0.49003096
0.97600826 0.85202079 0.63189113
0.97929967 0.85642143 0.75473527
0.98660424 0.85716202 0.86617417
0.98116839 0.86774400 1.00000000
0.97162911 0.98204636 0.23460825
0.97177760 0.98219064 0.25961798
0.97225550 0.98265507 0.32498501
0.97306106 0.98343824 0.40710850
0.97452348 0.98486088 0.51483658
0.97675373 0.98703238 0.63231916
0.97996983 0.99016714 0.75522983
0.98402427 0.99412362 0.87082187
0.98220708 0.99115650 1.00000000
