luts/S9_Standard_to_5219.cube
# Film Emulation LUT
# Generated by lutex.py
# Grid: 17³
TITLE "Panasonic S9 Standard to Kodak Vision3 5219 (500T)"
LUT_3D_SIZE 5
DOMAIN_MIN 0.0 0.0 0.0
DOMAIN_MAX 1.0 1.0 1.0
0.02805247 0.03128672 0.02323590
0.05180245 0.07085900 0.21713243
0.10538812 0.14716000 0.44610712
0.17746591 0.24440397 0.71149936
0.25608412 0.34859556 0.98864675
0.05516437 0.23502905 0.05115751
0.05538104 0.23508500 0.21791923
0.10528673 0.27022034 0.44571615
0.17729838 0.33002912 0.71090031
0.25584986 0.40986094 0.98782920
0.10918641 0.46115777 0.10687409
0.10931354 0.46118335 0.23703955
0.10931354 0.46118335 0.44537732
0.17676816 0.50251679 0.70900408
0.25510839 0.55351712 0.98524128
0.17869553 0.71617099 0.17721865
0.17877720 0.71618635 0.27332125
0.17877720 0.71618635 0.46163626
0.17877720 0.71618635 0.70547982
0.25349564 0.76230567 0.97961117
0.29596170 0.96699846 0.29503572
0.29696456 0.96678196 0.35449440
0.30017864 0.96596711 0.50152903
0.30744785 0.96408221 0.71594089
0.31949642 0.96082770 0.95409923
0.22776560 0.06850670 0.04963286
0.22786185 0.05665683 0.21769435
0.22439814 0.10697183 0.44601482
0.22876302 0.17838176 0.71134093
0.25665973 0.27552441 0.98842369
0.22815397 0.23502893 0.05114788
0.23345621 0.24015973 0.22338147
0.25062250 0.27068369 0.44824212
0.28647833 0.33036691 0.71218930
0.33801058 0.41008320 0.98854624
0.24693084 0.46115771 0.10686875
0.25175772 0.46345456 0.24198688
0.25228785 0.46370906 0.44791141
0.28616944 0.50271804 0.71029754
0.33747702 0.55366960 0.98596082
0.28277629 0.71617096 0.17721543
0.28685945 0.71746582 0.27747504
0.28737029 0.71762914 0.46406004
0.28737029 0.71762914 0.70679058
0.33631914 0.76240656 0.98033620
0.36493722 0.96622639 0.29810174
0.36979681 0.96721122 0.36099417
0.37291657 0.96664162 0.50584392
0.37837863 0.96483457 0.71805240
0.38755409 0.96171553 0.95480929
0.45404999 0.13763199 0.10503709
0.45409244 0.10904251 0.23679173
0.45409244 0.10904251 0.44610545
0.47221735 0.17822909 0.71079186
0.44927658 0.25644563 0.98767433
0.45404979 0.26550763 0.10501777
0.45640129 0.26730401 0.24160303
0.45682003 0.25802879 0.44852618
0.45122931 0.29200431 0.71173740
0.45449833 0.34248423 0.98785963
0.45442674 0.46115753 0.10685133
0.45676193 0.46345042 0.24181523
0.46479639 0.47134276 0.45554638
0.48234030 0.50337466 0.71450112
0.51126943 0.55416725 0.98830620
0.47265660 0.71617086 0.17720492
0.47485156 0.71746345 0.27732848
0.48241320 0.72195054 0.47123893
0.48302450 0.72231558 0.71105000
0.51057721 0.76273600 0.98269938
0.52030404 0.96370062 0.30785823
0.52351268 0.96477082 0.36837741
0.53478086 0.96861365 0.51911211
0.53934005 0.96771924 0.72552999
0.54468040 0.96504403 0.95757500
0.71168081 0.22484227 0.17604008
0.71170496 0.17848299 0.23829583
0.71170496 0.17848299 0.46398818
0.71170496 0.17848299 0.70968795
0.72962801 0.25597143 0.98601451
0.71168069 0.31673419 0.17602852
0.71300373 0.31818999 0.27783717
0.71324607 0.29224545 0.46629357
0.71324607 0.29224545 0.71066695
0.73105621 0.34214737 0.98620021
0.69328201 0.49971257 0.25385406
0.69610809 0.50291445 0.32597480
0.71756042 0.49876041 0.47258833
0.71808499 0.48922737 0.71374740
0.73554310 0.51720421 0.98678641
0.71191685 0.71617063 0.17718167
0.71321442 0.71745821 0.27700407
0.71771856 0.72192799 0.47049880
0.72796697 0.73209995 0.71990247
0.74544635 0.76325616 0.98765602
0.73429491 0.95809330 0.32818600
0.73645246 0.95935292 0.38406940
0.74408669 0.96385190 0.52743214
0.76228407 0.97482575 0.74284157
0.76700594 0.97470851 0.96609662
0.97773101 0.31757667 0.25193684
0.97774718 0.25361021 0.26315136
0.97774718 0.25361021 0.49203974
0.97774718 0.25361021 0.72516216
0.97803713 0.25517798 0.98323686
0.97773094 0.38510230 0.25192908
0.97859778 0.38624537 0.32829364
0.97876351 0.34064208 0.46149560
0.97876351 0.34064208 0.72611413
0.97900949 0.34158445 0.98342326
0.95289919 0.56608484 0.35838773
0.97859235 0.53816537 0.32787956
0.98159132 0.54077285 0.49997944
0.98196410 0.51661845 0.72911002
0.98207201 0.51686680 0.98401165
0.95459698 0.75058029 0.35903823
0.95648730 0.75244439 0.40944455
0.96304391 0.75890100 0.54388443
0.99081445 0.75834806 0.73446703
0.99082702 0.75082798 0.98307603
0.96296392 0.95036730 0.36480141
0.96459341 0.95195953 0.41358441
0.97036877 0.95760920 0.54461789
0.98419964 0.97117526 0.74925329
1.00000000 0.99763090 0.99559128
