luts/S9_Standard_to_leica_classic.cube
# Film Emulation LUT
# Generated by lutex.py
# Grid: 33³
TITLE "Panasonic S9 Standard to Leica Classic Look — Draft v1"
LUT_3D_SIZE 9
DOMAIN_MIN 0.0 0.0 0.0
DOMAIN_MAX 1.0 1.0 1.0
0.03274874 0.03534540 0.02236018
0.00000000 0.00000000 0.00000000
0.00000000 0.00000000 0.00000000
0.00000000 0.00078008 0.17659125
0.00000000 0.00161001 0.36432437
0.00000000 0.00196455 0.51783899
0.00000000 0.00215091 0.66323929
0.00000000 0.00226074 0.79739525
0.00000000 0.00235047 0.94893769
0.02608909 0.13389459 0.01572721
0.02570434 0.13374941 0.10937738
0.00000000 0.00000000 0.00000000
0.00000000 0.05314116 0.17676277
0.00000000 0.09099976 0.36447447
0.00000000 0.10329522 0.51800736
0.00000000 0.10893540 0.66343302
0.00000000 0.11182309 0.79761541
0.00000000 0.11376765 0.94918946
0.01026365 0.24706448 0.00000000
0.00894071 0.24718017 0.10153543
0.00893805 0.24718019 0.21662032
0.00000000 0.12708095 0.17719378
0.00000000 0.19058957 0.36485202
0.00000000 0.21122549 0.51843096
0.00000000 0.22068768 0.66392044
0.00000000 0.22552673 0.79816932
0.00000000 0.22877791 0.94982293
0.00976077 0.35597840 0.00000000
0.00000000 0.35717642 0.09550559
0.00000000 0.35717610 0.21175026
0.00000000 0.35717552 0.32406298
0.00000000 0.28606002 0.36548489
0.00000000 0.31462118 0.51914123
0.00000000 0.32771929 0.66473780
0.00000000 0.33441680 0.79909824
0.00000000 0.33891460 0.95088532
0.00941862 0.48159133 0.00000000
0.00000000 0.48240117 0.09441519
0.00000000 0.48240095 0.20966238
0.00000000 0.48240055 0.32105369
0.00000000 0.48239985 0.44910514
0.00000000 0.40010708 0.52035746
0.00000000 0.44900059 0.66613767
0.00000000 0.45778018 0.80068933
0.00000000 0.46367562 0.95270512
0.00909374 0.60928897 0.00000000
0.00000000 0.60987337 0.09429448
0.00000000 0.60987320 0.20923162
0.00000000 0.60987291 0.32038197
0.00000000 0.60987239 0.44817423
0.00000000 0.60987161 0.57893029
0.00000000 0.53296525 0.66811285
0.00000000 0.58228416 0.80293460
0.00000000 0.58956639 0.95527337
0.00872030 0.73856997 0.00000000
0.00000000 0.73900861 0.09465072
0.00000000 0.73900848 0.20957851
0.00000000 0.73900825 0.32079644
0.00000000 0.73900784 0.44868943
0.00000000 0.73900724 0.57955771
0.00000000 0.73900642 0.71322000
0.00000000 0.71566349 0.84001200
0.00000000 0.71661176 0.95866930
0.00831505 0.85832918 0.00000000
0.00000000 0.85867348 0.09525871
0.00000000 0.85867342 0.21033409
0.00000000 0.85867333 0.32178118
0.00000000 0.85867316 0.44996370
0.00000000 0.85867292 0.58113861
0.00000000 0.85867258 0.71511848
0.00000000 0.85867217 0.84313503
0.00000000 0.83109735 0.98980441
0.03168949 1.00000000 0.02384870
0.03168903 1.00000000 0.11119469
0.03168775 1.00000000 0.21835256
0.03168549 1.00000000 0.32723560
0.03168144 1.00000000 0.45418703
0.03167551 1.00000000 0.58482504
0.03166741 1.00000000 0.71859448
0.03165760 1.00000000 0.84657579
0.03164362 1.00000000 0.99415563
0.13108557 0.04128223 0.01600020
0.13089754 0.02850099 0.10943296
0.12632529 0.01689591 0.21760674
0.05092366 0.00000000 0.17732348
0.08763522 0.00000000 0.36466555
0.09953186 0.00000000 0.51808008
0.10495498 0.00000000 0.66343545
0.10769647 0.00000000 0.79756913
0.10949726 0.00000000 0.94909808
0.13094692 0.13389454 0.01573093
0.12901540 0.13200790 0.10727009
0.00000000 0.00000000 0.00000000
0.04669073 0.04959588 0.20654658
0.02048832 0.02614306 0.38146451
0.00000000 0.00650509 0.53075342
0.00000000 0.00689837 0.67279402
0.00000000 0.00716888 0.80501742
0.00000000 0.00743932 0.95510347
0.12440449 0.24706518 0.00000000
0.12219847 0.24628109 0.09927150
0.12141591 0.24591294 0.21516654
0.04664785 0.14628387 0.20688690
0.02020091 0.18043040 0.38183812
0.00000000 0.18750647 0.53115282
0.00000000 0.19217098 0.67326430
0.00000000 0.19455153 0.80555804
0.00000000 0.19616286 0.95572646
0.12134488 0.35597886 0.00000000
0.10984538 0.35902357 0.08435400
0.10899095 0.35879103 0.20891927
0.10897800 0.35879117 0.32491151
0.01971746 0.29315356 0.38246454
0.00000000 0.30901377 0.53182258
0.00000000 0.31598423 0.67405298
0.00000000 0.31952640 0.80646470
0.00000000 0.32190384 0.95677130
0.11987943 0.48159165 0.00000000
0.08494010 0.48786425 0.05158664
0.08388945 0.48770899 0.19768562
0.08387311 0.48770908 0.31867298
0.08384385 0.48770925 0.45312556
0.04935286 0.49988303 0.58556569
0.00000000 0.44724414 0.67540387
0.00000000 0.45201878 0.80801776
0.00000000 0.45521520 0.95856111
0.11898433 0.60928920 0.00000000
0.04624473 0.61738476 0.00000000
0.03049749 0.61820998 0.18047224
0.03046940 0.61821005 0.30958408
0.03041911 0.61821018 0.44791692
0.03034539 0.61821036 0.58587342
0.00000000 0.53709529 0.67731022
0.00000000 0.58232511 0.81020960
0.00000000 0.58632472 0.96108722
0.11822637 0.73857015 0.00000000
0.04319023 0.74494824 0.00000000
0.00000000 0.74701594 0.17154481
0.00000000 0.74701459 0.30377888
0.00000000 0.74701218 0.44304829
0.00000000 0.74700864 0.58117069
0.00000000 0.74700380 0.72033625
0.00000000 0.71929980 0.84683881
0.00000000 0.71706895 0.96442771
0.11753109 0.85832933 0.00000000
0.04027268 0.86362232 0.00000000
0.00000000 0.86522899 0.17159112
0.00000000 0.86522843 0.30296369
0.00000000 0.86522744 0.44158342
0.00000000 0.86522598 0.57914332
0.00000000 0.86522398 0.71777796
0.00000000 0.86522157 0.84935061
0.00000000 0.83375276 0.99530286
0.12659247 1.00000000 0.02385227
0.12659135 1.00000000 0.11120507
0.12658831 1.00000000 0.21836963
0.12658291 1.00000000 0.32725946
0.12657325 1.00000000 0.45421880
0.12655908 1.00000000 0.58486494
0.12653973 1.00000000 0.71864268
0.12651629 1.00000000 0.84663192
0.12648289 1.00000000 0.99422086
0.24547344 0.05366761 0.00000000
0.24550995 0.01180795 0.10153399
0.24550009 0.01180988 0.21650074
0.24158361 0.00000000 0.32550355
0.18891312 0.00000000 0.36477319
0.20925137 0.00000000 0.51820041
0.21852938 0.00000000 0.66357364
0.22322639 0.00000000 0.79772602
0.22632059 0.00000000 0.94927738
0.24543244 0.14343203 0.00000000
0.24457895 0.13838322 0.09935936
0.24413846 0.12468684 0.21505267
0.24033228 0.11678182 0.32565204
0.17858008 0.02573468 0.38179909
0.18403146 0.00000000 0.53143614
0.18836052 0.00000000 0.67335305
0.19049815 0.00000000 0.80551286
0.19185336 0.00000000 0.95555914
0.24519519 0.24706699 0.00000000
0.24439252 0.24628063 0.09930246
0.24168039 0.24360285 0.21252499
0.16794775 0.16964363 0.24071312
0.17860928 0.18075034 0.39230951
0.16110274 0.16388653 0.54113914
0.10973526 0.11419709 0.68840531
0.00000000 0.01059695 0.82425218
0.00000000 0.01096181 0.97076308
0.24011956 0.35598003 0.00000000
0.23853497 0.35902327 0.08438969
0.23573919 0.35730894 0.20617466
0.23470017 0.35668442 0.32260296
0.17837546 0.29973478 0.39288300
0.16068648 0.30360093 0.54184543
0.10886989 0.28953601 0.68924072
0.00000000 0.26779187 0.82510408
0.00000000 0.26558796 0.97176406
0.23774483 0.48159246 0.00000000
0.22808105 0.48786404 0.05163858
0.22512573 0.48668769 0.19474067
0.22406244 0.48627417 0.31631630
0.22402772 0.48627470 0.45164131
0.15996824 0.44238362 0.54305524
0.10736818 0.44171192 0.69067169
0.00000000 0.43255448 0.82656358
0.00000000 0.42917231 0.97347894
0.23635766 0.60928980 0.00000000
0.21490311 0.61738855 0.00000000
0.20906100 0.61744599 0.17717642
0.20795407 0.61715358 0.30715348
0.20791634 0.61715397 0.44641701
0.20786101 0.61715454 0.58485352
0.10520564 0.54408362 0.69269115
0.00000000 0.58038508 0.82862386
0.00000000 0.57601691 0.97589968
0.23523731 0.73857061 0.00000000
0.21118506 0.74495122 0.00000000
0.18534225 0.74945703 0.15049553
0.18415201 0.74924299 0.29446152
0.18410891 0.74924329 0.43936041
0.18404573 0.74924374 0.58076931
0.18395937 0.74924435 0.72231947
0.15822409 0.72259147 0.85256347
0.00000000 0.71725870 0.97910157
0.23426073 0.85832971 0.00000000
0.20862571 0.86362477 0.00000000
0.15312448 0.87156547 0.11188705
0.15178256 0.87140221 0.27894837
0.15175615 0.87140233 0.43102985
0.15171743 0.87140251 0.57600506
0.15166451 0.87140276 0.71981892
0.15160039 0.87140306 0.85526631
0.00000000 0.78960172 0.98281833
0.23798653 1.00000000 0.02386151
0.23798473 1.00000000 0.11123189
0.23797982 1.00000000 0.21841374
0.23797111 1.00000000 0.32732112
0.23795552 1.00000000 0.45430092
0.23793266 1.00000000 0.58496807
0.23790143 1.00000000 0.71876727
0.23786360 1.00000000 0.84677699
0.23780971 1.00000000 0.99438946
0.35629573 0.08545853 0.00000000
0.35781279 0.00000000 0.02738258
0.35779961 0.00000000 0.21117050
0.35777625 0.00000000 0.32375938
0.35424859 0.00000000 0.44873278
0.35186459 0.00000000 0.57620363
0.32757791 0.00000000 0.66380983
0.33414549 0.00000000 0.79799415
0.33847456 0.00000000 0.94958382
0.35623656 0.15687632 0.00000000
0.35929404 0.14648516 0.08406423
0.35900757 0.11255880 0.20848898
0.35898337 0.11256211 0.32440226
0.35470060 0.09658561 0.45298232
0.30874656 0.00000000 0.53163531
0.31535279 0.00000000 0.67358480
0.31863265 0.00000000 0.80577761
0.32073569 0.00000000 0.95586292
0.35608753 0.25943296 0.00000000
0.35913530 0.25711950 0.08421884
0.35741084 0.24990620 0.20596029
0.35670757 0.23682720 0.32225570
0.35236909 0.22981061 0.45169962
0.30355057 0.16368955 0.54141166
0.28937695 0.11377279 0.68866916
0.26576093 0.00000000 0.82494932
0.26315140 0.00000000 0.97143405
0.35583201 0.35598204 0.00000000
0.35886265 0.35902276 0.08445069
0.35713195 0.35730725 0.20625825
0.35403803 0.35424072 0.31995934
0.30394617 0.30419664 0.40247563
0.30003957 0.30039127 0.54580429
0.28219646 0.28271039 0.69066840
0.25072646 0.25150004 0.82748465
0.00000000 0.00571140 0.99669285
0.35254861 0.48159384 0.00000000
0.35223176 0.48786369 0.05172730
0.35045404 0.48668653 0.19482967
0.34727493 0.48459049 0.31357327
0.34605139 0.48381140 0.44909144
0.29943452 0.44375502 0.54698182
0.28137742 0.43926939 0.69208256
0.24957480 0.42571407 0.82911699
0.00000000 0.36516085 0.99828749
0.35065117 0.60929083 0.00000000
0.34340905 0.61739503 0.00000000
0.34072886 0.61744513 0.17727498
0.33741975 0.61588932 0.30425910
0.33621412 0.61534406 0.44383990
0.33614539 0.61534530 0.58310590
0.32641061 0.62690134 0.71960673
0.24793254 0.57797603 0.83142087
0.01585014 0.55126574 1.00000000
0.34913707 0.73857142 0.00000000
0.33832927 0.74495630 0.00000000
0.32727472 0.74945636 0.15061244
0.32377316 0.74823727 0.29134360
0.32259158 0.74784334 0.43674524
0.32251935 0.74784430 0.57901564
0.32242064 0.74784562 0.72108141
0.24572990 0.68030770 0.83446752
0.08626830 0.71428814 1.00000000
0.34786797 0.85833037 0.00000000
0.33505606 0.86362895 0.00000000
0.31098051 0.87156492 0.11204347
0.30723870 0.87055621 0.27553413
0.30610696 0.87025975 0.42836505
0.30606852 0.87026015 0.57424190
0.30601599 0.87026069 0.71858173
0.30595235 0.87026135 0.85436089
0.13367940 0.79657693 1.00000000
0.34936922 1.00000000 0.02387731
0.34936673 1.00000000 0.11127773
0.34935995 1.00000000 0.21848912
0.34934793 1.00000000 0.32742651
0.34932641 1.00000000 0.45444126
0.34929485 1.00000000 0.58514432
0.34925174 1.00000000 0.71898022
0.34919952 1.00000000 0.84702494
0.34912513 1.00000000 0.99467762
0.48478018 0.12469283 0.00000000
0.48581282 0.05595094 0.00000000
0.48579532 0.00000000 0.20850271
0.48576432 0.00000000 0.31995423
0.48570879 0.00000000 0.44791397
0.48370407 0.00000000 0.57651638
0.48205915 0.00000000 0.70748088
0.46027457 0.00000000 0.79846063
0.46600136 0.00000000 0.95011694
0.48470076 0.18059805 0.00000000
0.49105316 0.15957652 0.04963216
0.49085050 0.08790607 0.14672195
0.49081867 0.08791406 0.31745553
0.49076168 0.08792837 0.45171553
0.48662657 0.05715106 0.58404074
0.47936846 0.00000000 0.71649229
0.45440560 0.00000000 0.80623819
0.45728607 0.00000000 0.95639140
0.48450074 0.27244251 0.00000000
0.49084489 0.26441225 0.04990113
0.48966490 0.25742562 0.19380241
0.48917528 0.22638415 0.31525897
0.48911804 0.22638969 0.45044897
0.48493864 0.21587078 0.58327196
0.47723081 0.19503177 0.71747948
0.43490430 0.00000000 0.82539592
0.43102214 0.00000000 0.97195135
0.48416466 0.37444792 0.00000000
0.49049494 0.37426298 0.05035059
0.48931110 0.36966925 0.19415351
0.48720317 0.36134868 0.31291340
0.48634251 0.34662351 0.44831227
0.48208775 0.34025955 0.58197819
0.44196391 0.28260916 0.69108537
0.42849631 0.25131032 0.82796038
0.36748621 0.00000000 0.99735962
0.48358714 0.48155977 0.00000000
0.48989356 0.48778478 0.05111583
0.48870309 0.48660667 0.19475452
0.48658330 0.48450893 0.31364282
0.48275636 0.48072196 0.44596783
0.44441278 0.44236883 0.54942418
0.43574752 0.43371259 0.69277678
0.41982808 0.41782167 0.82892585
0.33650828 0.33396856 1.00000000
0.48113200 0.60929262 0.00000000
0.48295820 0.61740631 0.00000000
0.48195269 0.61744365 0.17744640
0.47978176 0.61588598 0.30446722
0.47586136 0.61308266 0.44068552
0.47452925 0.61218338 0.58005181
0.43451907 0.58169516 0.69475327
0.41836284 0.57377161 0.83120860
0.34436892 0.53956094 1.00000000
0.47915376 0.73857281 0.00000000
0.47627627 0.74496515 0.00000000
0.47269478 0.74945520 0.15081574
0.47045332 0.74823468 0.29156266
0.46640393 0.74604158 0.43343361
0.46514520 0.74540308 0.57595086
0.46502310 0.74540565 0.71892281
0.45673847 0.75757426 0.85003077
0.35499832 0.70875000 1.00000000
0.47759000 0.85833151 0.00000000
0.47214817 0.86363624 0.00000000
0.46195166 0.87156397 0.11231526
0.45964240 0.87055408 0.27576799
0.45546870 0.86874101 0.42486622
0.45433482 0.86826811 0.57115823
0.45427195 0.86826916 0.71642305
0.45419578 0.86827044 0.85278302
0.45073503 0.88299694 1.00000000
0.47759587 1.00000000 0.02390481
0.47759259 1.00000000 0.11135748
0.47758365 1.00000000 0.21862028
0.47756781 1.00000000 0.32760988
0.47753945 1.00000000 0.45468544
0.47749788 1.00000000 0.58545097
0.47744107 1.00000000 0.71935070
0.47737226 1.00000000 0.84745632
0.47727424 1.00000000 0.99517897
0.61586904 0.16577742 0.00000000
0.61662530 0.12163789 0.00000000
0.61660343 0.00000000 0.11737702
0.61656467 0.00000000 0.31849728
0.61649526 0.00000000 0.44595307
0.61639350 0.00000000 0.57629546
0.61505606 0.00000000 0.70802261
0.61387180 0.00000000 0.83359883
0.61293377 0.00000000 0.97854094
0.61576929 0.21032677 0.00000000
0.62367281 0.18130209 0.00000000
0.62478601 0.03570628 0.04590919
0.62474638 0.03573049 0.30719900
0.62467540 0.03577385 0.44531247
0.62457136 0.03583739 0.58288623
0.61966826 0.00000000 0.71702520
0.61362581 0.00000000 0.84095354
0.60937823 0.00000000 0.98457686
0.61551806 0.29153038 0.00000000
0.62343686 0.27664082 0.00000000
0.62380642 0.26775379 0.17482210
0.62343261 0.21043874 0.26012753
0.62336144 0.21044892 0.44402936
0.62325711 0.21046384 0.58214108
0.61908284 0.19492846 0.71803269
0.61216122 0.16574234 0.84640064
0.58175578 0.00000000 0.97269157
0.61272640 0.38823965 0.03680006
0.61274412 0.38733577 0.11482747
0.61279243 0.38485883 0.21724070
0.62180237 0.36831052 0.30248822
0.62114715 0.33717685 0.44186448
0.62104234 0.33718549 0.58088716
0.61679569 0.32830209 0.71732610
0.60982443 0.31309905 0.84610644
0.55708823 0.00000000 0.99807496
0.61199368 0.50364103 0.03685761
0.61201154 0.50298500 0.11507594
0.61206021 0.50119133 0.21768323
0.61214650 0.49799098 0.32387755
0.61820689 0.48791924 0.43948082
0.61721711 0.47323395 0.57872687
0.61284449 0.46729753 0.71611119
0.57923546 0.41772288 0.82960243
0.54324742 0.33683689 1.00000000
0.61334182 0.60925093 0.00000000
0.62139334 0.61713520 0.00000000
0.62154787 0.61728287 0.17698936
0.61996080 0.61572359 0.30438769
0.61710445 0.61291735 0.44082703
0.61288276 0.60876998 0.57687597
0.58128714 0.57705486 0.69337345
0.57111224 0.56691438 0.82974890
0.52215148 0.51730502 1.00000000
0.61093007 0.73857481 0.00000000
0.61335725 0.74497781 0.00000000
0.61443539 0.74945354 0.15110639
0.61281107 0.74823096 0.29187604
0.60988720 0.74603416 0.43381929
0.60556465 0.74279574 0.57279450
0.60424304 0.74189969 0.71582362
0.56751345 0.71740859 0.83364598
0.52705392 0.69828499 1.00000000
0.60914798 0.85833315 0.00000000
0.60841742 0.86364668 0.00000000
0.60635551 0.87156261 0.11270343
0.60471065 0.87055104 0.27610250
0.60174945 0.86873492 0.42526157
0.59737084 0.86606133 0.56784098
0.59623494 0.86540923 0.71332022
0.59614354 0.86541140 0.85051938
0.53454187 0.84552073 1.00000000
0.60808555 1.00000000 0.02394418
0.60808146 1.00000000 0.11147160
0.60807033 1.00000000 0.21880797
0.60805060 1.00000000 0.32787227
0.60801527 1.00000000 0.45503484
0.60796348 1.00000000 0.58588978
0.60789272 1.00000000 0.71988086
0.60780700 1.00000000 0.84807362
0.60768490 1.00000000 0.99589639
0.74887081 0.20797152 0.00000000
0.74945202 0.17544587 0.00000000
0.74942572 0.00000000 0.00771293
0.74937909 0.00000000 0.24189183
0.74929559 0.00000000 0.44525417
0.74917319 0.00000000 0.57540961
0.74900592 0.00000000 0.70831067
0.74804774 0.00000000 0.83444423
0.74692387 0.00000000 0.97952413
0.74875053 0.24418469 0.00000000
0.75491446 0.21994947 0.00000000
0.75751182 0.11255268 0.00000000
0.75746584 0.00000000 0.21339857
0.75738350 0.00000000 0.43886432
0.75726280 0.00000000 0.57659003
0.75709786 0.00000000 0.71520814
0.75248839 0.00000000 0.84178925
0.74737440 0.00000000 0.98555208
0.74844760 0.31549498 0.00000000
0.75462349 0.30044120 0.00000000
0.75952762 0.28087855 0.14536753
0.75922333 0.18675537 0.20513515
0.75913796 0.18677334 0.43526296
0.75901281 0.18679968 0.57622453
0.75884179 0.18683565 0.71717372
0.75495051 0.16550439 0.84726242
0.74718810 0.11047144 0.99534695
0.74793861 0.40420299 0.00000000
0.75413461 0.39619118 0.00000000
0.75900324 0.38530976 0.14593076
0.75777101 0.37737497 0.28784819
0.75723861 0.32402611 0.39202675
0.75711305 0.32404015 0.57496428
0.75694147 0.32405932 0.71651742
0.75297683 0.31298281 0.84696862
0.74516973 0.28955777 0.99542604
0.74483980 0.51697504 0.04427533
0.74485026 0.51633851 0.11847827
0.74487876 0.51459846 0.21963067
0.74492932 0.51149482 0.32530512
0.75463684 0.49431764 0.43061862
0.75383777 0.46469866 0.57279296
0.75366522 0.46471099 0.71538914
0.74957345 0.45747217 0.84646403
0.74168876 0.44304963 0.99556179
0.74582344 0.63631997 0.00000000
0.74360240 0.63471768 0.11880755
0.74363129 0.63337421 0.22024290
0.74368251 0.63098311 0.32618671
0.74377432 0.62666998 0.45079216
0.75002438 0.61586978 0.57091811
0.74899536 0.60147446 0.71378799
0.74472090 0.59607806 0.84574906
0.70522659 0.51954951 1.00000000
0.74417223 0.73853737 0.00000000
0.75051770 0.74473560 0.00000000
0.75512284 0.74923206 0.15001642
0.75386139 0.74800812 0.29158999
0.75159465 0.74580887 0.43390611
0.74825286 0.74256683 0.57312783
0.74365072 0.73810183 0.71262140
0.70908545 0.70237208 0.83639927
0.68332569 0.67651262 1.00000000
0.74232843 0.85833535 0.00000000
0.74512423 0.86366067 0.00000000
0.74890224 0.87156078 0.11322178
0.74763978 0.87054695 0.27655014
0.74537114 0.86872677 0.42579078
0.74202638 0.86604718 0.56847690
0.73741913 0.86236399 0.71017523
0.73649103 0.86142989 0.84737405
0.68700997 0.83642465 1.00000000
0.74039606 1.00000000 0.02399697
0.74039115 1.00000000 0.11162440
0.74037779 1.00000000 0.21905926
0.74035411 1.00000000 0.32822359
0.74031170 1.00000000 0.45550267
0.74024953 1.00000000 0.58647731
0.74016458 1.00000000 0.72059069
0.74006168 1.00000000 0.84890013
0.73991511 1.00000000 0.99685695
0.87308183 0.24762795 0.00000000
0.87355140 0.22164373 0.00000000
0.87352094 0.12156545 0.00000000
0.87346694 0.00000000 0.20087227
0.87337026 0.00000000 0.44518947
0.87322851 0.00000000 0.57532248
0.87303482 0.00000000 0.70820107
0.87280012 0.00000000 0.83514975
0.87180056 0.00000000 0.98067583
0.87294236 0.27804864 0.00000000
0.87800129 0.25735179 0.00000000
0.88010845 0.17805440 0.00000000
0.88005498 0.00000000 0.16054004
0.87995925 0.00000000 0.43586971
0.87981889 0.00000000 0.57272625
0.87962711 0.00000000 0.71047453
0.87939473 0.00000000 0.84112886
0.87519301 0.00000000 0.98669445
0.87259112 0.34120887 0.00000000
0.87765988 0.32680175 0.00000000
0.88609353 0.29536772 0.10050034
0.88583088 0.19019876 0.15410964
0.88573217 0.15414081 0.42472774
0.88558746 0.15418648 0.56920879
0.88538971 0.15424886 0.71223527
0.88515011 0.15432437 0.84681109
0.88013285 0.10986990 0.99651952
0.87200094 0.42342366 0.00000000
0.87708624 0.41445286 0.00000000
0.88548790 0.39535265 0.10138632
0.88446276 0.38764742 0.26953696
0.88400378 0.30778971 0.35568635
0.88385870 0.30781084 0.56794076
0.88366044 0.30783969 0.71158213
0.88342022 0.30787464 0.84657623
0.87831921 0.28934279 0.99659850
0.86880521 0.53203422 0.05210109
0.86881050 0.53141839 0.12234222
0.86882494 0.52973521 0.22188448
0.88341643 0.51172038 0.27053469
0.88156602 0.50166914 0.41996222
0.88088107 0.45446272 0.56575589
0.88068193 0.45448066 0.71045927
0.88044064 0.45450239 0.84617294
0.87519477 0.44292132 0.99673403
0.86736126 0.64681832 0.05211784
0.86736667 0.64633610 0.12264786
0.86738140 0.64501936 0.22248244
0.86740753 0.64267613 0.32783781
0.86745441 0.63845044 0.45217935
0.87732285 0.62139308 0.56385191
0.87644273 0.59416993 0.70886581
0.87619990 0.59418541 0.84560160
0.87074655 0.58570351 0.99692585
0.86770468 0.73785149 0.00000000
0.87291788 0.74030654 0.00000000
0.88109983 0.74376469 0.10767009
0.88007866 0.77159438 0.27377223
0.86570266 0.76062853 0.45374178
0.86584481 0.75561457 0.58276744
0.87183706 0.74444902 0.70766652
0.87099847 0.73159688 0.84482336
0.86547006 0.72486601 0.99718045
0.86660087 0.85829540 0.00000000
0.87186798 0.86340266 0.00000000
0.87965930 0.87094326 0.11359384
0.87850363 0.86980870 0.27751363
0.87648367 0.86782727 0.42709652
0.87363820 0.86503998 0.56990678
0.86997592 0.86146047 0.71145981
0.86505291 0.85861465 0.84539493
0.82557012 0.81455761 1.00000000
0.86400110 1.00000000 0.02405889
0.86399542 1.00000000 0.11180340
0.86397997 1.00000000 0.21935364
0.86395258 1.00000000 0.32863514
0.86390354 1.00000000 0.45605070
0.86383164 1.00000000 0.58716557
0.86373341 1.00000000 0.72142221
0.86361441 1.00000000 0.84986835
0.86344491 1.00000000 0.99798220
1.00000000 0.36259477 0.23085851
1.00000000 0.34925272 0.23324365
1.00000000 0.30477162 0.23302042
1.00000000 0.23262416 0.26261350
1.00000000 0.23191276 0.40046757
1.00000000 0.23086551 0.59284681
1.00000000 0.22942612 0.71220829
1.00000000 0.22766883 0.82917124
1.00000000 0.22513971 0.96622505
1.00000000 0.38052954 0.22982211
1.00000000 0.38067293 0.25487615
1.00000000 0.34765437 0.26437819
1.00000000 0.26403538 0.26613625
1.00000000 0.26342030 0.40262293
1.00000000 0.26251571 0.59346188
1.00000000 0.26127408 0.71271676
1.00000000 0.25976092 0.82961422
1.00000000 0.25758841 0.96662251
1.00000000 0.42174418 0.22718925
1.00000000 0.42181855 0.25257308
1.00000000 0.42210990 0.31009594
1.00000000 0.37312594 0.32840807
1.00000000 0.32793277 0.40802659
1.00000000 0.32723458 0.59502678
1.00000000 0.32627789 0.71400614
1.00000000 0.32511455 0.83073330
1.00000000 0.32344927 0.96762231
1.00000000 0.48177375 0.22268944
1.00000000 0.48176511 0.24865080
1.00000000 0.48181014 0.30714336
1.00000000 0.48215808 0.38678049
1.00000000 0.41085351 0.41704301
1.00000000 0.41032313 0.59771374
1.00000000 0.40959721 0.71620472
1.00000000 0.40871578 0.83262652
1.00000000 0.40745654 0.96929841
1.00000000 0.56785481 0.21471878
1.00000000 0.56775349 0.24174824
1.00000000 0.56752415 0.30199555
1.00000000 0.56730102 0.38318542
1.00000000 0.56759690 0.49107018
1.00000000 0.51768808 0.55661921
1.00000000 0.51714548 0.72010106
1.00000000 0.51648728 0.83592906
1.00000000 0.51554815 0.97216781
1.00000000 0.66812292 0.20283700
1.00000000 0.66794244 0.23157439
1.00000000 0.66747902 0.29452556
1.00000000 0.66676939 0.37802453
1.00000000 0.66592535 0.48783070
1.00000000 0.66603508 0.60770001
1.00000000 0.63301722 0.72600159
1.00000000 0.63250894 0.84077511
1.00000000 0.63210080 0.97607953
1.00000000 0.77872939 0.19088618
1.00000000 0.77849923 0.22160135
1.00000000 0.77788821 0.28756257
1.00000000 0.77686912 0.37356619
1.00000000 0.77528988 0.48545999
1.00000000 0.77375820 0.60686764
1.00000000 0.77424127 0.73449631
1.00000000 0.75513613 0.84828903
1.00000000 0.75484831 0.98058847
1.00000000 0.85217113 0.18055942
1.00000000 0.85225936 0.21316604
1.00000000 0.85250802 0.28187348
1.00000000 0.88429821 0.37008014
1.00000000 0.88223847 0.48378365
1.00000000 0.87957982 0.60652665
1.00000000 0.87716270 0.73521001
1.00000000 0.87904108 0.85988682
1.00000000 0.87017088 0.98599027
1.00000000 0.99102129 0.16431089
1.00000000 0.99103139 0.20019981
1.00000000 0.99105930 0.27335729
1.00000000 0.99111016 0.36494127
1.00000000 0.99120658 0.48133430
1.00000000 0.99136499 0.60603063
1.00000000 0.99163815 0.73624563
1.00000000 0.99219707 0.86213146
1.00000000 1.00000000 1.00000000
