luts/S9_Standard_to_gold200.cube
# Film Emulation LUT
# Generated by lutex.py
# Grid: 33³
TITLE "Panasonic S9 Standard to Kodak Gold 200 (Warm Golden) v2"
LUT_3D_SIZE 33
DOMAIN_MIN 0.0 0.0 0.0
DOMAIN_MAX 1.0 1.0 1.0
0.05817493 0.05515139 0.04480413
0.05780382 0.05569526 0.05221269
0.00000000 0.00000000 0.00000000
0.00000000 0.00000000 0.00000000
0.00000000 0.00000000 0.00000000
0.00000000 0.00000000 0.00000000
0.00000000 0.00000000 0.00000000
0.00000000 0.00000000 0.00000000
0.00000000 0.00000000 0.00000000
0.00000000 0.00000000 0.00000000
0.00104970 0.00787514 0.04280714
0.00358156 0.03959506 0.13960526
0.00384846 0.06996602 0.20563208
0.00178447 0.09426547 0.25989659
0.00000000 0.11592203 0.30721201
0.00000000 0.13633709 0.35022204
0.00000000 0.15550566 0.39059245
0.00000000 0.17378636 0.42908702
0.00000000 0.19140460 0.46618494
0.00000000 0.20851156 0.50220696
0.00000000 0.22521360 0.53737830
0.00000000 0.24158836 0.57186309
0.00000000 0.25769421 0.60578451
0.00000000 0.27357610 0.63923729
0.00000000 0.28926938 0.67229576
0.00000000 0.30480229 0.70501930
0.00000000 0.32019776 0.73745601
0.00000000 0.33547464 0.76964544
0.00000000 0.34827234 0.79661295
0.00000000 0.36130234 0.82407162
0.00000000 0.37655138 0.85620858
0.00000000 0.39309997 0.89108657
0.00000000 0.41055132 0.92786967
0.05788461 0.06311261 0.04446228
0.05751213 0.06276318 0.05190395
0.00000000 0.00000000 0.00000000
0.00000000 0.00000000 0.00000000
0.00000000 0.00000000 0.00000000
0.00000000 0.00000000 0.00000000
0.00000000 0.00000000 0.00000000
0.00000000 0.00000000 0.00000000
0.00000000 0.00000000 0.00000000
0.00000000 0.00000000 0.00000000
0.00128271 0.00904493 0.04580934
0.00426625 0.04242553 0.14061113
0.00494499 0.07291592 0.20620485
0.00322075 0.09723102 0.26027560
0.00000000 0.11833028 0.30774332
0.00000000 0.13863201 0.35067784
0.00000000 0.15768353 0.39099311
0.00000000 0.17584946 0.42944532
0.00000000 0.19335810 0.46650951
0.00000000 0.21036191 0.50250396
0.00000000 0.22696762 0.53765230
0.00000000 0.24325283 0.57211758
0.00000000 0.25927561 0.60602224
0.00000000 0.27508051 0.63946046
0.00000000 0.29070243 0.67250616
0.00000000 0.30616915 0.70521841
0.00000000 0.32150318 0.73764509
0.00000000 0.33672296 0.76982554
0.00000000 0.34947561 0.79678619
0.00000000 0.36246221 0.82423842
0.00000000 0.37766341 0.85636847
0.00000000 0.39416344 0.89123965
0.00000000 0.41156710 0.92801623
0.05514710 0.09943811 0.04120205
0.05476141 0.09919818 0.04897050
0.05446114 0.09901198 0.08593864
0.05246835 0.10262067 0.11874918
0.00000000 0.00000000 0.00000000
0.00000000 0.00000000 0.00000000
0.00000000 0.00000000 0.00000000
0.00000000 0.00000000 0.00000000
0.00000000 0.00000000 0.00000000
0.00000000 0.00000000 0.00000000
0.00129020 0.01180573 0.04609998
0.00426770 0.05243419 0.14075020
0.00494029 0.08448770 0.20631719
0.00321024 0.10938366 0.26037869
0.00000000 0.13055841 0.30784056
0.00000000 0.15050665 0.35077414
0.00000000 0.16910897 0.39108994
0.00000000 0.18678793 0.42954357
0.00000000 0.20380280 0.46660976
0.00000000 0.22032276 0.50260661
0.00000000 0.23646343 0.53775764
0.00000000 0.25230676 0.57222584
0.00000000 0.26791257 0.60613357
0.00000000 0.28332567 0.63957499
0.00000000 0.29858033 0.67262401
0.00000000 0.31370325 0.70533966
0.00000000 0.32871560 0.73776980
0.00000000 0.34363440 0.76995376
0.00000000 0.35614835 0.79691741
0.00000000 0.36890394 0.82437274
0.00000000 0.38384946 0.85650647
0.00000000 0.40008891 0.89138169
0.00000000 0.41723555 0.92816260
0.05149265 0.13325176 0.03681977
0.05108805 0.13306988 0.04503223
0.05077498 0.13292959 0.08341690
0.05077386 0.13292902 0.11793107
0.04849120 0.12525963 0.14963025
0.00000000 0.00000000 0.00000000
0.00000000 0.00000000 0.00000000
0.00000000 0.00000000 0.00000000
0.00000000 0.00000000 0.00000000
0.00000000 0.00000000 0.00000000
0.00129976 0.01539601 0.04647087
0.00426955 0.06364379 0.14092828
0.00493426 0.09761453 0.20646111
0.00319675 0.12333849 0.26051077
0.00000000 0.14475671 0.30796516
0.00000000 0.16445458 0.35089755
0.00000000 0.18266152 0.39121403
0.00000000 0.19987194 0.42966947
0.00000000 0.21638630 0.46673823
0.00000000 0.23239799 0.50273815
0.00000000 0.24803698 0.53789264
0.00000000 0.26339357 0.57236457
0.00000000 0.27853227 0.60627625
0.00000000 0.29350027 0.63972178
0.00000000 0.30833275 0.67277504
0.00000000 0.32305645 0.70549503
0.00000000 0.33769199 0.73792961
0.00000000 0.35225552 0.77011808
0.00000000 0.36448595 0.79708557
0.00000000 0.37696577 0.82454488
0.00000000 0.39160451 0.85668333
0.00000000 0.40752969 0.89156374
0.00000000 0.42436486 0.92835018
0.04674286 0.16572462 0.03140979
0.04631122 0.16557899 0.03986256
0.04597972 0.16546745 0.08022486
0.04597856 0.16546678 0.11562551
0.04597711 0.16546594 0.14873015
0.04343454 0.15659873 0.17960452
0.03710876 0.17330237 0.20878866
0.00000000 0.00000000 0.00000000
0.00000000 0.00000000 0.00000000
0.00000000 0.00000000 0.00000000
0.00131149 0.01989062 0.04692449
0.00427178 0.07570819 0.14114701
0.00492680 0.11188129 0.20663797
0.00318012 0.13865822 0.26067313
0.00000000 0.16049336 0.30811833
0.00000000 0.18007491 0.35104926
0.00000000 0.19797839 0.39136657
0.00000000 0.21477877 0.42982426
0.00000000 0.23082497 0.46689617
0.00000000 0.24634055 0.50289989
0.00000000 0.26147457 0.53805862
0.00000000 0.27632949 0.57253514
0.00000000 0.29097748 0.60645167
0.00000000 0.30547043 0.63990226
0.00000000 0.31984628 0.67296074
0.00000000 0.33413320 0.70568608
0.00000000 0.34835236 0.73812611
0.00000000 0.36251989 0.77032013
0.00000000 0.37443205 0.79729235
0.00000000 0.38660042 0.82475654
0.00000000 0.40089069 0.85690078
0.00000000 0.41645676 0.89178757
0.00000000 0.43293397 0.92858082
0.04067276 0.19715962 0.02499339
0.04019804 0.19703867 0.03345140
0.03983566 0.19694678 0.07629669
0.03983443 0.19694601 0.11283324
0.03983290 0.19694504 0.14657899
0.03983107 0.19694389 0.17863393
0.03707053 0.18697770 0.20885751
0.02971394 0.20603879 0.23742804
0.00000000 0.00000000 0.00000000
0.00000000 0.00000000 0.00000000
0.00132535 0.02533502 0.04745903
0.00427437 0.08830570 0.14140606
0.00491791 0.12688391 0.20684757
0.00316037 0.15489554 0.26086558
0.00000000 0.17730341 0.30829992
0.00000000 0.19690886 0.35122912
0.00000000 0.21461875 0.39154745
0.00000000 0.23109235 0.43000779
0.00000000 0.24673092 0.46708345
0.00000000 0.26179189 0.50309167
0.00000000 0.27644673 0.53825544
0.00000000 0.29081297 0.57273740
0.00000000 0.30497292 0.60665969
0.00000000 0.31898527 0.64011627
0.00000000 0.33289244 0.67318094
0.00000000 0.34672545 0.70591263
0.00000000 0.36050723 0.73835913
0.00000000 0.37425483 0.77055972
0.00000000 0.38582682 0.79753755
0.00000000 0.39766019 0.82500754
0.00000000 0.41157317 0.85715866
0.00000000 0.42674787 0.89205301
0.00000000 0.44283250 0.92885433
0.03319432 0.22774999 0.01757429
0.03271506 0.22764686 0.02603836
0.03235647 0.22756924 0.07153908
0.03235529 0.22756837 0.10952131
0.03235383 0.22756728 0.14405091
0.03235209 0.22756598 0.17660423
0.03235006 0.22756447 0.20782689
0.02966446 0.21655763 0.23751602
0.00000000 0.00000000 0.00000000
0.00000000 0.00000000 0.00000000
0.00134129 0.03178379 0.04807250
0.00427731 0.10123412 0.14170509
0.00490757 0.14235463 0.20708970
0.00313746 0.17174005 0.26108797
0.00000000 0.19485027 0.30850978
0.00000000 0.21460917 0.35143701
0.00000000 0.23223560 0.39175651
0.00000000 0.24847356 0.43021994
0.00000000 0.26377805 0.46729994
0.00000000 0.27844213 0.50331336
0.00000000 0.29266162 0.53848296
0.00000000 0.30657096 0.57297122
0.00000000 0.32026438 0.60690016
0.00000000 0.33380895 0.64036368
0.00000000 0.34725300 0.67343550
0.00000000 0.36063166 0.70617453
0.00000000 0.37397065 0.73862851
0.00000000 0.38728888 0.77083670
0.00000000 0.39851021 0.79782102
0.00000000 0.40999585 0.82529771
0.00000000 0.42351453 0.85745678
0.00000000 0.43827735 0.89235988
0.00000000 0.45394603 0.92917053
0.02470378 0.25762965 0.00915588
0.02422415 0.25753996 0.01762683
0.02386986 0.25747316 0.06581790
0.02386875 0.25747219 0.10564652
0.02386737 0.25747098 0.14112678
0.02386572 0.25746954 0.17427057
0.02386380 0.25746787 0.20589907
0.02386161 0.25746595 0.23643508
0.02132722 0.24545524 0.26567257
0.01213032 0.24076253 0.29326552
0.00201517 0.26985790 0.32044789
0.00428055 0.11436744 0.14204377
0.00489576 0.15811810 0.20736417
0.00311141 0.18897999 0.26134013
0.00000000 0.21289559 0.30874776
0.00000000 0.23292010 0.35167279
0.00000000 0.25056419 0.39199364
0.00000000 0.26665533 0.43046057
0.00000000 0.28170206 0.46754550
0.00000000 0.29603352 0.50356483
0.00000000 0.30987066 0.53874106
0.00000000 0.32336586 0.57323646
0.00000000 0.33662629 0.60717296
0.00000000 0.34972847 0.64064434
0.00000000 0.36272766 0.67372429
0.00000000 0.37566406 0.70647163
0.00000000 0.38856706 0.73893411
0.00000000 0.40145820 0.77115093
0.00000000 0.41232778 0.79814260
0.00000000 0.42346216 0.82562690
0.00000000 0.43657973 0.85779499
0.00000000 0.45092051 0.89270801
0.00000000 0.46615996 0.92952925
0.01545797 0.28685413 0.00000000
0.01472850 0.28681753 0.00821999
0.01437902 0.28675923 0.05893389
0.01437798 0.28675816 0.10115218
0.01437669 0.28675684 0.13778264
0.01437515 0.28675526 0.17162079
0.01437335 0.28675342 0.20371928
0.01437131 0.28675133 0.23459671
0.01436901 0.28674897 0.26455048
0.01205165 0.27375848 0.29339790
0.00192734 0.26920937 0.32059045
0.00000000 0.29949433 0.34621674
0.00488245 0.17405966 0.20767077
0.00308217 0.20647160 0.26162191
0.00000000 0.23127203 0.30901374
0.00000000 0.25165569 0.35193633
0.00000000 0.26940590 0.39225870
0.00000000 0.28543150 0.43072957
0.00000000 0.30029356 0.46782002
0.00000000 0.31435690 0.50384596
0.00000000 0.32786770 0.53902960
0.00000000 0.34099656 0.57353300
0.00000000 0.35386412 0.60747794
0.00000000 0.36655698 0.64095813
0.00000000 0.37913794 0.67404716
0.00000000 0.39165291 0.70680382
0.00000000 0.40413560 0.73927578
0.00000000 0.41661078 0.77150225
0.00000000 0.42713489 0.79850216
0.00000000 0.43792183 0.82599495
0.00000000 0.45063980 0.85817313
0.00000000 0.46455704 0.89309725
0.00000000 0.47936267 0.92993033
0.01506851 0.31405181 0.00000000
0.00638372 0.31523441 0.00000000
0.00388702 0.31550394 0.05057418
0.00388606 0.31550278 0.09596312
0.00388487 0.31550135 0.13398865
0.00388344 0.31549963 0.16864012
0.00388178 0.31549764 0.20127928
0.00387989 0.31549536 0.23254526
0.00387776 0.31549280 0.26279329
0.00387540 0.31548996 0.29224341
0.00183021 0.30153572 0.32074802
0.00000000 0.29644143 0.34637187
0.00486761 0.16888730 0.20800928
0.00304974 0.22411712 0.26193313
0.00000000 0.24986219 0.30930757
0.00000000 0.27068134 0.35222749
0.00000000 0.28861287 0.39255157
0.00000000 0.30464465 0.43102681
0.00000000 0.31938882 0.46812337
0.00000000 0.33324516 0.50415663
0.00000000 0.34648462 0.53934846
0.00000000 0.35929598 0.57386071
0.00000000 0.37181346 0.60781499
0.00000000 0.38413394 0.64130492
0.00000000 0.39632814 0.67440398
0.00000000 0.40844806 0.70717093
0.00000000 0.42053212 0.73965340
0.00000000 0.43260876 0.77189053
0.00000000 0.44279908 0.79889953
0.00000000 0.45324794 0.82640173
0.00000000 0.46557433 0.85859106
0.00000000 0.47907350 0.89352744
0.00000000 0.49344784 0.93037362
0.01475084 0.34093209 0.00000000
0.00616748 0.34200536 0.00000000
0.00000000 0.34275550 0.04681135
0.00000000 0.34275413 0.09330818
0.00000000 0.34275243 0.13169374
0.00000000 0.34275040 0.16648739
0.00000000 0.34274804 0.19917258
0.00000000 0.34274535 0.23043325
0.00000000 0.34274233 0.26064531
0.00000000 0.34273897 0.29003975
0.00000000 0.34273528 0.31877007
0.00000000 0.32781367 0.34654174
0.00000000 0.32235298 0.37520881
0.00301408 0.21623811 0.26227363
0.00000000 0.35834906 0.43418287
0.00000000 0.28989961 0.35254615
0.00000000 0.30807527 0.39287213
0.00000000 0.32417508 0.43135217
0.00000000 0.33886074 0.46845543
0.00000000 0.35256593 0.50449672
0.00000000 0.36558583 0.53969752
0.00000000 0.37812704 0.57421946
0.00000000 0.39033718 0.60818398
0.00000000 0.40232346 0.64168457
0.00000000 0.41416458 0.67479463
0.00000000 0.42591884 0.70757286
0.00000000 0.43762961 0.74006682
0.00000000 0.44932924 0.77231562
0.00000000 0.45920117 0.79933459
0.00000000 0.46932531 0.82684708
0.00000000 0.48127295 0.85904863
0.00000000 0.49436483 0.89399844
0.00000000 0.50831601 0.93085895
0.01447973 0.36750582 0.00000000
0.00597133 0.36848719 0.00000000
0.00000000 0.36915975 0.04632991
0.00000000 0.36915831 0.09251198
0.00000000 0.36915652 0.13065688
0.00000000 0.36915438 0.16523859
0.00000000 0.36915190 0.19772760
0.00000000 0.36914906 0.22880227
0.00000000 0.36914587 0.25883560
0.00000000 0.36914234 0.28805685
0.00000000 0.36913844 0.31661837
0.00000000 0.36913420 0.34462748
0.00000000 0.35289236 0.37540889
0.00000000 0.34773100 0.40488202
0.00000000 0.25790411 0.30997817
0.00000000 0.38661876 0.46399095
0.00000000 0.32771149 0.39322024
0.00000000 0.34393193 0.43170552
0.00000000 0.35861087 0.46881608
0.00000000 0.37221488 0.50486610
0.00000000 0.38506264 0.54007666
0.00000000 0.39737806 0.57460914
0.00000000 0.40932194 0.60858478
0.00000000 0.42101160 0.64209695
0.00000000 0.43253372 0.67521897
0.00000000 0.44395289 0.70800945
0.00000000 0.45531754 0.74051590
0.00000000 0.46666409 0.77277739
0.00000000 0.47623537 0.79980719
0.00000000 0.48605079 0.82733087
0.00000000 0.49763587 0.85954568
0.00000000 0.51033509 0.89451009
0.00000000 0.52387552 0.93138617
0.01420759 0.39742560 0.00000000
0.00576177 0.39831884 0.00000000
0.00000000 0.39891588 0.04595930
0.00000000 0.39891435 0.09185638
0.00000000 0.39891246 0.12978937
0.00000000 0.39891020 0.16418654
0.00000000 0.39890757 0.19650575
0.00000000 0.39890457 0.22742002
0.00000000 0.39890119 0.25729957
0.00000000 0.39889745 0.28637204
0.00000000 0.39889333 0.31478874
0.00000000 0.39888884 0.34265626
0.00000000 0.39888326 0.37383724
0.00000000 0.38167589 0.40514876
0.00000000 0.37687529 0.43470031
0.00000000 0.29882572 0.35331956
0.00000000 0.41808397 0.49392533
0.00000000 0.36663061 0.43214206
0.00000000 0.38135599 0.46926166
0.00000000 0.39489807 0.50532249
0.00000000 0.40760138 0.54054513
0.00000000 0.41970897 0.57509064
0.00000000 0.43139614 0.60908004
0.00000000 0.44279148 0.64260654
0.00000000 0.45399053 0.67574334
0.00000000 0.46506502 0.70854895
0.00000000 0.47606908 0.74107085
0.00000000 0.48704380 0.77334803
0.00000000 0.49629575 0.80039122
0.00000000 0.50578090 0.82792872
0.00000000 0.51697533 0.86015994
0.00000000 0.52924835 0.89514238
0.00000000 0.54233972 0.93203771
0.01395160 0.42806764 0.00000000
0.00555212 0.42888405 0.00000000
0.00000000 0.42941417 0.04572198
0.00000000 0.42941255 0.09138197
0.00000000 0.42941055 0.12914513
0.00000000 0.42940816 0.16339675
0.00000000 0.42940538 0.19558318
0.00000000 0.42940220 0.22637268
0.00000000 0.42939864 0.25613304
0.00000000 0.42939468 0.28509046
0.00000000 0.42939032 0.31339536
0.00000000 0.42938557 0.34115373
0.00000000 0.42937967 0.37221303
0.00000000 0.42937302 0.40386781
0.00000000 0.41124824 0.43502191
0.00000000 0.40674068 0.46463921
0.00000000 0.33833133 0.39413354
0.00000000 0.45014660 0.52396576
0.00000000 0.40512579 0.46976249
0.00000000 0.41865524 0.50583549
0.00000000 0.43125977 0.54107173
0.00000000 0.44320152 0.57563190
0.00000000 0.45467029 0.60963678
0.00000000 0.46580593 0.64317940
0.00000000 0.47671292 0.67633283
0.00000000 0.48747015 0.70915548
0.00000000 0.49813760 0.74169475
0.00000000 0.50876114 0.77398957
0.00000000 0.51770867 0.80104781
0.00000000 0.52687655 0.82860086
0.00000000 0.53769285 0.86085053
0.00000000 0.54955014 0.89585326
0.00000000 0.56220014 0.93277024
0.01370903 0.45867701 0.00000000
0.00534239 0.45942758 0.00000000
0.00000000 0.45989930 0.04559576
0.00000000 0.45989759 0.09105894
0.00000000 0.45989548 0.12868752
0.00000000 0.45989296 0.16282624
0.00000000 0.45989002 0.19491088
0.00000000 0.45988667 0.22560542
0.00000000 0.45988291 0.25527550
0.00000000 0.45987872 0.28414609
0.00000000 0.45987413 0.31236683
0.00000000 0.45986911 0.34004318
0.00000000 0.45986289 0.37101117
0.00000000 0.45985587 0.40257331
0.00000000 0.45984817 0.43399209
0.00000000 0.44076042 0.46501367
0.00000000 0.43649083 0.49468757
0.00000000 0.37636348 0.43316785
0.00000000 0.48209111 0.55410520
0.00000000 0.44284158 0.50639513
0.00000000 0.45539170 0.54164624
0.00000000 0.46721083 0.57622243
0.00000000 0.47850286 0.61024422
0.00000000 0.48941860 0.64380444
0.00000000 0.50007123 0.67697602
0.00000000 0.51054663 0.70981728
0.00000000 0.52091050 0.74237550
0.00000000 0.53121344 0.77468960
0.00000000 0.53988041 0.80176426
0.00000000 0.54875363 0.82933429
0.00000000 0.55921607 0.86160410
0.00000000 0.57068128 0.89662897
0.00000000 0.58291190 0.93356958
0.01347309 0.48924529 0.00000000
0.00512887 0.48993893 0.00000000
0.00000000 0.49035917 0.04555767
0.00000000 0.49035738 0.09085360
0.00000000 0.49035515 0.12837408
0.00000000 0.49035249 0.16242455
0.00000000 0.49034940 0.19443092
0.00000000 0.49034587 0.22505318
0.00000000 0.49034191 0.25465501
0.00000000 0.49033751 0.28346027
0.00000000 0.49033267 0.31161792
0.00000000 0.49032739 0.33923295
0.00000000 0.49032084 0.37013284
0.00000000 0.49031344 0.40162599
0.00000000 0.49030533 0.43297644
0.00000000 0.49029650 0.46420956
0.00000000 0.47020977 0.49511920
0.00000000 0.46613537 0.52484347
0.00000000 0.46202749 0.55458699
0.00000000 0.42134473 0.50700218
0.00000000 0.51624351 0.61411569
0.00000000 0.49165486 0.57686304
0.00000000 0.50280795 0.61090319
0.00000000 0.51354044 0.64448253
0.00000000 0.52397395 0.67767382
0.00000000 0.53420115 0.71053527
0.00000000 0.54429332 0.74311408
0.00000000 0.55430567 0.77544908
0.00000000 0.56271586 0.80254158
0.00000000 0.57131730 0.83013003
0.00000000 0.58145087 0.86242170
0.00000000 0.59254893 0.89747060
0.00000000 0.60438395 0.93443687
0.01323897 0.51976636 0.00000000
0.00490890 0.52041038 0.00000000
0.00000000 0.52078484 0.04559150
0.00000000 0.52078296 0.09074225
0.00000000 0.52078062 0.12817487
0.00000000 0.52077783 0.16215617
0.00000000 0.52077458 0.19410249
0.00000000 0.52077087 0.22467011
0.00000000 0.52076671 0.25422085
0.00000000 0.52076208 0.28297756
0.00000000 0.52075700 0.31108856
0.00000000 0.52075145 0.33865844
0.00000000 0.52074456 0.36950836
0.00000000 0.52073679 0.40095103
0.00000000 0.52072827 0.43225159
0.00000000 0.52071899 0.46343528
0.00000000 0.52070893 0.49452152
0.00000000 0.49959364 0.52533665
0.00000000 0.49568067 0.55510717
0.00000000 0.49171478 0.58489250
0.00000000 0.45634000 0.54294206
0.00000000 0.54802224 0.64449595
0.00000000 0.52751354 0.61161447
0.00000000 0.53809612 0.64521446
0.00000000 0.54834299 0.67842704
0.00000000 0.55835340 0.71131030
0.00000000 0.56820403 0.74391135
0.00000000 0.57795457 0.77626894
0.00000000 0.58613109 0.80338071
0.00000000 0.59448326 0.83098905
0.00000000 0.60431294 0.86330432
0.00000000 0.61506915 0.89837918
0.00000000 0.62653320 0.93537314
0.01300313 0.55023570 0.00000000
0.00468053 0.55083617 0.00000000
0.00000000 0.55116959 0.04568557
0.00000000 0.55116761 0.09070780
0.00000000 0.55116516 0.12806835
0.00000000 0.55116223 0.16199549
0.00000000 0.55115883 0.19389622
0.00000000 0.55115494 0.22442319
0.00000000 0.55115057 0.25393650
0.00000000 0.55114572 0.28265803
0.00000000 0.55114039 0.31073550
0.00000000 0.55113457 0.33827314
0.00000000 0.55112735 0.36908755
0.00000000 0.55111920 0.40049452
0.00000000 0.55111026 0.43175992
0.00000000 0.55110053 0.46290889
0.00000000 0.55108998 0.49396075
0.00000000 0.55107860 0.52493069
0.00000000 0.52890949 0.55566629
0.00000000 0.52513092 0.58548052
0.00000000 0.52128483 0.61530631
0.00000000 0.49077799 0.57829740
0.00000000 0.57971286 0.67498424
0.00000000 0.56302196 0.64600096
0.00000000 0.57311180 0.67923646
0.00000000 0.58293439 0.71214317
0.00000000 0.59257164 0.74476813
0.00000000 0.60208754 0.77715000
0.00000000 0.61005246 0.80428249
0.00000000 0.61817709 0.83191223
0.00000000 0.62772723 0.86425288
0.00000000 0.63816666 0.89935565
0.00000000 0.64928448 0.93637938
0.01276294 0.58064992 0.00000000
0.00444224 0.58121193 0.00000000
0.00000000 0.58150827 0.04583128
0.00000000 0.58150620 0.09073772
0.00000000 0.58150363 0.12803869
0.00000000 0.58150057 0.16192372
0.00000000 0.58149700 0.19379051
0.00000000 0.58149293 0.22428818
0.00000000 0.58148836 0.25377513
0.00000000 0.58148328 0.28247234
0.00000000 0.58147770 0.31052696
0.00000000 0.58147161 0.33804286
0.00000000 0.58146406 0.36883355
0.00000000 0.58145552 0.40021687
0.00000000 0.58144617 0.43145913
0.00000000 0.58143599 0.46258536
0.00000000 0.58142494 0.49361480
0.00000000 0.58141303 0.52456259
0.00000000 0.58140022 0.55544088
0.00000000 0.55815496 0.58611004
0.00000000 0.55448885 0.61596663
0.00000000 0.55074427 0.64583241
0.00000000 0.52473848 0.61319672
0.00000000 0.61132200 0.70558581
0.00000000 0.61393345 0.73547173
0.00000000 0.60788498 0.71303460
0.00000000 0.61733483 0.74568517
0.00000000 0.62664146 0.77809305
0.00000000 0.63441557 0.80524772
0.00000000 0.64233330 0.83290038
0.00000000 0.65162730 0.86526821
0.00000000 0.66177428 0.90040086
0.00000000 0.67257024 0.93745648
0.01251640 0.61100642 0.00000000
0.00419288 0.61153427 0.00000000
0.00000000 0.61179688 0.04602219
0.00000000 0.61179472 0.09082261
0.00000000 0.61179204 0.12807408
0.00000000 0.61178883 0.16192682
0.00000000 0.61178511 0.19376924
0.00000000 0.61178086 0.22424695
0.00000000 0.61177608 0.25371671
0.00000000 0.61177077 0.28239858
0.00000000 0.61176494 0.31043920
0.00000000 0.61175858 0.33794207
0.00000000 0.61175068 0.36871884
0.00000000 0.61174177 0.40008850
0.00000000 0.61173200 0.43131760
0.00000000 0.61172135 0.46243105
0.00000000 0.61170982 0.49344802
0.00000000 0.61169737 0.52438359
0.00000000 0.61168399 0.55524985
0.00000000 0.61166966 0.58605669
0.00000000 0.58732783 0.61667099
0.00000000 0.58375618 0.64656950
0.00000000 0.58009783 0.67647553
0.00000000 0.55828379 0.64774036
0.00000000 0.64285486 0.73630637
0.00000000 0.64547371 0.76623023
0.00000000 0.64244071 0.74666316
0.00000000 0.65156152 0.77909880
0.00000000 0.65916420 0.80627714
0.00000000 0.66689444 0.83395425
0.00000000 0.67595448 0.86635108
0.00000000 0.68583232 0.90151561
0.00000000 0.69633002 0.93860526
0.01226193 0.64130317 0.00000000
0.00393151 0.64180051 0.00000000
0.00000000 0.64203225 0.04625341
0.00000000 0.64203000 0.09095539
0.00000000 0.64202720 0.12816556
0.00000000 0.64202386 0.16199414
0.00000000 0.64201997 0.19382018
0.00000000 0.64201554 0.22428577
0.00000000 0.64201056 0.25374604
0.00000000 0.64200502 0.28242014
0.00000000 0.64199894 0.31045421
0.00000000 0.64199230 0.33795141
0.00000000 0.64198406 0.36872252
0.00000000 0.64197477 0.40008699
0.00000000 0.64196457 0.43131137
0.00000000 0.64195347 0.46242047
0.00000000 0.64194144 0.49343338
0.00000000 0.64192845 0.52436512
0.00000000 0.64191450 0.55522775
0.00000000 0.64189955 0.58603111
0.00000000 0.64188361 0.61678339
0.00000000 0.61642602 0.64735320
0.00000000 0.61293389 0.67729390
0.00000000 0.60934888 0.70724097
0.00000000 0.59146349 0.68200853
0.00000000 0.59534046 0.71499574
0.00000000 0.67694184 0.79711559
0.00000000 0.67680013 0.78016789
0.00000000 0.68424934 0.80737142
0.00000000 0.69181017 0.83507452
0.00000000 0.70065709 0.86750220
0.00000000 0.71028788 0.90270065
0.00000000 0.72050989 0.93982649
0.01199830 0.67153854 0.00000000
0.00365738 0.67200850 0.00000000
0.00000000 0.67221183 0.04652112
0.00000000 0.67220948 0.09113058
0.00000000 0.67220657 0.12830623
0.00000000 0.67220309 0.16211750
0.00000000 0.67219904 0.19393393
0.00000000 0.67219442 0.22439409
0.00000000 0.67218923 0.25385143
0.00000000 0.67218347 0.28252425
0.00000000 0.67217713 0.31055815
0.00000000 0.67217022 0.33805600
0.00000000 0.67216164 0.36882854
0.00000000 0.67215196 0.40019508
0.00000000 0.67214134 0.43142199
0.00000000 0.67212978 0.46253399
0.00000000 0.67211725 0.49355008
0.00000000 0.67210372 0.52448523
0.00000000 0.67208919 0.55535144
0.00000000 0.67207363 0.58615854
0.00000000 0.67205702 0.61691467
0.00000000 0.67203935 0.64762673
0.00000000 0.64544755 0.67816143
0.00000000 0.64202240 0.70814513
0.00000000 0.63849978 0.73813446
0.00000000 0.62431758 0.71606661
0.00000000 0.62784222 0.74880444
0.00000000 0.70834115 0.82813440
