luts/S9_Standard_to_ricoh_positive_film.cube
# Film Emulation LUT
# Generated by lutex.py
# Grid: 33³
TITLE "Panasonic S9 Standard to Ricoh Positive Film (ポジフィルム調)"
LUT_3D_SIZE 5
DOMAIN_MIN 0.0 0.0 0.0
DOMAIN_MAX 1.0 1.0 1.0
0.00000000 0.00000000 0.00000000
0.00000000 0.01039752 0.24343066
0.00000000 0.04404251 0.49040361
0.00000000 0.09080911 0.74793617
0.15170372 0.21008164 1.00000000
0.00000000 0.24097841 0.00000000
0.00000000 0.23459271 0.24343066
0.00000000 0.24970984 0.49040361
0.00000000 0.26242790 0.74793617
0.15170372 0.31676455 1.00000000
0.00000000 0.48592195 0.00000000
0.00000000 0.48592195 0.24343066
0.00000000 0.47425162 0.49040361
0.00000000 0.49549660 0.74793617
0.15170372 0.51655235 1.00000000
0.00000000 0.74133832 0.00000000
0.00000000 0.74133832 0.24343066
0.00000000 0.74133832 0.49040361
0.00000000 0.72415741 0.74793617
0.15170372 0.75190690 1.00000000
0.00000000 0.99620652 0.00000000
0.00000000 0.99614612 0.24559441
0.00000000 0.99594971 0.49455795
0.00000000 0.99555663 0.75464051
0.23059846 0.95552859 1.00000000
0.23849739 0.05744433 0.00000000
0.23849739 0.00000000 0.24343066
0.22927740 0.00000000 0.49040361
0.21430132 0.00000000 0.74793617
0.24331169 0.15170372 1.00000000
0.23849739 0.24097841 0.00000000
0.23804767 0.24107541 0.24386908
0.19672482 0.21008726 0.50592345
0.04880532 0.12446264 0.77472788
0.28577498 0.31873446 1.00000000
0.23849739 0.48592195 0.00000000
0.19790477 0.50122609 0.20501880
0.19672482 0.49059819 0.50592345
0.04880532 0.47983839 0.77472788
0.28577498 0.51733623 1.00000000
0.23849739 0.74133832 0.00000000
0.05851314 0.76785892 0.07830998
0.05851314 0.76785892 0.47567968
0.04880532 0.74963768 0.77472788
0.28577498 0.75202296 1.00000000
0.23683796 0.99602864 0.00000000
0.21091567 1.00000000 0.22116866
0.20947134 1.00000000 0.48781068
0.20654827 1.00000000 0.75508488
0.33153833 0.95622830 1.00000000
0.48138769 0.15050015 0.00000000
0.48138769 0.00000000 0.24343066
0.48138769 0.00000000 0.49040361
0.48138769 0.00000000 0.74793617
0.47675039 0.15170372 1.00000000
0.48138769 0.28720033 0.00000000
0.49637963 0.24885342 0.20237606
0.49558891 0.20006638 0.50583273
0.45220020 0.05965670 0.77467545
0.47944724 0.28779145 1.00000000
0.48138769 0.48592195 0.00000000
0.49589146 0.50104249 0.20448579
0.48056581 0.48609921 0.49120485
0.44700719 0.46053253 0.76631611
0.50341592 0.52109870 1.00000000
0.48138769 0.74133832 0.00000000
0.46438929 0.76775283 0.07694404
0.44814485 0.75934745 0.45973044
0.44700719 0.74662657 0.76631611
0.50341592 0.75287546 1.00000000
0.47791246 0.99545006 0.00000000
0.46949951 1.00000000 0.21755188
0.46503272 1.00000000 0.48371056
0.46366660 1.00000000 0.75464953
0.52736783 0.95863928 1.00000000
0.73466305 0.24753467 0.00000000
0.73466305 0.02078858 0.00000000
0.73466305 0.00000000 0.49040361
0.73466305 0.00000000 0.74793617
0.73494881 0.15170372 1.00000000
0.73466305 0.34449311 0.00000000
0.76085506 0.26911435 0.07600648
0.76085506 0.07600648 0.47663467
0.75969922 0.05965670 0.77467545
0.73560390 0.28779145 1.00000000
0.73466305 0.53821831 0.00000000
0.74380163 0.53175017 0.20384418
0.75206264 0.48991800 0.45465906
0.75088910 0.45242101 0.76608998
0.73824939 0.50770407 1.00000000
0.73466305 0.74133832 0.00000000
0.76022369 0.76775283 0.07694404
0.75124419 0.75888968 0.45885965
0.73323360 0.74145850 0.74939729
0.74918299 0.76040938 1.00000000
0.72824130 0.99429122 0.00000000
0.72763171 1.00000000 0.21050858
0.72539053 1.00000000 0.48147918
0.71779953 1.00000000 0.75001187
0.76072611 0.96465014 1.00000000
0.99115650 0.34580210 0.00000000
0.99115650 0.24707845 0.00000000
0.99115650 0.00000000 0.49040361
0.99115650 0.00000000 0.74793617
0.98291291 0.15170372 1.00000000
0.99115650 0.41732932 0.00000000
1.00000000 0.38652229 0.18045681
1.00000000 0.18045681 0.47547514
1.00000000 0.18045681 0.74809206
0.98294724 0.28779145 1.00000000
0.99115650 0.58315784 0.00000000
1.00000000 0.57030427 0.18382066
1.00000000 0.54577811 0.46283686
1.00000000 0.46283686 0.74557169
0.98308629 0.50770407 1.00000000
0.98914702 0.80075974 0.00000000
1.00000000 0.80061611 0.16756313
0.99931302 0.78797529 0.46487823
1.00000000 0.74382542 0.72212534
0.97612089 0.76000870 1.00000000
0.97988294 0.99243996 0.00000000
0.98707712 1.00000000 0.19870496
0.98686640 1.00000000 0.47868111
0.98532095 0.99902792 0.74981918
1.00000000 1.00000000 1.00000000
