luts/S9_Standard_to_ricoh_positive_film.cube
# Film Emulation LUT
# Generated by lutex.py
# Grid: 33³
TITLE "Panasonic S9 Standard to Ricoh Positive Film (ポジフィルム調)"
LUT_3D_SIZE 9
DOMAIN_MIN 0.0 0.0 0.0
DOMAIN_MAX 1.0 1.0 1.0
0.00000000 0.00000000 0.00000000
0.00000000 0.00318011 0.12716874
0.00000000 0.01039752 0.24343066
0.00000000 0.02337817 0.36327364
0.00000000 0.04404251 0.49040361
0.00000000 0.06733936 0.61869384
0.00000000 0.09080911 0.74793617
0.00000000 0.11162629 0.86257140
0.15170372 0.21008164 1.00000000
0.00000000 0.12567183 0.00000000
0.00000000 0.12177386 0.12716874
0.00000000 0.12979015 0.24343066
0.00000000 0.13475782 0.36327364
0.00000000 0.14236635 0.49040361
0.00000000 0.15238605 0.61869384
0.00000000 0.16462913 0.74793617
0.00000000 0.17705885 0.86257140
0.15170372 0.24841609 1.00000000
0.00000000 0.24097841 0.00000000
0.00000000 0.24097841 0.12716874
0.00000000 0.23459271 0.24343066
0.00000000 0.24564078 0.36327364
0.00000000 0.24970984 0.49040361
0.00000000 0.25528836 0.61869384
0.00000000 0.26242790 0.74793617
0.00000000 0.27001872 0.86257140
0.15170372 0.31676455 1.00000000
0.00000000 0.35983663 0.00000000
0.00000000 0.35983663 0.12716874
0.00000000 0.35983663 0.24343066
0.00000000 0.35088657 0.36327364
0.00000000 0.36534104 0.49040361
0.00000000 0.36892098 0.61869384
0.00000000 0.37357229 0.74793617
0.00000000 0.37860072 0.86257140
0.15170372 0.40807466 1.00000000
0.00000000 0.48592195 0.00000000
0.00000000 0.48592195 0.12716874
0.00000000 0.48592195 0.24343066
0.00000000 0.48592195 0.36327364
0.00000000 0.47425162 0.49040361
0.00000000 0.49223184 0.61869384
0.00000000 0.49549660 0.74793617
0.00000000 0.49905134 0.86257140
0.15170372 0.51655235 1.00000000
0.00000000 0.61315800 0.00000000
0.00000000 0.61315800 0.12716874
0.00000000 0.61315800 0.24343066
0.00000000 0.61315800 0.36327364
0.00000000 0.61315800 0.49040361
0.00000000 0.59874256 0.61869384
0.00000000 0.63432203 0.74793617
0.00000000 0.62299092 0.86257140
0.15170372 0.63213560 1.00000000
0.00000000 0.74133832 0.00000000
0.00000000 0.74133832 0.12716874
0.00000000 0.74133832 0.24343066
0.00000000 0.74133832 0.36327364
0.00000000 0.74133832 0.49040361
0.00000000 0.74133832 0.61869384
0.00000000 0.72415741 0.74793617
0.00000000 0.70107135 0.86257140
0.15170372 0.75190690 1.00000000
0.00000000 0.85500732 0.00000000
0.00000000 0.85499147 0.12718480
0.00000000 0.85495548 0.24348057
0.00000000 0.85489075 0.36340306
0.00000000 0.85478690 0.49069673
0.00000000 0.85464132 0.61927114
0.00000000 0.85444953 0.74896191
0.00000000 0.83449695 0.86416715
0.17566305 0.80284373 1.00000000
0.00000000 0.99620652 0.00000000
0.00000000 0.99618805 0.12847528
0.00000000 0.99614612 0.24559441
0.00000000 0.99607070 0.36636520
0.00000000 0.99594971 0.49455795
0.00000000 0.99578008 0.62403849
0.00000000 0.99555663 0.75464051
0.00000000 0.99531112 0.87065234
0.23059846 0.95552859 1.00000000
0.12415736 0.01833242 0.00000000
0.12415736 0.00000000 0.12716874
0.11985132 0.00000000 0.24343066
0.11425779 0.00000000 0.36327364
0.10470188 0.00000000 0.49040361
0.08977859 0.00000000 0.61869384
0.06601837 0.00000000 0.74793617
0.02928152 0.00000000 0.86257140
0.15170372 0.16290538 1.00000000
0.12415736 0.12567183 0.00000000
0.12388284 0.12573104 0.12743636
0.10685924 0.11284262 0.25119143
0.06747460 0.08531435 0.37661001
0.00000000 0.05060040 0.50580689
0.00000000 0.07215294 0.63024199
0.00000000 0.09454855 0.75700546
0.00000000 0.11471759 0.87011125
0.20344774 0.24921925 1.00000000
0.12415736 0.24097841 0.00000000
0.10737485 0.24861247 0.11142985
0.10685924 0.24327556 0.25119143
0.06747460 0.23922313 0.37661001
0.00000000 0.22582908 0.50580689
0.00000000 0.22643352 0.63024199
0.00000000 0.23183249 0.75700546
0.00000000 0.23917780 0.87011125
0.20344774 0.31733498 1.00000000
0.12415736 0.35983663 0.00000000
0.06917478 0.37302449 0.07498949
0.06917478 0.37302449 0.23778043
0.06747460 0.36393713 0.37661001
0.00000000 0.36493902 0.50580689
0.00000000 0.35941831 0.63024199
0.00000000 0.35965011 0.75700546
0.00000000 0.36259045 0.87011125
0.20344774 0.40844882 1.00000000
0.12415736 0.48592195 0.00000000
0.00000000 0.50149823 0.00861784
0.00000000 0.50149823 0.21880525
0.00000000 0.50149823 0.36348110
0.00000000 0.48884371 0.50580689
0.00000000 0.49475767 0.63024199
0.00000000 0.49171496 0.75700546
0.00000000 0.49207808 0.87011125
0.20344774 0.51677674 1.00000000
0.12415736 0.61315800 0.00000000
0.00000000 0.62483757 0.00814634
0.00000000 0.62483757 0.21246083
0.00000000 0.62483757 0.35378435
0.00000000 0.62483757 0.49344686
0.00000000 0.60969498 0.63024199
0.00000000 0.63789396 0.75700546
0.00000000 0.62217036 0.87011125
0.20344774 0.63225012 1.00000000
0.12415736 0.74133832 0.00000000
0.00000000 0.75051155 0.00791165
0.00000000 0.75051155 0.20922291
0.00000000 0.75051155 0.34883555
0.00000000 0.75051155 0.48680729
0.00000000 0.75051155 0.62241709
0.00000000 0.73276371 0.75700546
0.00000000 0.70432720 0.87011125
0.20344774 0.75193642 1.00000000
0.12413641 0.85496063 0.00000000
0.00000000 0.86256976 0.00794812
0.00000000 0.86253310 0.20766718
0.00000000 0.86246718 0.34647893
0.00000000 0.86236142 0.48375343
0.00000000 0.86221315 0.61880482
0.00000000 0.86201782 0.75337551
0.00000000 0.84148468 0.87175688
0.22205396 0.80358746 1.00000000
0.12317595 0.99615212 0.00000000
0.06319835 1.00000000 0.07250621
0.06228061 1.00000000 0.22352053
0.06060426 1.00000000 0.35465823
0.05784179 1.00000000 0.48844021
0.05380248 1.00000000 0.62159718
0.04813867 1.00000000 0.75509486
0.04136895 1.00000000 0.87340813
0.26629416 0.95574089 1.00000000
0.23849739 0.05744433 0.00000000
0.23849739 0.00000000 0.12716874
0.23849739 0.00000000 0.24343066
0.23849739 0.00000000 0.36327364
0.22927740 0.00000000 0.49040361
0.22295240 0.00000000 0.61869384
0.21430132 0.00000000 0.74793617
0.20432800 0.00000000 0.86257140
0.24331169 0.15170372 1.00000000
0.23849739 0.14785537 0.00000000
0.24593615 0.12850995 0.10977024
0.24550195 0.10875783 0.25112668
0.23119111 0.07025842 0.37656997
0.19996780 0.00000000 0.50611510
0.18570382 0.00000000 0.63047484
0.17126620 0.00000000 0.75718907
0.15623221 0.00000000 0.87026423
0.24534037 0.20435758 1.00000000
0.23849739 0.24097841 0.00000000
0.24565275 0.24848140 0.11112544
0.23804767 0.24107541 0.24386908
0.22319203 0.22973256 0.37212492
0.19672482 0.21008726 0.50592345
0.15125123 0.17852032 0.64004278
0.04880532 0.12446264 0.77472788
0.00000000 0.12195473 0.88691164
0.28577498 0.31873446 1.00000000
0.23849739 0.35983663 0.00000000
0.23164262 0.37294346 0.07455880
0.22373565 0.36848604 0.22996897
0.22319203 0.36233385 0.37212492
0.19672482 0.35924204 0.50592345
0.15125123 0.34330325 0.64004278
0.04880532 0.32083999 0.77472788
0.00000000 0.31535002 0.88691164
0.28577498 0.40937223 1.00000000
0.23849739 0.48592195 0.00000000
0.21099010 0.50212109 0.00000000
0.19790477 0.50122609 0.20501880
0.19790477 0.50122609 0.35883441
0.19672482 0.49059819 0.50592345
0.15125123 0.49386573 0.64004278
0.04880532 0.47983839 0.77472788
0.00000000 0.47198640 0.88691164
0.28577498 0.51733623 1.00000000
0.23849739 0.61315800 0.00000000
0.20457653 0.62530834 0.00000000
0.15382654 0.63426621 0.16302655
0.15382654 0.63426621 0.33866399
0.15382654 0.63426621 0.49338328
0.15125123 0.61971532 0.64004278
0.04880532 0.62835437 0.77472788
0.00000000 0.61830516 0.88691164
0.28577498 0.63254278 1.00000000
0.23849739 0.74133832 0.00000000
0.20130627 0.75088287 0.00000000
0.05851314 0.76785892 0.07830998
0.05851314 0.76785892 0.30965829
0.05851314 0.76785892 0.47567968
0.05851314 0.76785892 0.62795126
0.04880532 0.74963768 0.77472788
0.00000000 0.71074120 0.88691164
0.28577498 0.75202296 1.00000000
0.23841179 0.85485465 0.00000000
0.19945052 0.86278513 0.00000000
0.00000000 0.87940348 0.02940794
0.00000000 0.87933492 0.29591595
0.00000000 0.87922493 0.46367095
0.00000000 0.87907073 0.61581197
0.00000000 0.87886759 0.76255723
0.00000000 0.85695120 0.88865696
0.29952092 0.87373949 1.00000000
0.23683796 0.99602864 0.00000000
0.21293735 1.00000000 0.07001970
0.21091567 1.00000000 0.22116866
0.21036234 1.00000000 0.35345580
0.20947134 1.00000000 0.48781068
0.20821536 1.00000000 0.62132424
0.20654827 1.00000000 0.75508488
0.20469999 1.00000000 0.87359155
0.33153833 0.95622830 1.00000000
0.35635927 0.10259942 0.00000000
0.35635927 0.00000000 0.05433584
0.35635927 0.00000000 0.24343066
0.35635927 0.00000000 0.36327364
0.35635927 0.00000000 0.49040361
0.34687327 0.00000000 0.61869384
0.34177710 0.00000000 0.74793617
0.33607226 0.00000000 0.86257140
0.35566188 0.15170372 1.00000000
0.35635927 0.17150246 0.00000000
0.36935542 0.13651391 0.07352567
0.36935542 0.07352567 0.23821780
0.36875202 0.07025842 0.37656997
0.35496867 0.00000000 0.50611510
0.33517861 0.00000000 0.63047484
0.32473191 0.00000000 0.75718907
0.31593501 0.00000000 0.87026423
0.35690835 0.20435758 1.00000000
0.35635927 0.26658424 0.00000000
0.36931442 0.26175291 0.07613217
0.36466673 0.24221999 0.22717295
0.36405385 0.22610284 0.37199206
0.34978096 0.20006638 0.50583273
0.31783301 0.15564331 0.63997559
0.27797856 0.05965670 0.77467545
0.25361037 0.00000000 0.88739925
0.35981062 0.28779145 1.00000000
0.35635927 0.35983663 0.00000000
0.36901283 0.37294346 0.07455880
0.36422412 0.36821705 0.22950027
0.35572897 0.35997257 0.36388812
0.34103144 0.34872026 0.50033594
0.31904482 0.33216716 0.63591573
0.28698561 0.30872438 0.77151187
0.24606393 0.28026312 0.89132952
0.38755073 0.41131992 1.00000000
0.35635927 0.48592195 0.00000000
0.35539598 0.50212109 0.00000000
0.35024618 0.50104249 0.20448579
0.34165846 0.49557159 0.35021552
0.34103144 0.48860634 0.50033594
0.31904482 0.48683283 0.63591573
0.28698561 0.47254166 0.77151187
0.24606393 0.45619377 0.89132952
0.38755073 0.51853731 1.00000000
0.35635927 0.61315800 0.00000000
0.34550049 0.62530834 0.00000000
0.32943593 0.63413024 0.16234397
0.32017140 0.63009030 0.32940293
0.32017140 0.63009030 0.48761380
0.31904482 0.61823736 0.63591573
0.28698561 0.62319884 0.77151187
0.24606393 0.61181316 0.89132952
0.38755073 0.63319640 1.00000000
0.35635927 0.74133832 0.00000000
0.34045481 0.75088287 0.00000000
0.29935138 0.76775283 0.07694404
0.28892810 0.76460509 0.29931438
0.28892810 0.76460509 0.46963526
0.28892810 0.76460509 0.62372079
0.28698561 0.74848326 0.77151187
0.24606393 0.77545309 0.89132952
0.38755073 0.75225463 1.00000000
0.35611000 0.85466400 0.00000000
0.33751899 0.86260472 0.00000000
0.28064135 0.88028333 0.00000000
0.24890753 0.88296184 0.26250436
0.24883368 0.88285535 0.44991514
0.24873012 0.88270608 0.61083878
0.24859366 0.88250942 0.76328564
0.24377171 0.86219131 0.89373717
0.39814917 0.87247816 1.00000000
0.35390319 0.99580651 0.00000000
0.34060754 1.00000000 0.06566783
0.33933705 1.00000000 0.21966998
0.33706822 1.00000000 0.35096092
0.33651120 1.00000000 0.48648394
0.33572858 1.00000000 0.62071552
0.33469448 1.00000000 0.75500101
0.33355428 1.00000000 0.87389121
0.42046832 0.95712670 1.00000000
0.48138769 0.15050015 0.00000000
0.48138769 0.06055603 0.00000000
0.48138769 0.00000000 0.24343066
0.48138769 0.00000000 0.36327364
0.48138769 0.00000000 0.49040361
0.48138769 0.00000000 0.61869384
0.48138769 0.00000000 0.74793617
0.46763005 0.00000000 0.86257140
0.47675039 0.15170372 1.00000000
0.48138769 0.20348309 0.00000000
0.49745734 0.15525271 0.00000000
0.49745734 0.00000000 0.21849918
0.49745734 0.00000000 0.36396469
0.49612659 0.00000000 0.50611510
0.48335119 0.00000000 0.63047484
0.47683124 0.00000000 0.75718907
0.45910634 0.00000000 0.87026423
0.47755929 0.20435758 1.00000000
0.48138769 0.28720033 0.00000000
0.49777209 0.26951593 0.00000000
0.49637963 0.24885342 0.20237606
0.49637963 0.20237606 0.35928546
0.49558891 0.20006638 0.50583273
0.48202872 0.15564331 0.63997559
0.45220020 0.05965670 0.77467545
0.43458226 0.00000000 0.88739925
0.47944724 0.28779145 1.00000000
0.48138769 0.39028374 0.00000000
0.49777209 0.39255374 0.00000000
0.49628671 0.38271718 0.20561689
0.49053684 0.35988507 0.34625943
0.48973422 0.34502417 0.50012907
0.47596321 0.32336552 0.63576338
0.44706956 0.29187446 0.77139333
0.41927134 0.25188727 0.89123145
0.48304540 0.39069283 1.00000000
0.48138769 0.48592195 0.00000000
0.49707882 0.50212109 0.00000000
0.49589146 0.50104249 0.20448579
0.48992342 0.49515271 0.34957177
0.48056581 0.48609921 0.49120485
0.46645292 0.47527653 0.62922243
0.44700719 0.46053253 0.76631611
0.42435678 0.44362741 0.88703608
0.50341592 0.52109870 1.00000000
0.48138769 0.61315800 0.00000000
0.48376707 0.62530834 0.00000000
0.48261229 0.63413024 0.16234397
0.47643401 0.62978192 0.32870975
0.46716129 0.62331623 0.47817526
0.46645292 0.61585699 0.62922243
0.44700719 0.61481225 0.76631611
0.42435678 0.60322228 0.88703608
0.50341592 0.63466099 1.00000000
0.48138769 0.74133832 0.00000000
0.47697944 0.75088287 0.00000000
0.46438929 0.76775283 0.07694404
0.45790084 0.76436518 0.29853721
0.44814485 0.75934745 0.45973044
0.44814485 0.75934745 0.61685647
0.44700719 0.74662657 0.76631611
0.42435678 0.75403576 0.88703608
0.50341592 0.75287546 1.00000000
0.48079206 0.85435806 0.00000000
0.47280100 0.86231521 0.00000000
0.44948575 0.88002959 0.00000000
0.43558515 0.88241322 0.26206852
0.42521958 0.87820694 0.44006299
0.42508788 0.87805914 0.60441819
0.42491436 0.87786442 0.75870633
0.42207444 0.86021036 0.89013432
0.51203506 0.85697177 1.00000000
0.47791246 0.99545006 0.00000000
0.47032837 1.00000000 0.05818802
0.46949951 1.00000000 0.21755188
0.46782416 1.00000000 0.34960766
0.46503272 1.00000000 0.48371056
0.46444374 1.00000000 0.61935014
0.46366660 1.00000000 0.75464953
0.46281119 1.00000000 0.87427272
0.52736783 0.95863928 1.00000000
0.60755719 0.19883804 0.00000000
0.60755719 0.14271369 0.00000000
0.60755719 0.00000000 0.13108498
0.60755719 0.00000000 0.36327364
0.60755719 0.00000000 0.49040361
0.60755719 0.00000000 0.61869384
0.60755719 0.00000000 0.74793617
0.60755719 0.00000000 0.86257140
0.59975832 0.15170372 1.00000000
0.60755719 0.24067531 0.00000000
0.61961044 0.20245673 0.00000000
0.61961044 0.00000000 0.03544278
0.61961044 0.00000000 0.35385857
0.61961044 0.00000000 0.49390227
0.61863447 0.00000000 0.63047484
0.61047611 0.00000000 0.75718907
0.60624967 0.00000000 0.87026423
0.60030008 0.20435758 1.00000000
0.60755719 0.31346291 0.00000000
0.61984844 0.29309838 0.00000000
0.62835225 0.25782339 0.16060590
0.62835225 0.16060590 0.33956463
0.62835225 0.16060590 0.49395002
0.62738011 0.15564331 0.63997559
0.61420502 0.05965670 0.77467545
0.60107046 0.00000000 0.88739925
0.60156421 0.28779145 1.00000000
0.60755719 0.40888752 0.00000000
0.61565975 0.40392388 0.06173565
0.61479774 0.39737552 0.21985564
0.62403864 0.36574722 0.32557836
0.62403864 0.32557836 0.48807053
0.62305782 0.32336552 0.63576338
0.60976218 0.29187446 0.77139333
0.59471693 0.25188727 0.89123145
0.60397241 0.39069283 1.00000000
0.60755719 0.52098913 0.00000000
0.61565975 0.52337234 0.06173565
0.61479774 0.51865593 0.21985564
0.61324347 0.51003397 0.35217645
0.61703785 0.48455792 0.47298572
0.61604267 0.47158956 0.62893039
0.60254724 0.45242101 0.76608998
0.57827157 0.43012705 0.88684946
0.60827781 0.50770407 1.00000000
0.60755719 0.61315800 0.00000000
0.61934033 0.62530834 0.00000000
0.62779755 0.63413024 0.16234397
0.62339222 0.62978192 0.32870975
0.61624073 0.62272484 0.47734642
0.60654198 0.61337695 0.61968355
0.59276752 0.60280365 0.75895509
0.57715048 0.59090987 0.88097168
0.62412822 0.63791775 1.00000000
0.60755719 0.74133832 0.00000000
0.61084469 0.75088287 0.00000000
0.61489560 0.76775283 0.07694404
0.61037007 0.76436518 0.29853721
0.60301925 0.75888968 0.45885965
0.59356430 0.75189711 0.60706654
0.59276752 0.74401397 0.75895509
0.57715048 0.74485969 0.88097168
0.62449963 0.75455894 1.00000000
0.60635255 0.85392900 0.00000000
0.60519359 0.86190921 0.00000000
0.60020356 0.87967377 0.00000000
0.59415234 0.88195356 0.26286858
0.58635649 0.87727729 0.43968586
0.57664119 0.87150865 0.59529814
0.57642598 0.87131669 0.75224812
0.57419219 0.85742993 0.88506939
0.63138191 0.85770079 1.00000000
0.60279206 0.99495014 0.00000000
0.59914064 1.00000000 0.04636209
0.59857224 1.00000000 0.21454369
0.59742698 1.00000000 0.34811611
0.59517437 1.00000000 0.48247184
0.59168454 1.00000000 0.61628934
0.59102671 1.00000000 0.75352040
0.59030313 1.00000000 0.87451772
0.64188783 0.96096549 1.00000000
0.73466305 0.24753467 0.00000000
0.73466305 0.20637639 0.00000000
0.73466305 0.02078858 0.00000000
0.73466305 0.00000000 0.36327364
0.73466305 0.00000000 0.49040361
0.73466305 0.00000000 0.61869384
0.73466305 0.00000000 0.74793617
0.73466305 0.00000000 0.86257140
0.73494881 0.15170372 1.00000000
0.73466305 0.28141884 0.00000000
0.74413134 0.25039832 0.00000000
0.74413134 0.13095099 0.00000000
0.74413134 0.00000000 0.34870554
0.74413134 0.00000000 0.48698420
0.74413134 0.00000000 0.62281608
0.74337325 0.00000000 0.75718907
0.73830277 0.00000000 0.87026423
0.73514270 0.20435758 1.00000000
0.73466305 0.34449311 0.00000000
0.74431911 0.32444086 0.00000000
0.76085506 0.26911435 0.07600648
0.76085506 0.07600648 0.17429806
0.76085506 0.07600648 0.47663467
0.76085506 0.07600648 0.62862249
0.75969922 0.05965670 0.77467545
0.74554817 0.00000000 0.88739925
0.73560390 0.28779145 1.00000000
0.73466305 0.43190090 0.00000000
0.74431911 0.42176210 0.00000000
0.76080137 0.39519357 0.08407123
0.75749445 0.37329768 0.29566906
0.75749445 0.29566906 0.47048161
0.75749445 0.29566906 0.62431127
0.75633190 0.29187446 0.77139333
0.74501854 0.25188727 0.89123145
0.73651576 0.39069283 1.00000000
0.73466305 0.53821831 0.00000000
0.74431911 0.53632835 0.00000000
0.74380163 0.53175017 0.20384418
0.74258771 0.52340109 0.34317530
0.75206264 0.48991800 0.45465906
0.75206264 0.45465906 0.61731447
0.75088910 0.45242101 0.76608998
0.73946678 0.43012705 0.88684946
0.73824939 0.50770407 1.00000000
0.73466305 0.61315800 0.00000000
0.74431911 0.65778465 0.00000000
0.76080137 0.66382557 0.08407123
0.74258771 0.64799092 0.34317530
0.74063502 0.63758804 0.48019086
0.74436189 0.61042541 0.60063371
0.74317246 0.59906288 0.75857483
0.73159251 0.58366200 0.88065899
0.73441427 0.62954046 1.00000000
0.73466305 0.74133832 0.00000000
0.74392455 0.75088287 0.00000000
0.76022369 0.76775283 0.07694404
0.75679193 0.76436518 0.29853721
0.75124419 0.75888968 0.45885965
0.74337707 0.75112702 0.60605028
0.73323360 0.74145850 0.74939729
0.72108215 0.73216739 0.87368693
0.74918299 0.76040938 1.00000000
0.73249044 0.85336347 0.00000000
0.73647009 0.86137410 0.00000000
0.74442520 0.87920485 0.00000000
0.74315325 0.88134768 0.26391802
0.73726352 0.87665360 0.44064904
0.72889284 0.87000941 0.59494171
0.71953823 0.86262531 0.74366975
0.71783837 0.85361573 0.87815906
0.75373046 0.86122090 1.00000000
0.72824130 0.99429122 0.00000000
0.72800919 1.00000000 0.02806541
0.72763171 1.00000000 0.21050858
0.72687367 1.00000000 0.34613981
0.72539053 1.00000000 0.48147918
0.72248979 1.00000000 0.61503403
0.71779953 1.00000000 0.75001187
0.71713947 1.00000000 0.87392666
0.76072611 0.96465014 1.00000000
0.84740327 0.29072756 0.00000000
0.84740327 0.25757890 0.00000000
0.84740327 0.15361113 0.00000000
0.84740327 0.00000000 0.22044411
0.84740327 0.00000000 0.49040361
0.84740327 0.00000000 0.61869384
0.84740327 0.00000000 0.74793617
0.84740327 0.00000000 0.86257140
0.84358801 0.15170372 1.00000000
0.84740327 0.31939160 0.00000000
0.85527587 0.29311752 0.00000000
0.85527587 0.20572748 0.00000000
0.85527587 0.00000000 0.18266623
0.85527587 0.00000000 0.48340184
0.85527587 0.00000000 0.61833592
0.85527587 0.00000000 0.75258685
0.85464916 0.00000000 0.87026423
0.84369138 0.20435758 1.00000000
0.84740327 0.37508376 0.00000000
0.85543235 0.35619407 0.00000000
0.87279829 0.29825624 0.00000000
0.87279829 0.04105683 0.00000000
0.87279829 0.00000000 0.46289593
0.87279829 0.00000000 0.61545103
0.87279829 0.00000000 0.76224262
0.87070279 0.00000000 0.88739925
0.84393734 0.28779145 1.00000000
0.84740327 0.45553723 0.00000000
0.85543235 0.44410668 0.00000000
0.87329631 0.41071376 0.00000000
0.87539267 0.38138120 0.25805287
0.87539267 0.25805287 0.45016187
0.87539267 0.25805287 0.61030759
0.87539267 0.25805287 0.76196207
0.87406794 0.25188727 0.89123145
0.84442396 0.39069283 1.00000000
0.84740327 0.55636766 0.00000000
0.85543235 0.55152675 0.00000000
0.85815071 0.54567553 0.18448812
0.87529224 0.52113512 0.26357295
0.87090529 0.49572117 0.43340482
0.87090529 0.43340482 0.60310104
0.87090529 0.43340482 0.75657213
0.86957155 0.43012705 0.88684946
0.84535026 0.50770407 1.00000000
0.84740327 0.66732075 0.00000000
0.85543235 0.66786862 0.00000000
0.85815071 0.66510860 0.18448812
0.85714443 0.65886525 0.33294919
0.85552699 0.64868743 0.47349410
0.86456384 0.61482500 0.58589755
0.86456384 0.58589755 0.74893190
0.86321718 0.58366200 0.88065899
0.84707604 0.62954046 1.00000000
0.84710463 0.74116264 0.00000000
0.85512320 0.74566620 0.00000000
0.87296896 0.75490663 0.00000000
0.87479051 0.75395384 0.26421995
0.85488131 0.77570850 0.47407858
0.85237430 0.76397658 0.61068395
0.85495276 0.73364442 0.73017533
0.85295486 0.72794579 0.87457327
0.85020589 0.75755047 1.00000000
0.84399435 0.85274178 0.00000000
0.85175801 0.86078589 0.00000000
0.86897965 0.87868946 0.00000000
0.87030462 0.88024980 0.26699509
0.86525351 0.87531030 0.44328428
0.85830503 0.86851842 0.59734851
0.84939644 0.85981610 0.74382866
0.84069546 0.85183314 0.87075988
0.86307520 0.87266829 1.00000000
0.83913151 0.99356686 0.00000000
0.84197203 1.00000000 0.00757053
0.84174279 1.00000000 0.20597551
0.84128464 1.00000000 0.34395340
0.84039493 1.00000000 0.48038597
0.83867167 1.00000000 0.61460189
0.83473642 1.00000000 0.74833522
0.83004071 0.99894525 0.87095953
0.86766308 0.97050516 1.00000000
0.99115650 0.34580210 0.00000000
0.99115650 0.31943179 0.00000000
0.99115650 0.24707845 0.00000000
0.99115650 0.00000000 0.10345475
0.99115650 0.00000000 0.49040361
0.99115650 0.00000000 0.61869384
0.99115650 0.00000000 0.74793617
0.99115650 0.00000000 0.86257140
0.98291291 0.15170372 1.00000000
0.99115650 0.36948775 0.00000000
0.99756903 0.34775449 0.00000000
0.99756903 0.28197035 0.00000000
0.99756903 0.03278318 0.00000000
0.99756903 0.00000000 0.48058555
0.99756903 0.00000000 0.61481381
0.99756903 0.00000000 0.74836249
0.99756903 0.00000000 0.86605845
0.98292306 0.20435758 1.00000000
0.99115650 0.41732932 0.00000000
0.99769673 0.40025069 0.00000000
1.00000000 0.38652229 0.18045681
1.00000000 0.27339647 0.18045681
1.00000000 0.18045681 0.47547514
1.00000000 0.18045681 0.61254814
1.00000000 0.18045681 0.74809206
1.00000000 0.18045681 0.86717836
0.98294724 0.28779145 1.00000000
0.99115650 0.48948635 0.00000000
0.99769673 0.47767050 0.00000000
1.00000000 0.46858423 0.18382066
1.00000000 0.45602074 0.32537678
1.00000000 0.32537678 0.34654289
1.00000000 0.32537678 0.61099830
1.00000000 0.32537678 0.74723050
1.00000000 0.32537678 0.86677074
0.98299510 0.39069283 1.00000000
0.99115650 0.58315784 0.00000000
0.99769673 0.57636719 0.00000000
1.00000000 0.57030427 0.18382066
1.00000000 0.56261241 0.32925233
1.00000000 0.54577811 0.46283686
1.00000000 0.46283686 0.60800660
1.00000000 0.46283686 0.74557169
1.00000000 0.46283686 0.86598693
0.98308629 0.50770407 1.00000000
0.99115650 0.68874057 0.00000000
0.99769673 0.68621085 0.00000000
1.00000000 0.68256804 0.18382066
1.00000000 0.67677068 0.32925233
1.00000000 0.66686840 0.46759769
1.00000000 0.64655380 0.59619293
1.00000000 0.59619293 0.74241373
1.00000000 0.59605575 0.86458513
0.98194904 0.63084476 1.00000000
0.98914702 0.80075974 0.00000000
0.99571819 0.80184436 0.00000000
1.00000000 0.80061611 0.16756313
1.00000000 0.79594216 0.32149565
0.99931302 0.78797529 0.46487823
0.99718839 0.77641995 0.60465520
1.00000000 0.74382542 0.72212534
1.00000000 0.72138395 0.86539741
0.97612089 0.76000870 1.00000000
0.98553320 0.85177462 0.00000000
0.99220825 0.85524861 0.00000000
1.00000000 0.85894507 0.13496248
1.00000000 0.85818366 0.30836189
1.00000000 0.89970528 0.45602609
0.98976546 0.88602467 0.61506328
0.98762258 0.87432035 0.75024815
0.99272824 0.84052149 0.84652721
0.97299530 0.87386227 1.00000000
0.97988294 0.99243996 0.00000000
0.98632504 0.99917365 0.00000000
0.98707712 1.00000000 0.19870496
0.98700145 1.00000000 0.34052250
0.98686640 1.00000000 0.47868111
0.98663501 1.00000000 0.61392966
0.98532095 0.99902792 0.74981918
0.98135418 0.99519745 0.87271852
1.00000000 1.00000000 1.00000000
