luts/S9_Standard_to_5219.cube
# Film Emulation LUT
# Generated by lutex.py
# Grid: 17³
TITLE "Panasonic S9 Standard to Kodak Vision3 5219 (500T)"
LUT_3D_SIZE 17
DOMAIN_MIN 0.0 0.0 0.0
DOMAIN_MAX 1.0 1.0 1.0
0.02805247 0.03128672 0.02323590
0.02979319 0.03451497 0.05713509
0.03473190 0.04375988 0.11132696
0.04232839 0.05626663 0.16460871
0.05180245 0.07085900 0.21713243
0.06253893 0.08679010 0.26903181
0.07417215 0.10356975 0.32040551
0.08911222 0.12463109 0.38213219
0.10538812 0.14716000 0.44610712
0.12251082 0.17054855 0.51112306
0.14030936 0.19462705 0.57708050
0.15865866 0.21927496 0.64389628
0.17746591 0.24440397 0.71149936
0.19666091 0.26994742 0.77982791
0.21618942 0.29585350 0.84882725
0.23287341 0.31793558 0.90745796
0.25608412 0.34859556 0.98864675
0.03049485 0.07028252 0.02567505
0.03076262 0.07046225 0.05788546
0.03473064 0.07686935 0.11131614
0.04232603 0.08555913 0.16459435
0.05179898 0.09646208 0.21711461
0.06253431 0.10911251 0.26901057
0.07416638 0.12309140 0.32038088
0.08910508 0.14135464 0.38210351
0.10537958 0.16154264 0.44607422
0.12250090 0.18301816 0.51108588
0.14029804 0.20552889 0.57703896
0.15864595 0.22888375 0.64385034
0.17745182 0.25293773 0.71144895
0.19664542 0.27757973 0.77977298
0.21617253 0.30272344 0.84876775
0.23285533 0.32425113 0.90739457
0.25606441 0.35425667 0.98857796
0.03644055 0.12711482 0.03161288
0.03670875 0.12722151 0.06236634
0.03670875 0.12722151 0.11218190
0.04232029 0.13437395 0.16455942
0.05179052 0.14174600 0.21707123
0.06252306 0.15074246 0.26895886
0.07415233 0.16116662 0.32032094
0.08908770 0.17543337 0.38203366
0.10535881 0.19190718 0.44599412
0.12247673 0.21008240 0.51099535
0.14027049 0.22970555 0.57693785
0.15861502 0.25055398 0.64373848
0.17741749 0.27243900 0.71132622
0.19660769 0.29520386 0.77963924
0.21613140 0.31871961 0.84862287
0.23281131 0.33904099 0.90724022
0.25601642 0.36759902 0.98841046
0.04502442 0.18184732 0.04042031
0.04527156 0.18192136 0.06860243
0.04527156 0.18192136 0.11603927
0.04527156 0.18192136 0.16547255
0.05177798 0.17776558 0.21700687
0.06250636 0.19662106 0.26888214
0.07413149 0.20458416 0.32023199
0.08906191 0.21579319 0.38193004
0.10532799 0.22912860 0.44587528
0.12244088 0.24426004 0.51086103
0.14022961 0.26101409 0.57678782
0.15856912 0.27921171 0.64357252
0.17736656 0.29868074 0.71114412
0.19655173 0.31926305 0.77944081
0.21607037 0.34081766 0.84840793
0.23274601 0.35964550 0.90701121
0.25594521 0.38636694 0.98816194
0.05516437 0.23502905 0.05115751
0.05538104 0.23508500 0.07631627
0.05538104 0.23508500 0.12101884
0.05538104 0.23508500 0.16896326
0.05538104 0.23508500 0.21791923
0.06248401 0.22975980 0.26877942
0.07410359 0.25028533 0.32011291
0.08902740 0.25929539 0.38179129
0.10528673 0.27022034 0.44571615
0.12239288 0.28285926 0.51068118
0.14017489 0.29711950 0.57658694
0.15850767 0.31288527 0.64335032
0.17729838 0.33002912 0.71090031
0.19647679 0.34842096 0.77917513
0.21598867 0.36793438 0.84812013
0.23265858 0.38516166 0.90670459
0.25584986 0.40986094 0.98782920
0.06632798 0.28699648 0.06283221
0.06651807 0.28704108 0.08521533
0.06651807 0.28704108 0.12702650
0.06651807 0.28704108 0.17325687
0.06651807 0.28704108 0.22115043
0.06651807 0.28704108 0.26965446
0.07406841 0.28061045 0.31996275
0.08898388 0.30431089 0.38161635
0.10523470 0.31341924 0.44551551
0.12233236 0.32409558 0.51045442
0.14010589 0.33630464 0.57633365
0.15843019 0.34998427 0.64307013
0.17721241 0.36505303 0.71059289
0.19638231 0.38141740 0.77884014
0.21588565 0.39897794 0.84775724
0.23254833 0.41463103 0.90631797
0.25572965 0.43728793 0.98740963
0.07817200 0.33797211 0.07510115
0.07833971 0.33800901 0.09503524
0.07833971 0.33800901 0.13395163
0.07833971 0.33800901 0.17831139
0.07833971 0.33800901 0.22499527
0.07833971 0.33800901 0.27267930
0.07833971 0.33800901 0.32077115
0.08893113 0.33058125 0.38140428
0.10517164 0.35773476 0.44527230
0.12225900 0.36687399 0.51017954
0.14002225 0.37742581 0.57602662
0.15833627 0.38936609 0.64273050
0.17710820 0.40265032 0.71022023
0.19626779 0.41721840 0.77843406
0.21576077 0.43299930 0.84731736
0.23241470 0.44718257 0.90584931
0.25558392 0.46788569 0.98690104
0.09312525 0.39870858 0.09047039
0.09327080 0.39873896 0.10787375
0.09327080 0.39873896 0.14341965
0.09327080 0.39873896 0.18539134
0.09327080 0.39873896 0.23045187
0.09327080 0.39873896 0.27700465
0.09327080 0.39873896 0.32427760
0.09327080 0.39873896 0.38204954
0.10507999 0.39007650 0.44491872
0.12215238 0.41991663 0.50977992
0.13990067 0.42887913 0.57558026
0.15819975 0.43910892 0.64223675
0.17695672 0.45059263 0.70967848
0.19610131 0.46330127 0.77784371
0.21557924 0.47719315 0.84667786
0.23222043 0.48978098 0.90516798
0.25537209 0.50831393 0.98616167
0.10918641 0.46115777 0.10687409
0.10931354 0.46118335 0.12208791
0.10931354 0.46118335 0.15437534
0.10931354 0.46118335 0.19380689
0.10931354 0.46118335 0.23703955
0.10931354 0.46118335 0.28227531
0.10931354 0.46118335 0.32857534
0.10931354 0.46118335 0.38547177
0.10931354 0.46118335 0.44537732
0.12201967 0.45125545 0.50928247
0.13974935 0.48374520 0.57502463
0.15802982 0.49255739 0.64162212
0.17676816 0.50251679 0.70900408
0.19589408 0.51361648 0.77710883
0.21535327 0.52583739 0.84588180
0.23197862 0.53698523 0.90431985
0.25510839 0.55351712 0.98524128
0.12589774 0.52417861 0.12386200
0.12600990 0.52420062 0.13723240
0.12600990 0.52420062 0.16651039
0.12600990 0.52420062 0.20337923
0.12600990 0.52420062 0.24465768
0.12600990 0.52420062 0.28843363
0.12600990 0.52420062 0.33363038
0.12600990 0.52420062 0.38951799
0.12600990 0.52420062 0.44862965
0.12600990 0.52420062 0.50951795
0.13956808 0.51300306 0.57435894
0.15782626 0.54818512 0.64088575
0.17654228 0.55688347 0.70819611
0.19564583 0.56662956 0.77622839
0.21508257 0.57742016 0.84492806
0.23168892 0.58731528 0.90330372
0.25479248 0.60207534 0.98413858
0.14311656 0.58771634 0.14130525
0.14321651 0.58773558 0.15312519
0.14321651 0.58773558 0.17967340
0.14321651 0.58773558 0.21402681
0.14321651 0.58773558 0.25327540
0.14321651 0.58773558 0.29547710
0.14321651 0.58773558 0.33945438
0.14321651 0.58773558 0.39420699
0.14321651 0.58773558 0.45241366
0.14321651 0.58773558 0.51258016
0.14321651 0.58773558 0.57433196
0.15758675 0.57526280 0.64001918
0.17627650 0.61316638 0.70724528
0.19535372 0.62177522 0.77519228
0.21476404 0.63134792 0.84380570
0.23134803 0.64016264 0.90210793
0.25442074 0.65337272 0.98284091
0.16074063 0.65172621 0.15911272
0.16083057 0.65174330 0.16962452
0.16083057 0.65174330 0.19372385
0.16083057 0.65174330 0.22565890
0.16083057 0.65174330 0.26284801
0.16083057 0.65174330 0.30339090
0.16083057 0.65174330 0.34604946
0.16083057 0.65174330 0.39955090
0.16083057 0.65174330 0.45674534
0.16083057 0.65174330 0.51609639
0.16083057 0.65174330 0.57717925
0.16083057 0.65174330 0.63969225
0.17596829 0.63798889 0.70614251
0.19501496 0.63842162 0.77399059
0.21439464 0.68716679 0.84250397
0.23095270 0.69505218 0.90072104
0.25398963 0.70691376 0.98133586
0.17869553 0.71617099 0.17721865
0.17877720 0.71618635 0.18662085
0.17877720 0.71618635 0.20853680
0.17877720 0.71618635 0.23818226
0.17877720 0.71618635 0.27332125
0.17877720 0.71618635 0.31215003
0.17877720 0.71618635 0.35340913
0.17877720 0.71618635 0.40555549
0.17877720 0.71618635 0.46163626
0.17877720 0.71618635 0.52008019
0.17877720 0.71618635 0.58041309
0.17877720 0.71618635 0.64229590
0.17877720 0.71618635 0.70547982
0.19462683 0.70114337 0.77261355
0.21397138 0.70157560 0.84101227
0.23049973 0.75161590 0.89913177
0.25349564 0.76230567 0.97961117
0.19692607 0.78101912 0.19557451
0.19700086 0.78103307 0.20402941
0.19700086 0.78103307 0.22400412
0.19700086 0.78103307 0.25150593
0.19700086 0.78103307 0.28463505
0.19700086 0.78103307 0.32172155
0.19700086 0.78103307 0.36151945
0.19700086 0.78103307 0.41222070
0.19700086 0.78103307 0.46709377
0.19700086 0.78103307 0.52454214
0.19700086 0.78103307 0.58404492
0.19700086 0.78103307 0.64522585
0.19700086 0.78103307 0.70780760
0.19700086 0.78103307 0.77158097
0.21349130 0.76469418 0.83932008
0.22998593 0.76505478 0.89732887
0.25292810 0.81921431 0.97762592
0.21523340 0.84567102 0.21397876
0.21530250 0.84568234 0.22162349
0.21530155 0.84567831 0.23988059
0.21530009 0.84567208 0.26539860
0.21529806 0.84566346 0.29658643
0.21529544 0.84565230 0.33192816
0.21529220 0.84563849 0.37021936
0.21528739 0.84561802 0.41939126
0.21528128 0.84559206 0.47295428
0.21527386 0.84556046 0.52929707
0.21526499 0.84552273 0.58785506
0.21525458 0.84547843 0.64821465
0.21524252 0.84542710 0.71006821
0.21522870 0.84536831 0.77318239
0.21521303 0.84530162 0.83737627
0.22926795 0.82755600 0.89471928
0.25211959 0.82795666 0.97471211
0.23081083 0.90033358 0.22959883
0.23087755 0.90034432 0.23663898
0.23087651 0.90034004 0.25357725
0.23087490 0.90033342 0.27751606
0.23087268 0.90032426 0.30710222
0.23086981 0.90031241 0.34095910
0.23124640 0.90022746 0.37810599
0.23227804 0.90001332 0.42623284
0.23357855 0.89974172 0.47880491
0.23515075 0.89941094 0.53417743
0.23701139 0.89901600 0.59172836
0.23917483 0.89855203 0.65098695
0.24165300 0.89801426 0.71158988
0.24445534 0.89739797 0.77324933
0.24758887 0.89669852 0.83573037
0.25049009 0.89604114 0.88887511
0.27742763 0.87777165 0.96686975
0.29596170 0.96699846 0.29503572
0.29610748 0.96699734 0.30015964
0.29629032 0.96695146 0.31269996
0.29657348 0.96688034 0.33102159
0.29696456 0.96678196 0.35449440
0.29746952 0.96665469 0.38228208
0.29809321 0.96649711 0.41353569
0.29901491 0.96626345 0.45502846
0.30017864 0.96596711 0.50152903
0.30158816 0.96560619 0.55150132
0.30326000 0.96517526 0.60424962
0.30520892 0.96466901 0.65921291
0.30744785 0.96408221 0.71594089
0.30998784 0.96340973 0.77406939
0.31283807 0.96264650 0.83329948
0.31548625 0.96192915 0.88388303
0.31949642 0.96082770 0.95409923
0.06517085 0.03484066 0.02528847
0.06548885 0.03378749 0.05772744
0.06448077 0.03814549 0.11140518
0.06502860 0.04552042 0.16465982
0.06578045 0.05461735 0.21716834
0.06674329 0.06500926 0.26905795
0.07634261 0.08406933 0.32042479
0.09097873 0.10865772 0.38214538
0.10699758 0.13384516 0.44611552
0.12390864 0.15925348 0.51112757
0.14153281 0.18490380 0.57708173
0.15973776 0.21080023 0.64389467
0.17842466 0.23693861 0.71149522
0.19751852 0.26331064 0.77982146
0.21696134 0.28990602 0.84881867
0.23358293 0.31248325 0.90744769
0.25671989 0.34372163 0.98863426
0.06544737 0.07028249 0.02567412
0.06679980 0.07156331 0.05915797
0.06992271 0.07700849 0.11231810
0.07494357 0.08568604 0.16527288
0.08146898 0.09657595 0.21761565
0.08931046 0.10921378 0.26940118
0.09825810 0.12318116 0.32069685
0.11031133 0.14143222 0.38235648
0.12401312 0.16160947 0.44628070
0.13892507 0.18307585 0.51125738
0.15484141 0.20557882 0.57718333
0.17159215 0.22892707 0.64397308
0.18903988 0.25297542 0.71155409
0.20707452 0.27761257 0.77986350
0.22560792 0.30275205 0.84884593
0.24156077 0.32427661 0.90746375
0.26390069 0.35427834 0.98863640
0.06956922 0.12711480 0.03161196
0.07085970 0.12787638 0.06357135
0.07124749 0.12810651 0.11317681
0.07493974 0.13445759 0.16523809
0.08146298 0.14182497 0.21757238
0.08930201 0.15081627 0.26934956
0.09824704 0.16123507 0.32063697
0.11029699 0.17549538 0.38228670
0.12399531 0.19196280 0.44620064
0.13890372 0.21013201 0.51116689
0.15481650 0.22974965 0.57708224
0.17156366 0.25059307 0.64386125
0.18900781 0.27247358 0.71143138
0.20703888 0.29523440 0.77972978
0.22556871 0.31874653 0.84870107
0.24151856 0.33906514 0.90730941
0.26385434 0.36761974 0.98846892
0.07535293 0.18184731 0.04041938
0.07656418 0.18237489 0.06972294
0.07692980 0.18253516 0.11700312
0.07692980 0.18253516 0.16614750
0.08145408 0.17895890 0.21750818
0.08928949 0.19667675 0.26927297
0.09823064 0.20463714 0.32054814
0.11027572 0.21584266 0.38218316
0.12396889 0.22917430 0.44608186
0.13887205 0.24430190 0.51103262
0.15477953 0.26105219 0.57693226
0.17152139 0.27924618 0.64369533
0.18896024 0.29871178 0.71124932
0.20698601 0.31929088 0.77953138
0.22551054 0.34084250 0.84848615
0.24145592 0.35966799 0.90708043
0.26378557 0.38638644 0.98822042
0.08257288 0.23502904 0.05115673
0.08369610 0.23542629 0.07734515
0.08403711 0.23554763 0.12194498
0.08403711 0.23554763 0.16962359
0.08403711 0.23554763 0.21841846
0.08927272 0.23066088 0.26917042
0.09820868 0.25032755 0.32042919
0.11024724 0.25933555 0.38204452
0.12393351 0.27025816 0.44592283
0.13882965 0.28289459 0.51085286
0.15473005 0.29715225 0.57673145
0.17146480 0.31291541 0.64347318
0.18889655 0.33005668 0.71100555
0.20691522 0.34844601 0.77926574
0.22543266 0.36795702 0.84819839
0.24137206 0.38518234 0.90677384
0.26369349 0.40987908 0.98788770
0.09097775 0.28699647 0.06283153
0.09201128 0.28731165 0.08615304
0.09232724 0.28740854 0.12791038
0.09232724 0.28740854 0.17389993
0.09232724 0.28740854 0.22164152
0.09232724 0.28740854 0.27004429
0.09818100 0.28132686 0.32027921
0.11021134 0.30434419 0.38186972
0.12388892 0.31345101 0.44572231
0.13877619 0.32412565 0.51062619
0.15466766 0.33633289 0.57647824
0.17139346 0.35001062 0.64319307
0.18881625 0.36507743 0.71069819
0.20682597 0.38143984 0.77893079
0.22533447 0.39899844 0.84783555
0.24126633 0.41464992 0.90638725
0.26357740 0.43730466 0.98746817
0.10032960 0.33797211 0.07510055
0.10127662 0.33823132 0.09588693
0.10156847 0.33831160 0.13479074
0.10156847 0.33831160 0.17893510
0.10156847 0.33831160 0.22547696
0.10156847 0.33831160 0.27306411
0.10156847 0.33831160 0.32108701
0.11016783 0.33117138 0.38165782
0.12383488 0.35776185 0.44547923
0.13871141 0.36689988 0.51035142
0.15459204 0.37745037 0.57617130
0.17130699 0.38938923 0.64285352
0.18871892 0.40267196 0.71032560
0.20671780 0.41723850 0.77852478
0.22521545 0.43301783 0.84739571
0.24113817 0.44719976 0.90591864
0.26343668 0.46790107 0.98695962
0.11265412 0.39870857 0.09046989
0.11350430 0.39892021 0.10863110
0.11376928 0.39898646 0.14420350
0.11376928 0.39898646 0.18598956
0.11376928 0.39898646 0.23092075
0.11376928 0.39898646 0.27738246
0.11376928 0.39898646 0.32458938
0.11376928 0.39898646 0.38230297
0.12375633 0.39055936 0.44512586
0.13861725 0.41993856 0.50995198
0.15448214 0.42890011 0.57572509
0.17118130 0.43912886 0.64235989
0.18857745 0.45061145 0.70978395
0.20656055 0.46331891 0.77793452
0.22504244 0.47720956 0.84675630
0.24095188 0.48979632 0.90523738
0.26323212 0.50832779 0.98622031
0.12640067 0.46115776 0.10687365
0.12716090 0.46133409 0.12275930
0.12740109 0.46138999 0.15510262
0.12740109 0.46138999 0.19437706
0.12740109 0.46138999 0.23749371
0.12740109 0.46138999 0.28264489
0.12740109 0.46138999 0.32888225
0.12740109 0.46138999 0.38572245
0.12740109 0.46138999 0.44558467
0.13850007 0.45165871 0.50945474
0.15434537 0.48376326 0.57516963
0.17102488 0.49257466 0.64174541
0.18840138 0.50253321 0.70910969
0.20636484 0.51363197 0.77719975
0.22482710 0.52585191 0.84596033
0.24072000 0.53699889 0.90438933
0.26297751 0.55352956 0.98529999
0.14113718 0.52417861 0.12386162
0.14181728 0.52432830 0.13782839
0.14203558 0.52437649 0.16718272
0.14203558 0.52437649 0.20392012
0.14203558 0.52437649 0.24509579
0.14203558 0.52437649 0.28879399
0.14203558 0.52437649 0.33393172
0.14203558 0.52437649 0.38976548
0.14203558 0.52437649 0.44883513
0.14203558 0.52437649 0.50969065
0.15418156 0.51334634 0.57450416
0.17083753 0.54820021 0.64100922
0.18819048 0.55689788 0.70830187
0.20613042 0.56664324 0.77631944
0.22456916 0.57743305 0.84500671
0.24044224 0.58732747 0.90337331
0.26267251 0.60208651 0.98419738
0.15667879 0.58771633 0.14130492
0.15728845 0.58784534 0.15365567
0.15748773 0.58788762 0.18029370
0.15748773 0.58788762 0.21453803
0.15748773 0.58788762 0.25369649
0.15748773 0.58788762 0.29582737
0.15748773 0.58788762 0.33974952
0.15748773 0.58788762 0.39445088
0.15748773 0.58788762 0.45261699
0.15748773 0.58788762 0.51275155
0.15748773 0.58788762 0.57447779
0.17061713 0.57555957 0.64014287
0.18794237 0.61317912 0.70735123
0.20585461 0.62178737 0.77528350
0.22426567 0.63135941 0.84388448
0.24011543 0.64017354 0.90217764
0.26231363 0.65338277 0.98289981
0.17287802 0.65172621 0.15911243
0.17342616 0.65183878 0.17009832
0.17360906 0.65187642 0.19429579
0.17360906 0.65187642 0.22614077
0.17360906 0.65187642 0.26325148
0.17360906 0.65187642 0.30373040
0.17360906 0.65187642 0.34633783
0.17360906 0.65187642 0.39979079
0.17360906 0.65187642 0.45694627
0.17360906 0.65187642 0.51626631
0.17360906 0.65187642 0.57732416
0.17360906 0.65187642 0.63981668
0.18765471 0.63824875 0.70624867
0.20553483 0.63868123 0.77408200
0.22391378 0.68717710 0.84258291
0.23973647 0.69506199 0.90079090
0.26189748 0.70692284 0.98139488
0.18961872 0.71617099 0.17721839
0.19011324 0.71627022 0.18704556
0.19028209 0.71630416 0.20906435
0.19028209 0.71630416 0.23863562
0.19028209 0.71630416 0.27370684
0.19028209 0.71630416 0.31247826
0.19028209 0.71630416 0.35369025
0.19028209 0.71630416 0.40579101
0.19028209 0.71630416 0.46183454
0.19028209 0.71630416 0.52024847
0.19028209 0.71630416 0.58055697
0.19028209 0.71630416 0.64241968
0.19028209 0.71630416 0.70558684
0.20516849 0.70137336 0.77270516
0.22351064 0.70180538 0.84109140
0.23930231 0.75162475 0.89920178
0.26142069 0.76231390 0.97967033
0.20680975 0.78101912 0.19557427
0.20725747 0.78110734 0.20441149
0.20741432 0.78113830 0.22449128
0.20741432 0.78113830 0.25193198
0.20741432 0.78113830 0.28500280
0.20741432 0.78113830 0.32203817
0.20741432 0.78113830 0.36179295
0.20741432 0.78113830 0.41245154
0.20741432 0.78113830 0.46728915
0.20741432 0.78113830 0.52470861
0.20741432 0.78113830 0.58418766
0.20741432 0.78113830 0.64534891
0.20741432 0.78113830 0.70791416
0.20741432 0.78113830 0.77167355
0.22305346 0.76489958 0.83939942
0.23880994 0.76526005 0.89739907
0.26087337 0.81921645 0.97767893
0.22423675 0.84566550 0.21397690
0.22464348 0.84574300 0.22196651
0.22479054 0.84576770 0.24033018
0.22478961 0.84576147 0.26579754
0.22478832 0.84575286 0.29693509
0.22478664 0.84574171 0.33223119
0.22478457 0.84572792 0.37048283
0.22478151 0.84570746 0.41961468
0.22477761 0.84568153 0.47314375
0.22477288 0.84564995 0.52945841
0.22476722 0.84561226 0.58799302
0.22476058 0.84556800 0.64833301
0.22475289 0.84551671 0.71017000
0.22474407 0.84545797 0.77327000
0.22473408 0.84539134 0.83745161
0.23816012 0.82773665 0.89478430
0.26013300 0.82813731 0.97476573
0.23919705 0.90032772 0.22959688
0.23957271 0.90039840 0.23695210
0.23971663 0.90042199 0.25400101
0.23971552 0.90041537 0.27789647
0.23971398 0.90040622 0.30743826
0.23971199 0.90039438 0.34125378
0.24033939 0.90025814 0.37849083
0.24132423 0.90004484 0.42655220
0.24256625 0.89977430 0.47906720
0.24406851 0.89944482 0.53439110
0.24584745 0.89905143 0.59190045
0.24791731 0.89858929 0.65112313
0.25029011 0.89805364 0.71169472
0.25297562 0.89743978 0.77332647
0.25598130 0.89674311 0.83578274
0.25876673 0.89608833 0.88890846
0.28483086 0.87792065 0.96688687
0.30231711 0.96693552 0.29528722
0.30278129 0.96700853 0.30072942
0.30312429 0.96700088 0.31339811
0.30339925 0.96692999 0.33166872
0.30377903 0.96683194 0.35508370
0.30426945 0.96670510 0.38281193
0.30487523 0.96654805 0.41400806
0.30577061 0.96631518 0.45543648
0.30690132 0.96601983 0.50187728
0.30827116 0.96566012 0.55179621
0.30989638 0.96523063 0.60449729
0.31179156 0.96472608 0.65941889
0.31396954 0.96414127 0.71610993
0.31644138 0.96347106 0.77420553
0.31921638 0.96271041 0.83340609
0.32179580 0.96199550 0.88396695
0.32570388 0.96089780 0.95415474
0.12093229 0.04357317 0.03082305
0.12111904 0.03932436 0.06192566
0.12111904 0.03932436 0.11192943
0.12379074 0.04551890 0.16465015
0.11896293 0.05461510 0.21715633
0.11954245 0.06500624 0.26904365
0.12025603 0.07633881 0.32040820
0.12130622 0.09097401 0.38212605
0.12262488 0.10699191 0.44609335
0.12421143 0.12390202 0.51110251
0.14152525 0.15543537 0.57705375
0.15972926 0.18580250 0.64386372
0.17841522 0.21533099 0.71146126
0.19750813 0.24436316 0.77978445
0.21695000 0.27309969 0.84877857
0.23357079 0.29717968 0.90740497
0.25670665 0.33014012 0.98858790
0.12093222 0.07674632 0.03081964
0.12173155 0.07722596 0.06300179
0.12213365 0.07552829 0.11301238
0.12478333 0.07954679 0.16538184
0.12091658 0.08577780 0.21769168
0.12148705 0.09330505 0.26945588
0.12218960 0.10193848 0.32073646
0.12322372 0.11362945 0.38238258
0.12698698 0.12940558 0.44629606
0.14158764 0.15554307 0.51126397
0.15722792 0.18173950 0.57718246
0.17373655 0.20805806 0.64396568
0.19097307 0.23453087 0.71154082
0.20882377 0.26117314 0.77984486
0.22719683 0.28799051 0.84882227
0.24303042 0.31072564 0.90743608
0.26522672 0.34214677 0.98860349
0.12126504 0.12711475 0.03160966
0.12206197 0.12787625 0.06356687
0.12408871 0.12981451 0.11509129
0.12685020 0.13466473 0.16690826
0.13100210 0.14202059 0.21880939
0.13618697 0.15099912 0.27031540
0.14234368 0.16140465 0.32141895
0.15100265 0.17564901 0.38291318
0.16129451 0.19210063 0.44671216
0.17296162 0.21025497 0.51159188
0.18586854 0.22985893 0.57744005
0.19987640 0.25068995 0.64416551
0.21485231 0.27255930 0.71169201
0.23067475 0.29531011 0.77995419
0.24723568 0.31881325 0.84889491
0.26169533 0.33912501 0.90748093
0.28220894 0.36767110 0.98861384
0.12488668 0.18184727 0.04041708
0.12566091 0.18237480 0.06971877
0.12763098 0.18372396 0.11885708
0.12810128 0.18404748 0.16780866
0.13099634 0.19012199 0.21874560
0.13617852 0.19681475 0.27023913
0.14233217 0.20476843 0.32133037
0.15098702 0.21596525 0.38280985
0.16127424 0.22928755 0.44659355
0.17293636 0.24440568 0.51145776
0.18583808 0.26114663 0.57729019
0.19984056 0.27933164 0.64399970
0.21481100 0.29878873 0.71151004
0.23062790 0.31935987 0.77975587
0.24718326 0.34090407 0.84868006
0.26163821 0.35972373 0.90725201
0.28214535 0.38643478 0.98836539
0.12957974 0.23502902 0.05115478
0.13032612 0.23542622 0.07734131
0.13222652 0.23644423 0.12372524
0.13268312 0.23669024 0.17124917
0.13268312 0.23669024 0.21965077
0.13616722 0.23287798 0.27013701
0.14231676 0.25043219 0.32121177
0.15096610 0.25943509 0.38267149
0.16124711 0.27035192 0.44643475
0.17290256 0.28298216 0.51127818
0.18579729 0.29723342 0.57708953
0.19979257 0.31299013 0.64377768
0.21475569 0.33012501 0.71126639
0.23056518 0.34850812 0.77949033
0.24711309 0.36801313 0.84839238
0.26156174 0.38523362 0.90694549
0.28206022 0.40992403 0.98803274
0.13526626 0.28699645 0.06282985
0.13598105 0.28731160 0.08614953
0.13780231 0.28812021 0.12960779
0.13824338 0.28831726 0.17548351
0.13824338 0.28831726 0.22285388
0.13824338 0.28831726 0.27100800
0.14229734 0.28309397 0.32106222
0.15093973 0.30442672 0.38249704
0.16121290 0.31352975 0.44623451
0.17285995 0.32420019 0.51105175
0.18574587 0.33640292 0.57683653
0.19973208 0.35007594 0.64349774
0.21468596 0.36513792 0.71095917
0.23048610 0.38149548 0.77915551
0.24702462 0.39904926 0.84802965
0.26146533 0.41469675 0.90655900
0.28195289 0.43734615 0.98761329
0.14185130 0.33797209 0.07509909
0.14253219 0.33823128 0.09588373
0.14426832 0.33889674 0.13640006
0.14469280 0.33906044 0.18047154
0.14469280 0.33906044 0.22666629
0.14469280 0.33906044 0.27401547
0.14469280 0.33906044 0.32186855
0.15090777 0.33262910 0.38228557
0.16117146 0.35782902 0.44599179
0.17280832 0.36696406 0.51077728
0.18568357 0.37751126 0.57652983
0.19965878 0.38944659 0.64315839
0.21460145 0.40272562 0.71058677
0.23039027 0.41728833 0.77874965
0.24691740 0.43306376 0.84758995
0.26134848 0.44724240 0.90609051
0.28182280 0.46793919 0.98710484
0.15090047 0.39870856 0.09046864
0.15153891 0.39892018 0.10862825
0.15316825 0.39946377 0.14570367
0.15357204 0.39959927 0.18746387
0.15357204 0.39959927 0.23207865
0.15357204 0.39959927 0.27831662
0.15357204 0.39959927 0.32536087
0.15357204 0.39959927 0.38293044
0.16111123 0.39175340 0.44563892
0.17273329 0.41999294 0.51037825
0.18559302 0.42895214 0.57608398
0.19955225 0.43917831 0.64266507
0.21447863 0.45065812 0.71004537
0.23025099 0.46336265 0.77815961
0.24676156 0.47725024 0.84695072
0.26117864 0.48983437 0.90540942
0.28163371 0.50836214 0.98636567
0.16142907 0.46115775 0.10687257
0.16202334 0.46133406 0.12275676
0.16354129 0.46178708 0.15649043
0.16392373 0.46190182 0.19578289
0.16392373 0.46190182 0.23861552
0.16392373 0.46190182 0.28355880
0.16392373 0.46190182 0.32964171
