luts/S9_Standard_to_5207.cube
# Film Emulation LUT
# Generated by lutex.py
# Grid: 33³
TITLE "Panasonic S9 Standard to Kodak Vision3 250D (5207)"
LUT_3D_SIZE 33
DOMAIN_MIN 0.0 0.0 0.0
DOMAIN_MAX 1.0 1.0 1.0
0.04744154 0.04829062 0.04489573
0.00000000 0.00000000 0.00000000
0.00000000 0.00000000 0.00000000
0.00000000 0.00000000 0.00000000
0.00000000 0.00000000 0.00000000
0.00000000 0.00000000 0.00000000
0.00071270 0.00159061 0.01345150
0.00451384 0.01412614 0.10751685
0.00467239 0.02458555 0.16418018
0.00209338 0.03377648 0.21013459
0.00000000 0.04432475 0.25024715
0.00000000 0.05605142 0.28658963
0.00000000 0.06705778 0.32070525
0.00000000 0.07904358 0.35785572
0.00000000 0.09099488 0.39489408
0.00000000 0.10265109 0.43101099
0.00000000 0.11408258 0.46642437
0.00000000 0.12533846 0.50128673
0.00000000 0.13645419 0.53570851
0.00000000 0.14745610 0.56977191
0.00000000 0.15836420 0.60353952
0.00000000 0.16919396 0.63705989
0.00000000 0.17995759 0.67037132
0.00000000 0.19066482 0.70350442
0.00000000 0.20132352 0.73648397
0.00000000 0.21194012 0.76933025
0.00000000 0.22251993 0.80206001
0.00000000 0.23306737 0.83468718
0.00000000 0.24172698 0.86147297
0.00000000 0.24982936 0.88653388
0.00000000 0.26033249 0.91901882
0.00000000 0.27233558 0.95614088
0.00000000 0.28543036 0.99663698
0.04756302 0.05934902 0.04502095
0.04758850 0.05937091 0.05582784
0.00000000 0.00000000 0.00000000
0.00000000 0.00000000 0.00000000
0.00000000 0.00000000 0.00000000
0.00000000 0.00000000 0.00000000
0.00071236 0.00198937 0.01344462
0.00451373 0.01748922 0.10751258
0.00467248 0.03011292 0.16417661
0.00209367 0.04091719 0.21013121
0.00000000 0.05168406 0.25024389
0.00000000 0.06303878 0.28658634
0.00000000 0.07365830 0.32070190
0.00000000 0.08521426 0.35785226
0.00000000 0.09674846 0.39489048
0.00000000 0.10801978 0.43100725
0.00000000 0.11909957 0.46642048
0.00000000 0.13003551 0.50128268
0.00000000 0.14086061 0.53570429
0.00000000 0.15159849 0.56976752
0.00000000 0.16226642 0.60353495
0.00000000 0.17287737 0.63705514
0.00000000 0.18344122 0.67036639
0.00000000 0.19396565 0.70349931
0.00000000 0.20445670 0.73647868
0.00000000 0.21491919 0.76932477
0.00000000 0.22535700 0.80205434
0.00000000 0.23577330 0.83468132
0.00000000 0.24433237 0.86146696
0.00000000 0.25234600 0.88652773
0.00000000 0.26274119 0.91901247
0.00000000 0.27462985 0.95613431
0.00000000 0.28760960 0.99663017
0.04805014 0.09349282 0.04552296
0.04807548 0.09350802 0.05626243
0.04807548 0.09350802 0.08963299
0.00000000 0.00000000 0.00000000
0.00000000 0.00000000 0.00000000
0.00000000 0.00000000 0.00000000
0.00071097 0.00359099 0.01341690
0.00451327 0.03102771 0.10749540
0.00467286 0.05129173 0.16416223
0.00209486 0.06475178 0.21011759
0.00000000 0.07592819 0.25023077
0.00000000 0.08663043 0.28657310
0.00000000 0.09640696 0.32068838
0.00000000 0.10690366 0.35783831
0.00000000 0.11731739 0.39487601
0.00000000 0.12748793 0.43099220
0.00000000 0.13751268 0.46640480
0.00000000 0.14745177 0.50126635
0.00000000 0.15734303 0.53568728
0.00000000 0.16721051 0.56974982
0.00000000 0.17706955 0.60351654
0.00000000 0.18692988 0.63703602
0.00000000 0.19679756 0.67034654
0.00000000 0.20667625 0.70347872
0.00000000 0.21656802 0.73645735
0.00000000 0.22647386 0.76930270
0.00000000 0.23639409 0.80203151
0.00000000 0.24632857 0.83465774
0.00000000 0.25451572 0.86144275
0.00000000 0.26219940 0.88650293
0.00000000 0.27219109 0.91898691
0.00000000 0.28364957 0.95610786
0.00000000 0.29619439 0.99660276
0.04867286 0.12561669 0.04616443
0.04869802 0.12562826 0.05681871
0.04869802 0.12562826 0.09001675
0.04869802 0.12562826 0.12158471
0.00000000 0.00000000 0.00000000
0.00000000 0.00000000 0.00000000
0.00070918 0.00564442 0.01338119
0.00451267 0.04791090 0.10747327
0.00467336 0.07249155 0.16414370
0.00209639 0.08803782 0.21010006
0.00000000 0.10002833 0.25021386
0.00000000 0.11064064 0.28655604
0.00000000 0.12005062 0.32067097
0.00000000 0.12993164 0.35782035
0.00000000 0.13958381 0.39485737
0.00000000 0.14892690 0.43097281
0.00000000 0.15809870 0.46638461
0.00000000 0.16718501 0.50124531
0.00000000 0.17623994 0.53566538
0.00000000 0.18529761 0.56972702
0.00000000 0.19437931 0.60349284
0.00000000 0.20349796 0.63701139
0.00000000 0.21266098 0.67032097
0.00000000 0.22187212 0.70345220
0.00000000 0.23113274 0.73642988
0.00000000 0.24044264 0.76927426
0.00000000 0.24980059 0.80200211
0.00000000 0.25920474 0.83462736
0.00000000 0.26697812 0.86141157
0.00000000 0.27429157 0.88647099
0.00000000 0.28382654 0.91895398
0.00000000 0.29479345 0.95607380
0.00000000 0.30683648 0.99656745
0.04943447 0.15664344 0.04694857
0.04945941 0.15665272 0.05750016
0.04945941 0.15665272 0.09048856
0.04945941 0.15665272 0.12194048
0.04945941 0.15665272 0.15255195
0.05022423 0.15693850 0.18269241
0.00070697 0.00816471 0.01333711
0.00451193 0.06492893 0.10744593
0.00467396 0.09326116 0.16412082
0.00209828 0.11095395 0.21007840
0.00000000 0.12396878 0.25019299
0.00000000 0.13481483 0.28653498
0.00000000 0.14416208 0.32064947
0.00000000 0.15374104 0.35779817
0.00000000 0.16291470 0.39483436
0.00000000 0.17167142 0.43094887
0.00000000 0.18019094 0.46635968
0.00000000 0.18858791 0.50121934
0.00000000 0.19693658 0.53563833
0.00000000 0.20528524 0.56969888
0.00000000 0.21366516 0.60346357
0.00000000 0.22209621 0.63698098
0.00000000 0.23059050 0.67028940
0.00000000 0.23915490 0.70341947
0.00000000 0.24779267 0.73639596
0.00000000 0.25650463 0.76923915
0.00000000 0.26528994 0.80196580
0.00000000 0.27414667 0.83458985
0.00000000 0.28148811 0.86137307
0.00000000 0.28841158 0.88643155
0.00000000 0.29746100 0.91891332
0.00000000 0.30789989 0.95603175
0.00000000 0.31939834 0.99652386
0.05033074 0.18678913 0.04787080
0.05035543 0.18679684 0.05830360
0.05035543 0.18679684 0.09104722
0.05035543 0.18679684 0.12236253
0.05035543 0.18679684 0.15288655
0.05035543 0.18679684 0.18272320
0.05123266 0.18707238 0.21220274
0.00451105 0.08155244 0.10741340
0.00467469 0.11360247 0.16409359
0.00210053 0.13345740 0.21005263
0.00000000 0.14761021 0.25016815
0.00000000 0.15888579 0.28650992
0.00000000 0.16836770 0.32062389
0.00000000 0.17786330 0.35777178
0.00000000 0.18677097 0.39480697
0.00000000 0.19513644 0.43092038
0.00000000 0.20317901 0.46633001
0.00000000 0.21104129 0.50118844
0.00000000 0.21881783 0.53560615
0.00000000 0.22657196 0.56966538
0.00000000 0.23434619 0.60342873
0.00000000 0.24216883 0.63694478
0.00000000 0.25005837 0.67025183
0.00000000 0.25802641 0.70338051
0.00000000 0.26607970 0.73635560
0.00000000 0.27422160 0.76919738
0.00000000 0.28245302 0.80192260
0.00000000 0.29077322 0.83454522
0.00000000 0.29768660 0.86132725
0.00000000 0.30422008 0.88638462
0.00000000 0.31277941 0.91886495
0.00000000 0.32267977 0.95598170
0.00000000 0.33361682 0.99647198
0.05135687 0.21620253 0.04892593
0.05138127 0.21620911 0.05922539
0.05138127 0.21620911 0.09169131
0.05138127 0.21620911 0.12285018
0.05138127 0.21620911 0.15327361
0.05138127 0.21620911 0.18304052
0.05138127 0.21620911 0.21222906
0.05236931 0.21647720 0.24114388
0.00467552 0.13354551 0.16406200
0.00210314 0.15555839 0.21002275
0.00000000 0.17091276 0.25013935
0.00000000 0.18274047 0.28648086
0.00000000 0.19248725 0.32059423
0.00000000 0.20205104 0.35774117
0.00000000 0.21084764 0.39477521
0.00000000 0.21897143 0.43088734
0.00000000 0.22667840 0.46629561
0.00000000 0.23413720 0.50115260
0.00000000 0.24146158 0.53556883
0.00000000 0.24872937 0.56962654
0.00000000 0.25599423 0.60338834
0.00000000 0.26329316 0.63690281
0.00000000 0.27065145 0.67020827
0.00000000 0.27808610 0.70333533
0.00000000 0.28560809 0.73630879
0.00000000 0.29322408 0.76914893
0.00000000 0.30093756 0.80187250
0.00000000 0.30874977 0.83449346
0.00000000 0.31525356 0.86127412
0.00000000 0.32141065 0.88633020
0.00000000 0.32949271 0.91880884
0.00000000 0.33886326 0.95592366
0.00000000 0.34924221 0.99641182
0.05250761 0.24499183 0.05010832
0.05253171 0.24499756 0.06026154
0.05253171 0.24499756 0.09241927
0.05253171 0.24499756 0.12340269
0.05253171 0.24499756 0.15371273
0.05253171 0.24499756 0.18340079
0.05253171 0.24499756 0.21253150
0.05253171 0.24499756 0.24116479
0.05362903 0.24526020 0.26958799
0.00210610 0.17728280 0.20998874
0.00000000 0.19387477 0.25010657
0.00000000 0.20633394 0.28644779
0.00000000 0.21643357 0.32056047
0.00000000 0.22617193 0.35770635
0.00000000 0.23497031 0.39473908
0.00000000 0.24296538 0.43084975
0.00000000 0.25044737 0.46625646
0.00000000 0.25760920 0.50111183
0.00000000 0.26458244 0.53552637
0.00000000 0.27145847 0.56958235
0.00000000 0.27830148 0.60334238
0.00000000 0.28515683 0.63685506
0.00000000 0.29205652 0.67015870
0.00000000 0.29902294 0.70328392
0.00000000 0.30607150 0.73625553
0.00000000 0.31321245 0.76909381
0.00000000 0.32045223 0.80181550
0.00000000 0.32779445 0.83443457
0.00000000 0.33391558 0.86121367
0.00000000 0.33971815 0.88626828
0.00000000 0.34734686 0.91874501
0.00000000 0.35620932 0.95585763
0.00000000 0.36604764 0.99634337
0.05377739 0.27323895 0.05141197
0.05380116 0.27324401 0.06140774
0.05380116 0.27324401 0.09322935
0.05380116 0.27324401 0.12401919
0.05380116 0.27324401 0.15420342
0.05380116 0.27324401 0.18380374
0.05380116 0.27324401 0.21286995
0.05380116 0.27324401 0.24145389
0.05380116 0.27324401 0.26960263
0.05500631 0.27350270 0.29759146
0.05649700 0.27382780 0.32522913
0.00000000 0.22965273 0.28641072
0.00000000 0.24016613 0.32052263
0.00000000 0.25015503 0.35766731
0.00000000 0.25903820 0.39469857
0.00000000 0.26698999 0.43080761
0.00000000 0.27433299 0.46621257
0.00000000 0.28128284 0.50106611
0.00000000 0.28798778 0.53547876
0.00000000 0.29455178 0.56953280
0.00000000 0.30104884 0.60329086
0.00000000 0.30753214 0.63680153
0.00000000 0.31403999 0.67010313
0.00000000 0.32060000 0.70322630
0.00000000 0.32723188 0.73619583
0.00000000 0.33394946 0.76903201
0.00000000 0.34076219 0.80175160
0.00000000 0.34767620 0.83436856
0.00000000 0.35344550 0.86114590
0.00000000 0.35891971 0.88619887
0.00000000 0.36612520 0.91867345
0.00000000 0.37450906 0.95578360
0.00000000 0.38383335 0.99626664
0.05516037 0.30100787 0.05283067
0.05518379 0.30101240 0.06265944
0.05518379 0.30101240 0.09411966
0.05518379 0.30101240 0.12469876
0.05518379 0.30101240 0.15474519
0.05518379 0.30101240 0.18424906
0.05518379 0.30101240 0.21324422
0.05518379 0.30101240 0.24177372
0.05518379 0.30101240 0.26987941
0.05518379 0.30101240 0.29759907
0.05649533 0.30126831 0.32519951
0.05809223 0.30158528 0.35248390
0.00000000 0.26366840 0.32048070
0.00000000 0.27396315 0.35762405
0.00000000 0.28299303 0.39465368
0.00000000 0.29096671 0.43076092
0.00000000 0.29823769 0.46616395
0.00000000 0.30504318 0.50101546
0.00000000 0.31154709 0.53542602
0.00000000 0.31786517 0.56947791
0.00000000 0.32408059 0.60323377
0.00000000 0.33025378 0.63674222
0.00000000 0.33642895 0.67004156
0.00000000 0.34263857 0.70316244
0.00000000 0.34890643 0.73612967
0.00000000 0.35524980 0.76896354
0.00000000 0.36168104 0.80168080
0.00000000 0.36820876 0.83429541
0.00000000 0.37365804 0.86107082
0.00000000 0.37883152 0.88612196
0.00000000 0.38564662 0.91859416
0.00000000 0.39358531 0.95570158
0.00000000 0.40242734 0.99618162
0.05665059 0.32834988 0.05435803
0.05667364 0.32835398 0.06401191
0.05667364 0.32835398 0.09508819
0.05667364 0.32835398 0.12544039
0.05667364 0.32835398 0.15533748
0.05667364 0.32835398 0.18473641
0.05667364 0.32835398 0.21365410
0.05667364 0.32835398 0.24212414
0.05667364 0.32835398 0.27018278
0.05667364 0.32835398 0.29786424
0.05667364 0.32835398 0.32519939
0.05809011 0.32860804 0.35244907
0.05978724 0.32891805 0.37941126
0.00000000 0.29757811 0.35757657
0.00000000 0.30680156 0.39460441
0.00000000 0.31484738 0.43070967
0.00000000 0.32209888 0.46611058
0.00000000 0.32881396 0.50095987
0.00000000 0.33517139 0.53536813
0.00000000 0.34129809 0.56941766
0.00000000 0.34728578 0.60317112
0.00000000 0.35320168 0.63667712
0.00000000 0.35909551 0.66997398
0.00000000 0.36500426 0.70309236
0.00000000 0.37095550 0.73605707
0.00000000 0.37696974 0.76888839
0.00000000 0.38306209 0.80160309
0.00000000 0.38924355 0.83421513
0.00000000 0.39440377 0.86098841
0.00000000 0.39930389 0.88603755
0.00000000 0.40576175 0.91850714
0.00000000 0.41328999 0.95561156
0.00000000 0.42168377 0.99608830
0.05824199 0.35530693 0.05598767
0.05826467 0.35531067 0.06546035
0.05826467 0.35531067 0.09613280
0.05826467 0.35531067 0.12624301
0.05826467 0.35531067 0.15597967
0.05826467 0.35531067 0.18526544
0.05826467 0.35531067 0.21409935
0.05826467 0.35531067 0.24250500
0.05826467 0.35531067 0.27051261
0.05826467 0.35531067 0.29815261
0.05826467 0.35531067 0.32545339
0.05826467 0.35531067 0.35244057
0.05978461 0.35556365 0.37937082
0.06184658 0.35591405 0.40992879
0.00000000 0.33044563 0.39455076
0.00000000 0.33860278 0.43065386
0.00000000 0.34587641 0.46605246
0.00000000 0.35254435 0.50089934
0.00000000 0.35879970 0.53530509
0.00000000 0.36477996 0.56935205
0.00000000 0.37058499 0.60310289
0.00000000 0.37628837 0.63660623
0.00000000 0.38194497 0.66990040
0.00000000 0.38759598 0.70301606
0.00000000 0.39327253 0.73597801
0.00000000 0.39899810 0.76880657
0.00000000 0.40479040 0.80151848
0.00000000 0.41066266 0.83412771
0.00000000 0.41556290 0.86089867
0.00000000 0.42021574 0.88594563
0.00000000 0.42634844 0.91841238
0.00000000 0.43350047 0.95551354
0.00000000 0.44148035 0.99598670
0.05992858 0.38191391 0.05771323
0.05995088 0.38191734 0.06699987
0.05995088 0.38191734 0.09725129
0.05995088 0.38191734 0.12710548
0.05995088 0.38191734 0.15667114
0.05995088 0.38191734 0.18583575
0.05995088 0.38191734 0.21457974
0.05995088 0.38191734 0.24291613
0.05995088 0.38191734 0.27086879
0.05995088 0.38191734 0.29846412
0.05995088 0.38191734 0.32572782
0.05995088 0.38191734 0.35268369
0.05995088 0.38191734 0.37935334
0.06184331 0.38221244 0.40988196
0.06411457 0.38257516 0.44135010
0.00000000 0.36221569 0.43059350
0.00000000 0.36954470 0.46598960
0.00000000 0.37620052 0.50083386
0.00000000 0.38239008 0.53523691
0.00000000 0.38826109 0.56928109
0.00000000 0.39392114 0.60302910
0.00000000 0.39944986 0.63652955
0.00000000 0.40490694 0.66982081
0.00000000 0.41033756 0.70293352
0.00000000 0.41577612 0.73589250
0.00000000 0.42124890 0.76871806
0.00000000 0.42677600 0.80142695
0.00000000 0.43237274 0.83403315
0.00000000 0.43703976 0.86080161
0.00000000 0.44146954 0.88584621
0.00000000 0.44730729 0.91830989
0.00000000 0.45411581 0.95540751
0.00000000 0.46171519 0.99587680
0.06197230 0.41203409 0.05980214
0.06199415 0.41203724 0.06887126
0.06199415 0.41203724 0.09862197
0.06199415 0.41203724 0.12816670
0.06199415 0.41203724 0.15752390
0.06199415 0.41203724 0.18654008
0.06199415 0.41203724 0.21517356
0.06199415 0.41203724 0.24342466
0.06199415 0.41203724 0.27130955
0.06199415 0.41203724 0.29884973
0.06199415 0.41203724 0.32606761
0.06199415 0.41203724 0.35298478
0.06199415 0.41203724 0.37962124
0.06199415 0.41203724 0.40984633
0.06410995 0.41234562 0.44128811
0.06652394 0.41270659 0.47275058
0.00000000 0.39653315 0.46591167
0.00000000 0.40320989 0.50075268
0.00000000 0.40936047 0.53515237
0.00000000 0.41514389 0.56919311
0.00000000 0.42067626 0.60293761
0.00000000 0.42604382 0.63643449
0.00000000 0.43131151 0.66972213
0.00000000 0.43652875 0.70283119
0.00000000 0.44173349 0.73578648
0.00000000 0.44695498 0.76860832
0.00000000 0.45221587 0.80131348
0.00000000 0.45753370 0.83391592
0.00000000 0.46196301 0.86068127
0.00000000 0.46616418 0.88572295
0.00000000 0.47169787 0.91818282
0.00000000 0.47815000 0.95527606
0.00000000 0.48535194 0.99574054
0.06421764 0.44301528 0.06209473
0.06423903 0.44301817 0.07093434
0.06423903 0.44301817 0.10014677
0.06423903 0.44301817 0.12935269
0.06423903 0.44301817 0.15847943
0.06423903 0.44301817 0.18733058
0.06423903 0.44301817 0.21584073
0.06423903 0.44301817 0.24399643
0.06423903 0.44301817 0.27180539
0.06423903 0.44301817 0.29928368
0.06423903 0.44301817 0.32645012
0.06423903 0.44301817 0.35332379
0.06423903 0.44301817 0.37992294
0.06423903 0.44301817 0.41011121
0.06423903 0.44301817 0.44123644
0.06651807 0.44333019 0.47267625
0.06906743 0.44368873 0.50413235
0.00000000 0.43119956 0.50066115
0.00000000 0.43734320 0.53505706
0.00000000 0.44307048 0.56909392
0.00000000 0.44850606 0.60283445
0.00000000 0.45374278 0.63632732
0.00000000 0.45885077 0.66961088
0.00000000 0.46388364 0.70271581
0.00000000 0.46888278 0.73566695
0.00000000 0.47388033 0.76848461
0.00000000 0.47890142 0.80118555
0.00000000 0.48396569 0.83378376
0.00000000 0.48817730 0.86054560
0.00000000 0.49216790 0.88558398
0.00000000 0.49741987 0.91803956
0.00000000 0.50353959 0.95512786
0.00000000 0.51036828 0.99558692
0.06659861 0.47395772 0.06452323
0.06661953 0.47396039 0.07312969
0.06661953 0.47396039 0.10178465
0.06661953 0.47396039 0.13063290
0.06661953 0.47396039 0.15951381
0.06661953 0.47396039 0.18818781
0.06661953 0.47396039 0.21656507
0.06661953 0.47396039 0.24461769
0.06661953 0.47396039 0.27234445
0.06661953 0.47396039 0.29975567
0.06661953 0.47396039 0.32686630
0.06661953 0.47396039 0.35369274
0.06661953 0.47396039 0.38025134
0.06661953 0.47396039 0.41039957
0.06661953 0.47396039 0.44148886
0.06661953 0.47396039 0.47260906
0.06906029 0.47427635 0.50404652
0.07173749 0.47463274 0.53549565
0.07453584 0.47501633 0.56694246
0.00000000 0.47119173 0.56898582
0.00000000 0.47656039 0.60272203
0.00000000 0.48169671 0.63621051
0.00000000 0.48667585 0.66948963
0.00000000 0.49155547 0.70259008
0.00000000 0.49638021 0.73553669
0.00000000 0.50118499 0.76834978
0.00000000 0.50599722 0.80104613
0.00000000 0.51083856 0.83363972
0.00000000 0.51485736 0.86039774
0.00000000 0.51866036 0.88543254
0.00000000 0.52365990 0.91788343
0.00000000 0.52947984 0.95496635
0.00000000 0.53596970 0.99541951
0.06910801 0.50486369 0.06708006
0.06912846 0.50486618 0.07545151
0.06912846 0.50486618 0.10353351
0.06912846 0.50486618 0.13200686
0.06912846 0.50486618 0.16062727
0.06912846 0.50486618 0.18911232
0.06912846 0.50486618 0.21734723
0.06912846 0.50486618 0.24528912
0.06912846 0.50486618 0.27292741
0.06912846 0.50486618 0.30026633
0.06912846 0.50486618 0.32731672
0.06912846 0.50486618 0.35409216
0.06912846 0.50486618 0.38060695
0.06912846 0.50486618 0.41071188
0.06912846 0.50486618 0.44176228
0.06912846 0.50486618 0.47284827
0.06912846 0.50486618 0.50396267
0.07172893 0.50518630 0.53539733
0.07452644 0.50554080 0.56683891
0.07743773 0.50592093 0.59827799
0.00000000 0.50479688 0.60260014
0.00000000 0.50985881 0.63608386
0.00000000 0.51473564 0.66935816
0.00000000 0.51948890 0.70245374
0.00000000 0.52416643 0.73539544
0.00000000 0.52880575 0.76820359
0.00000000 0.53343647 0.80089496
0.00000000 0.53808212 0.83348353
0.00000000 0.54193039 0.86023742
0.00000000 0.54556652 0.88526832
0.00000000 0.55034021 0.91771414
0.00000000 0.55589026 0.95479123
0.00000000 0.56207314 0.99523798
0.07173857 0.53573525 0.06975759
0.07175857 0.53573757 0.07789378
0.07175857 0.53573757 0.10539093
0.07175857 0.53573757 0.13347384
0.07175857 0.53573757 0.16181985
0.07175857 0.53573757 0.19010450
0.07175857 0.53573757 0.21818776
0.07175857 0.53573757 0.24601132
0.07175857 0.53573757 0.27355487
0.07175857 0.53573757 0.30081623
0.07175857 0.53573757 0.32780195
0.07175857 0.53573757 0.35452256
0.07175857 0.53573757 0.38099023
0.07175857 0.53573757 0.41104857
0.07175857 0.53573757 0.44205710
0.07175857 0.53573757 0.47310623
0.07175857 0.53573757 0.50418787
0.07175857 0.53573757 0.53529573
0.07451629 0.53606205 0.56672713
0.07742665 0.53641485 0.59816055
0.08044360 0.53679188 0.62959132
0.00000000 0.53819175 0.63594715
0.00000000 0.54298912 0.66921626
0.00000000 0.54763935 0.70230658
0.00000000 0.55219335 0.73524298
0.00000000 0.55669113 0.76804579
0.00000000 0.56116444 0.80073178
0.00000000 0.56563857 0.83331496
0.00000000 0.56933618 0.86006438
0.00000000 0.57282402 0.88509107
0.00000000 0.57739583 0.91753141
0.00000000 0.58270317 0.95460220
0.00000000 0.58860828 0.99504204
0.07448306 0.56657422 0.07254831
0.07450260 0.56657639 0.08045040
0.07450260 0.56657639 0.10735416
0.07450260 0.56657639 0.13503284
0.07450260 0.56657639 0.16309142
0.07450260 0.56657639 0.19116461
0.07450260 0.56657639 0.21908709
0.07450260 0.56657639 0.24678481
0.07450260 0.56657639 0.27422736
0.07450260 0.56657639 0.30140592
0.07450260 0.56657639 0.32832249
0.07450260 0.56657639 0.35498443
0.07450260 0.56657639 0.38140163
0.07450260 0.56657639 0.41141004
0.07450260 0.56657639 0.44237368
0.07450260 0.56657639 0.47338328
0.07450260 0.56657639 0.50442976
0.07450260 0.56657639 0.53550607
0.07450538 0.56657670 0.56660697
0.07741474 0.56690536 0.59803431
0.08043069 0.56725663 0.62945899
0.08354627 0.56763088 0.66088085
0.00000000 0.57140321 0.66906370
0.00000000 0.57597067 0.70214838
0.00000000 0.58042177 0.73507908
0.00000000 0.58479901 0.76787614
0.00000000 0.58913612 0.80055636
0.00000000 0.59346014 0.83313373
0.00000000 0.59702478 0.85987834
0.00000000 0.60038094 0.88490052
0.00000000 0.60477243 0.91733497
0.00000000 0.60986161 0.95439899
0.00000000 0.61551556 0.99483141
0.07733438 0.59738224 0.07544487
0.07735346 0.59738428 0.08311521
0.07735346 0.59738428 0.10942023
0.07735346 0.59738428 0.13668264
0.07735346 0.59738428 0.16444164
0.07735346 0.59738428 0.19229276
0.07735346 0.59738428 0.22004555
0.07735346 0.59738428 0.24761001
0.07735346 0.59738428 0.27494535
0.07735346 0.59738428 0.30203586
0.07735346 0.59738428 0.32887880
0.07735346 0.59738428 0.35547821
0.07735346 0.59738428 0.38184157
0.07735346 0.59738428 0.41179668
0.07735346 0.59738428 0.44271237
0.07735346 0.59738428 0.47367972
0.07735346 0.59738428 0.50468861
0.07735346 0.59738428 0.53573119
0.07735346 0.59738428 0.56680126
0.07740199 0.59738949 0.59789908
0.08041686 0.59771784 0.62931725
0.08353134 0.59806771 0.66073259
0.08673881 0.59843944 0.69214494
0.00000000 0.60445332 0.70197892
0.00000000 0.60881961 0.73490352
0.00000000 0.61309471 0.76769443
0.00000000 0.61731436 0.80036846
0.00000000 0.62150722 0.83293960
0.00000000 0.62495462 0.85967908
0.00000000 0.62819391 0.88469641
0.00000000 0.63242440 0.91712456
0.00000000 0.63731756 0.95418133
0.00000000 0.64274449 0.99460578
0.08028561 0.62816081 0.07844017
0.08030426 0.62816274 0.08588215
0.08030426 0.62816274 0.11158599
0.08030426 0.62816274 0.13842183
0.08030426 0.62816274 0.16587001
0.08030426 0.62816274 0.19348894
0.08030426 0.62816274 0.22106340
0.08030426 0.62816274 0.24848728
0.08030426 0.62816274 0.27570926
0.08030426 0.62816274 0.30270648
0.08030426 0.62816274 0.32947131
0.08030426 0.62816274 0.35600430
0.08030426 0.62816274 0.38231044
0.08030426 0.62816274 0.41220885
0.08030426 0.62816274 0.44307350
0.08030426 0.62816274 0.47399585
0.08030426 0.62816274 0.50496470
0.08030426 0.62816274 0.53597133
0.08030426 0.62816274 0.56700887
0.08030426 0.62816274 0.59807184
0.08040209 0.62817288 0.62916592
0.08351541 0.62850095 0.66057430
0.08672171 0.62884954 0.69197969
0.09001464 0.62921896 0.72338193
0.00000000 0.63736038 0.73471608
0.00000000 0.64154957 0.76750043
0.00000000 0.64566828 0.80016785
0.00000000 0.64974677 0.83273235
0.00000000 0.65309093 0.85946633
0.00000000 0.65622659 0.88447850
0.00000000 0.66031339 0.91689991
0.00000000 0.66503046 0.95394894
0.00000000 0.67025219 0.99436490
0.08333013 0.65891128 0.08152742
0.08334836 0.65891311 0.08874527
0.08334836 0.65891311 0.11384812
0.08334836 0.65891311 0.14024878
0.08334836 0.65891311 0.16737589
0.08334836 0.65891311 0.19475301
0.08334836 0.65891311 0.22214076
0.08334836 0.65891311 0.24941692
0.08334836 0.65891311 0.27651944
0.08334836 0.65891311 0.30341817
0.08334836 0.65891311 0.33010040
0.08334836 0.65891311 0.35656309
0.08334836 0.65891311 0.38280859
0.08334836 0.65891311 0.41264689
0.08334836 0.65891311 0.44345737
0.08334836 0.65891311 0.47433197
0.08334836 0.65891311 0.50525829
0.08334836 0.65891311 0.53622672
0.08334836 0.65891311 0.56722968
0.08334836 0.65891311 0.59826112
0.08334836 0.65891311 0.62931615
0.08349846 0.65892821 0.66040582
0.08670350 0.65925601 0.69180380
0.08999518 0.65960341 0.72319863
0.09336751 0.65997070 0.75459014
0.09681486 0.66035816 0.78597816
0.00000000 0.67417213 0.79995431
0.00000000 0.67815118 0.83251174
