luts/S9_VLog_to_m9_ccd_strong.cube
# Film Emulation LUT
# Generated by lutex.py
# Grid: 33³
TITLE "Panasonic S9 V-Log to Leica M9 CCD Strong — S9 V-Log v1"
LUT_3D_SIZE 33
DOMAIN_MIN 0.0 0.0 0.0
DOMAIN_MAX 1.0 1.0 1.0
0.00000000 0.00000000 0.00000000
0.00000000 0.00000000 0.00000000
0.00000000 0.00000000 0.00000000
0.00000000 0.00000000 0.00000000
0.00000000 0.00000000 0.00000000
0.00000000 0.00000000 0.00000000
0.00000000 0.00000000 0.00000000
0.00000000 0.00000000 0.00000000
0.00000000 0.00000000 0.00000000
0.00000000 0.00000000 0.00000000
0.00000000 0.00000000 0.00000000
0.00000000 0.00000000 0.00000000
0.00000000 0.00000000 0.00000000
0.00000000 0.00000000 0.00000000
0.00000000 0.00426317 0.21716597
0.00000000 0.01331180 0.38371126
0.00000000 0.02632467 0.52905085
0.00000000 0.04485875 0.67680918
0.00000000 0.06336586 0.81317025
0.00000000 0.08099007 0.94327226
0.00000000 0.08090930 0.94324671
0.00000000 0.08086208 0.94323179
0.00000000 0.08083542 0.94322336
0.00000000 0.08082032 0.94321859
0.00000000 0.08081165 0.94321585
0.00000000 0.08080661 0.94321425
0.00000000 0.08080364 0.94321332
0.00000000 0.08080187 0.94321276
0.00000000 0.08080082 0.94321243
0.00000000 0.08080018 0.94321222
0.00000000 0.08079980 0.94321210
0.00000000 0.08079957 0.94321203
0.00000000 0.08079942 0.94321199
0.00000000 0.00000000 0.00000000
0.00000000 0.00000000 0.00000000
0.00000000 0.00000000 0.00000000
0.00000000 0.00000000 0.00000000
0.00000000 0.00000000 0.00000000
0.00000000 0.00000000 0.00000000
0.00000000 0.00000000 0.00000000
0.00000000 0.00000000 0.00000000
0.00000000 0.00000000 0.00000000
0.00000000 0.00000000 0.00000000
0.00000000 0.00000000 0.00000000
0.00000000 0.00000000 0.00000000
0.00000000 0.00000000 0.00000000
0.00000000 0.00000000 0.00000000
0.00000000 0.00426317 0.21716597
0.00000000 0.01331180 0.38371126
0.00000000 0.02632467 0.52905085
0.00000000 0.04485875 0.67680918
0.00000000 0.06336586 0.81317025
0.00000000 0.08099007 0.94327226
0.00000000 0.08090930 0.94324671
0.00000000 0.08086208 0.94323179
0.00000000 0.08083542 0.94322336
0.00000000 0.08082032 0.94321859
0.00000000 0.08081165 0.94321585
0.00000000 0.08080661 0.94321425
0.00000000 0.08080364 0.94321332
0.00000000 0.08080187 0.94321276
0.00000000 0.08080082 0.94321243
0.00000000 0.08080018 0.94321222
0.00000000 0.08079980 0.94321210
0.00000000 0.08079957 0.94321203
0.00000000 0.08079942 0.94321199
0.00000000 0.00000000 0.00000000
0.00000000 0.00000000 0.00000000
0.00000000 0.00000000 0.00000000
0.00000000 0.00000000 0.00000000
0.00000000 0.00000000 0.00000000
0.00000000 0.00000000 0.00000000
0.00000000 0.00000000 0.00000000
0.00000000 0.00000000 0.00000000
0.00000000 0.00000000 0.00000000
0.00000000 0.00000000 0.00000000
0.00000000 0.00000000 0.00000000
0.00000000 0.00000000 0.00000000
0.00000000 0.00000000 0.00000000
0.00000000 0.00000000 0.00000000
0.00000000 0.00426317 0.21716597
0.00000000 0.01331180 0.38371126
0.00000000 0.02632467 0.52905085
0.00000000 0.04485875 0.67680918
0.00000000 0.06336586 0.81317025
0.00000000 0.08099007 0.94327226
0.00000000 0.08090930 0.94324671
0.00000000 0.08086208 0.94323179
0.00000000 0.08083542 0.94322336
0.00000000 0.08082032 0.94321859
0.00000000 0.08081165 0.94321585
0.00000000 0.08080661 0.94321425
0.00000000 0.08080364 0.94321332
0.00000000 0.08080187 0.94321276
0.00000000 0.08080082 0.94321243
0.00000000 0.08080018 0.94321222
0.00000000 0.08079980 0.94321210
0.00000000 0.08079957 0.94321203
0.00000000 0.08079942 0.94321199
0.00000000 0.00000000 0.00000000
0.00000000 0.00000000 0.00000000
0.00000000 0.00000000 0.00000000
0.00000000 0.00000000 0.00000000
0.00000000 0.00000000 0.00000000
0.00000000 0.00000000 0.00000000
0.00000000 0.00000000 0.00000000
0.00000000 0.00000000 0.00000000
0.00000000 0.00000000 0.00000000
0.00000000 0.00000000 0.00000000
0.00000000 0.00000000 0.00000000
0.00000000 0.00000000 0.00000000
0.00000000 0.00000000 0.00000000
0.00000000 0.00000000 0.00000000
0.00000000 0.00426317 0.21716597
0.00000000 0.01331180 0.38371126
0.00000000 0.02632467 0.52905085
0.00000000 0.04485875 0.67680918
0.00000000 0.06336586 0.81317025
0.00000000 0.08099007 0.94327226
0.00000000 0.08090930 0.94324671
0.00000000 0.08086208 0.94323179
0.00000000 0.08083542 0.94322336
0.00000000 0.08082032 0.94321859
0.00000000 0.08081165 0.94321585
0.00000000 0.08080661 0.94321425
0.00000000 0.08080364 0.94321332
0.00000000 0.08080187 0.94321276
0.00000000 0.08080082 0.94321243
0.00000000 0.08080018 0.94321222
0.00000000 0.08079980 0.94321210
0.00000000 0.08079957 0.94321203
0.00000000 0.08079942 0.94321199
0.00000000 0.00000000 0.00000000
0.00000000 0.00000000 0.00000000
0.00000000 0.00000000 0.00000000
0.00000000 0.00000000 0.00000000
0.00000000 0.00000000 0.00000000
0.00000000 0.00000000 0.00000000
0.00000000 0.00000000 0.00000000
0.00000000 0.00000000 0.00000000
0.00000000 0.00000000 0.00000000
0.00000000 0.00000000 0.00000000
0.00000000 0.00000000 0.00000000
0.00000000 0.00000000 0.00000000
0.00000000 0.00000000 0.00000000
0.00000000 0.00000000 0.00000000
0.00000000 0.00426317 0.21716597
0.00000000 0.01331180 0.38371126
0.00000000 0.02632467 0.52905085
0.00000000 0.04485875 0.67680918
0.00000000 0.06336586 0.81317025
0.00000000 0.08099007 0.94327226
0.00000000 0.08090930 0.94324671
0.00000000 0.08086208 0.94323179
0.00000000 0.08083542 0.94322336
0.00000000 0.08082032 0.94321859
0.00000000 0.08081165 0.94321585
0.00000000 0.08080661 0.94321425
0.00000000 0.08080364 0.94321332
0.00000000 0.08080187 0.94321276
0.00000000 0.08080082 0.94321243
0.00000000 0.08080018 0.94321222
0.00000000 0.08079980 0.94321210
0.00000000 0.08079957 0.94321203
0.00000000 0.08079942 0.94321199
0.00000000 0.00000000 0.00000000
0.00000000 0.00000000 0.00000000
0.00000000 0.00000000 0.00000000
0.00000000 0.00000000 0.00000000
0.00000000 0.00000000 0.00000000
0.00000000 0.04558916 0.02920274
0.00000000 0.00000000 0.00000000
0.00000000 0.00000000 0.00000000
0.00000000 0.00000000 0.00000000
0.00000000 0.00000000 0.00000000
0.00000000 0.00000000 0.00000000
0.00000000 0.00000000 0.00000000
0.00000000 0.00000000 0.00000000
0.00000000 0.00000000 0.00000000
0.00000000 0.00417787 0.21487249
0.00000000 0.01322095 0.38245211
0.00000000 0.02622753 0.52814574
0.00000000 0.04476271 0.67610151
0.00000000 0.06328384 0.81256606
0.00000000 0.08099033 0.94327234
0.00000000 0.08090942 0.94324675
0.00000000 0.08086213 0.94323180
0.00000000 0.08083544 0.94322337
0.00000000 0.08082033 0.94321859
0.00000000 0.08081166 0.94321585
0.00000000 0.08080661 0.94321426
0.00000000 0.08080364 0.94321332
0.00000000 0.08080187 0.94321276
0.00000000 0.08080082 0.94321243
0.00000000 0.08080018 0.94321222
0.00000000 0.08079980 0.94321210
0.00000000 0.08079957 0.94321203
0.00000000 0.08079942 0.94321199
0.00000000 0.00000000 0.00000000
0.00000000 0.00000000 0.00000000
0.00000000 0.00000000 0.00000000
0.00000000 0.00000000 0.00000000
0.00000000 0.00000000 0.00000000
0.00000000 0.00000000 0.00000000
0.00000000 0.08133494 0.06055392
0.00000000 0.07364223 0.09454873
0.00000000 0.00000000 0.00000000
0.00000000 0.00000000 0.00000000
0.00000000 0.00000000 0.00000000
0.00000000 0.00000000 0.00000000
0.00000000 0.00000000 0.00000000
0.00000000 0.00000000 0.00000000
0.00000000 0.00409207 0.21253797
0.00000000 0.01312954 0.38118029
0.00000000 0.02612978 0.52723307
0.00000000 0.04466595 0.67538843
0.00000000 0.06320140 0.81195874
0.00000000 0.08099059 0.94327242
0.00000000 0.08090954 0.94324679
0.00000000 0.08086218 0.94323182
0.00000000 0.08083547 0.94322337
0.00000000 0.08082034 0.94321859
0.00000000 0.08081166 0.94321585
0.00000000 0.08080661 0.94321426
0.00000000 0.08080364 0.94321332
0.00000000 0.08080187 0.94321276
0.00000000 0.08080082 0.94321243
0.00000000 0.08080018 0.94321222
0.00000000 0.08079980 0.94321210
0.00000000 0.08079957 0.94321203
0.00000000 0.08079942 0.94321199
0.00000000 0.00000000 0.00000000
0.00000000 0.00000000 0.00000000
0.00000000 0.00000000 0.00000000
0.00000000 0.00000000 0.00000000
0.00000000 0.00000000 0.00000000
0.00000000 0.00000000 0.00000000
0.00000000 0.00000000 0.00000000
0.00000000 0.11378822 0.08993051
0.00000000 0.10584667 0.12604818
0.00000000 0.00000000 0.00000000
0.00000000 0.00000000 0.00000000
0.00000000 0.00000000 0.00000000
0.00000000 0.00000000 0.00000000
0.00000000 0.00000000 0.00000000
0.00000000 0.00398650 0.20962647
0.00000000 0.01301707 0.37960821
0.00000000 0.02600949 0.52610711
0.00000000 0.04454666 0.67450939
0.00000000 0.06310005 0.81121214
0.00000000 0.08099091 0.94327253
0.00000000 0.08090968 0.94324683
0.00000000 0.08086225 0.94323184
0.00000000 0.08083549 0.94322338
0.00000000 0.08082035 0.94321860
0.00000000 0.08081166 0.94321585
0.00000000 0.08080661 0.94321426
0.00000000 0.08080364 0.94321332
0.00000000 0.08080187 0.94321276
0.00000000 0.08080082 0.94321243
0.00000000 0.08080018 0.94321222
0.00000000 0.08079980 0.94321210
0.00000000 0.08079957 0.94321203
0.00000000 0.08079942 0.94321199
0.00000000 0.00000000 0.00000000
0.00000000 0.00000000 0.00000000
0.00000000 0.00000000 0.00000000
0.00000000 0.00000000 0.00000000
0.00000000 0.00000000 0.00000000
0.00000000 0.00000000 0.00000000
0.00000000 0.00000000 0.00000000
0.00000000 0.00000000 0.00000000
0.00000000 0.14819767 0.12127954
0.00000000 0.13957294 0.16072335
0.00000000 0.00000000 0.00000000
0.00000000 0.00000000 0.00000000
0.00000000 0.00000000 0.00000000
0.00000000 0.00000000 0.00000000
0.00000000 0.01365288 0.20548405
0.00000000 0.01286569 0.37747974
0.00000000 0.02584755 0.52458650
0.00000000 0.04438573 0.67332348
0.00000000 0.06296382 0.81020851
0.00000000 0.08099135 0.94327266
0.00000000 0.08090988 0.94324690
0.00000000 0.08086233 0.94323186
0.00000000 0.08083553 0.94322339
0.00000000 0.08082036 0.94321860
0.00000000 0.08081167 0.94321585
0.00000000 0.08080662 0.94321426
0.00000000 0.08080364 0.94321332
0.00000000 0.08080187 0.94321276
0.00000000 0.08080082 0.94321243
0.00000000 0.08080018 0.94321222
0.00000000 0.08079980 0.94321210
0.00000000 0.08079957 0.94321203
0.00000000 0.08079942 0.94321199
0.00000000 0.00000000 0.00000000
0.00000000 0.00000000 0.00000000
0.00000000 0.00000000 0.00000000
0.00000000 0.00000000 0.00000000
0.00000000 0.00000000 0.00000000
0.00000000 0.00000000 0.00000000
0.00000000 0.00000000 0.00000000
0.00000000 0.00000000 0.00000000
0.00000000 0.00000000 0.00000000
0.00000000 0.18563225 0.15561138
0.00000000 0.17603610 0.19941452
0.00000000 0.00000000 0.00000000
0.00000000 0.00000000 0.00000000
0.00000000 0.00000000 0.00000000
0.00000000 0.03742183 0.19957080
0.00000000 0.05441753 0.37437524
0.00000000 0.02562959 0.52253105
0.00000000 0.04416850 0.67172270
0.00000000 0.06278083 0.80886043
0.00000000 0.08099194 0.94327285
0.00000000 0.08091015 0.94324698
0.00000000 0.08086244 0.94323190
0.00000000 0.08083557 0.94322341
0.00000000 0.08082038 0.94321861
0.00000000 0.08081168 0.94321586
0.00000000 0.08080662 0.94321426
0.00000000 0.08080364 0.94321332
0.00000000 0.08080188 0.94321276
0.00000000 0.08080082 0.94321243
0.00000000 0.08080018 0.94321222
0.00000000 0.08079980 0.94321210
0.00000000 0.08079957 0.94321203
0.00000000 0.08079943 0.94321199
0.00000000 0.00000000 0.00000000
0.00000000 0.00000000 0.00000000
0.00000000 0.00000000 0.00000000
0.00000000 0.00000000 0.00000000
0.00000000 0.00000000 0.00000000
0.00000000 0.00000000 0.00000000
0.00000000 0.00000000 0.00000000
0.00000000 0.00000000 0.00000000
0.00000000 0.00000000 0.00000000
0.00000000 0.00000000 0.00000000
0.00000000 0.22700145 0.19379266
0.00000000 0.21615171 0.24373624
0.00000000 0.00000000 0.00000000
0.00000000 0.00000000 0.00000000
0.00000000 0.06356590 0.19127745
0.00000000 0.10283637 0.37004145
0.00000000 0.09850383 0.51939298
0.00000000 0.05720725 0.66951141
0.00000000 0.06253530 0.80705164
0.00000000 0.08099274 0.94327310
0.00000000 0.08091051 0.94324709
0.00000000 0.08086259 0.94323195
0.00000000 0.08083564 0.94322343
0.00000000 0.08082041 0.94321862
0.00000000 0.08081169 0.94321586
0.00000000 0.08080662 0.94321426
0.00000000 0.08080365 0.94321332
0.00000000 0.08080188 0.94321276
0.00000000 0.08080082 0.94321243
0.00000000 0.08080018 0.94321222
0.00000000 0.08079980 0.94321210
0.00000000 0.08079957 0.94321203
0.00000000 0.08079943 0.94321199
0.00000000 0.00000000 0.00000000
0.00000000 0.00000000 0.00000000
0.00000000 0.00000000 0.00000000
0.00000000 0.00000000 0.00000000
0.00000000 0.00000000 0.00000000
0.00000000 0.00000000 0.00000000
0.00000000 0.00000000 0.00000000
0.00000000 0.00000000 0.00000000
0.00000000 0.00000000 0.00000000
0.00000000 0.00000000 0.00000000
0.00000000 0.00000000 0.00000000
0.00000000 0.27515676 0.23689887
0.00000000 0.26205877 0.29784455
0.00000000 0.00000000 0.00000000
0.00000000 0.08646347 0.17946669
0.00000000 0.14719735 0.36409327
0.00000000 0.15879655 0.51507277
0.00000000 0.14266986 0.66604443
0.00000000 0.09068589 0.80448721
0.00000000 0.08099382 0.94327345
0.00000000 0.08091100 0.94324725
0.00000000 0.08086280 0.94323201
0.00000000 0.08083572 0.94322345
0.00000000 0.08082045 0.94321863
0.00000000 0.08081171 0.94321587
0.00000000 0.08080663 0.94321426
0.00000000 0.08080365 0.94321332
0.00000000 0.08080188 0.94321276
0.00000000 0.08080082 0.94321243
0.00000000 0.08080018 0.94321223
0.00000000 0.08079980 0.94321210
0.00000000 0.08079957 0.94321203
0.00000000 0.08079943 0.94321199
0.01917692 0.11597095 0.00000000
0.01917692 0.11597095 0.00000000
0.01917692 0.11597095 0.00000000
0.01917692 0.11597095 0.00000000
0.01917692 0.11597095 0.00000000
0.01821643 0.11234813 0.00000000
0.01725049 0.10859059 0.00000000
0.01411378 0.10402831 0.00000000
0.00625316 0.09724990 0.00000000
0.00000000 0.08740811 0.00324740
0.00000000 0.07245470 0.01239288
0.00000000 0.04733623 0.01610183
0.00000000 0.33229513 0.28995146
0.00000000 0.31717708 0.36011719
0.00000000 0.10713838 0.16204634
0.00000000 0.19369272 0.35584511
0.00000000 0.21763546 0.50914157
0.00000000 0.21413235 0.66127948
0.00000000 0.18674354 0.80042174
0.00000000 0.11918429 0.94302615
0.00000000 0.08091166 0.94324746
0.00000000 0.08086307 0.94323210
0.00000000 0.08083584 0.94322349
0.00000000 0.08082050 0.94321864
0.00000000 0.08081173 0.94321587
0.00000000 0.08080664 0.94321427
0.00000000 0.08080365 0.94321332
0.00000000 0.08080188 0.94321276
0.00000000 0.08080082 0.94321243
0.00000000 0.08080018 0.94321223
0.00000000 0.08079980 0.94321210
0.00000000 0.08079957 0.94321203
0.00000000 0.08079943 0.94321199
0.07793688 0.27010146 0.00000000
0.07793688 0.27010146 0.00000000
0.07793688 0.27010146 0.00000000
0.07793688 0.27010146 0.00000000
0.07793688 0.27010146 0.00000000
0.07730751 0.26856105 0.00000000
0.07667015 0.26700111 0.00000000
0.07587998 0.26506718 0.00000000
0.06297002 0.26252722 0.00000000
0.02887483 0.25893984 0.00000000
0.00000000 0.25402330 0.02605465
0.00000000 0.24723878 0.08485683
0.00000000 0.23777961 0.13368455
0.00000000 0.39763418 0.35089522
0.00000000 0.38013796 0.43191345
0.00000000 0.24322934 0.34431717
0.00000000 0.28227363 0.50090925
0.00000000 0.28968083 0.65465043
0.00000000 0.27263098 0.79484111
0.00000000 0.21875622 0.94194065
0.00000000 0.11783152 0.94300975
0.00000000 0.08086345 0.94323222
0.00000000 0.08083599 0.94322354
0.00000000 0.08082056 0.94321866
0.00000000 0.08081175 0.94321588
0.00000000 0.08080665 0.94321427
0.00000000 0.08080366 0.94321332
0.00000000 0.08080188 0.94321276
0.00000000 0.08080082 0.94321243
0.00000000 0.08080018 0.94321223
0.00000000 0.08079980 0.94321210
0.00000000 0.08079957 0.94321203
0.00000000 0.08079943 0.94321199
0.12672574 0.38953311 0.00000000
0.12672574 0.38953311 0.00000000
0.12672574 0.38953311 0.00000000
0.12672574 0.38953311 0.00000000
0.12672574 0.38953311 0.00000000
0.12629769 0.38848517 0.00000000
0.12586560 0.38742733 0.00000000
0.12533187 0.38612064 0.00000000
0.12460988 0.38435308 0.00000000
0.10229172 0.38201514 0.00000000
0.05199554 0.37876017 0.00000000
0.00000000 0.37432811 0.06064295
0.00000000 0.36826847 0.14451232
0.00000000 0.35993504 0.21596402
0.00000000 0.47256230 0.42099995
0.00000000 0.45228459 0.51471682
0.00000000 0.35110517 0.48952148
0.00000000 0.37017271 0.64548319
0.00000000 0.36363531 0.78715563
0.00000000 0.31716980 0.94014649
0.00000000 0.20411637 0.94211652
0.00000000 0.11424223 0.94302078
0.00000000 0.08083621 0.94322361
0.00000000 0.08082065 0.94321869
0.00000000 0.08081179 0.94321589
0.00000000 0.08080667 0.94321427
0.00000000 0.08080366 0.94321333
0.00000000 0.08080188 0.94321276
0.00000000 0.08080082 0.94321243
0.00000000 0.08080018 0.94321223
0.00000000 0.08079980 0.94321210
0.00000000 0.08079957 0.94321203
0.00000000 0.08079943 0.94321199
0.17443432 0.50633770 0.00000000
0.17443432 0.50633770 0.00000000
0.17443432 0.50633770 0.00000000
0.17443432 0.50633770 0.00000000
0.17443432 0.50633770 0.00000000
0.17410899 0.50554117 0.00000000
0.17378097 0.50473807 0.00000000
0.17337633 0.50374739 0.00000000
0.17282994 0.50240965 0.00000000
0.16909164 0.50064556 0.00000000
0.13951649 0.49819509 0.00000000
0.07410129 0.49487324 0.00000000
0.00000000 0.49036056 0.09671462
0.00000000 0.48421021 0.20448762
0.00000000 0.47579275 0.29531980
0.00000000 0.55864172 0.50162082
0.00000000 0.53512856 0.61011977
0.00000000 0.45701324 0.63281512
0.00000000 0.46022442 0.77675937
0.00000000 0.42175838 0.93733451
0.00000000 0.29372890 0.94061725
0.00000000 0.18985132 0.94228347
0.00000000 0.11017612 0.94304122
0.00000000 0.08082077 0.94321873
0.00000000 0.08081184 0.94321591
0.00000000 0.08080669 0.94321428
0.00000000 0.08080367 0.94321333
0.00000000 0.08080189 0.94321276
0.00000000 0.08080082 0.94321243
0.00000000 0.08080019 0.94321223
0.00000000 0.08079980 0.94321210
0.00000000 0.08079957 0.94321203
0.00000000 0.08079943 0.94321199
0.22464124 0.62925959 0.00000000
0.22464124 0.62925959 0.00000000
0.22464124 0.62925959 0.00000000
0.22464124 0.62925959 0.00000000
0.22464124 0.62925959 0.00000000
0.22438178 0.62862437 0.00000000
0.22412034 0.62798429 0.00000000
0.22379805 0.62719523 0.00000000
0.22336322 0.62613067 0.00000000
0.22277627 0.62469364 0.00000000
0.21516460 0.62278640 0.00000000
0.17862100 0.62015453 0.00000000
0.09810143 0.61658954 0.00000000
0.00000000 0.61175069 0.13964674
0.00000000 0.60516633 0.26758754
0.00000000 0.59617491 0.37827411
0.00000000 0.65762910 0.59414727
0.00000000 0.63037406 0.71976040
0.00000000 0.56515749 0.76285481
0.00000000 0.53691599 0.93301827
0.00000000 0.38905530 0.93829277
0.00000000 0.26983939 0.94106240
0.00000000 0.17684014 0.94242872
0.00000000 0.10627604 0.94306337
0.00000000 0.08081191 0.94321593
0.00000000 0.08080672 0.94321429
0.00000000 0.08080369 0.94321333
0.00000000 0.08080190 0.94321277
0.00000000 0.08080083 0.94321243
0.00000000 0.08080019 0.94321223
0.00000000 0.08079980 0.94321210
0.00000000 0.08079957 0.94321203
0.00000000 0.08079943 0.94321199
0.27881349 0.76188430 0.00000000
0.27881349 0.76188430 0.00000000
0.27881349 0.76188430 0.00000000
0.27881349 0.76188430 0.00000000
0.27881349 0.76188430 0.00000000
0.27876395 0.76176302 0.00000000
0.27872182 0.76165987 0.00000000
0.27866004 0.76150863 0.00000000
0.27830489 0.76063918 0.00000000
0.27782581 0.75946633 0.00000000
0.27717923 0.75788340 0.00000000
0.26540723 0.75577209 0.00000000
0.22181340 0.75287121 0.00000000
0.12133738 0.74894253 0.00000000
0.00000000 0.74361199 0.18553370
0.00000000 0.73636428 0.33569536
0.00000000 0.72647816 0.46777244
0.00000000 0.77148866 0.69989076
0.00000000 0.74059385 0.82899315
0.00000000 0.66779504 0.92635771
0.00000000 0.49492686 0.93472032
0.00000000 0.35599484 0.93917314
0.00000000 0.24843820 0.94142780
0.00000000 0.16544592 0.94254907
0.00000000 0.10320690 0.94308124
0.00000000 0.08080676 0.94321430
0.00000000 0.08080371 0.94321334
0.00000000 0.08080190 0.94321277
0.00000000 0.08080083 0.94321243
0.00000000 0.08080019 0.94321223
0.00000000 0.08079980 0.94321210
0.00000000 0.08079957 0.94321203
0.00000000 0.08079943 0.94321199
0.33563467 0.90098994 0.00000000
0.33563467 0.90098994 0.00000000
0.33563467 0.90098994 0.00000000
0.33563467 0.90098994 0.00000000
0.33563467 0.90098994 0.00000000
0.33541180 0.90044433 0.00000000
0.33518757 0.89989539 0.00000000
0.33491163 0.89921985 0.00000000
0.33454017 0.89831049 0.00000000
0.33404027 0.89708669 0.00000000
0.33336775 0.89544031 0.00000000
0.33246347 0.89322653 0.00000000
0.31580032 0.89028397 0.00000000
0.26319208 0.88630882 0.00000000
0.12827828 0.88098650 0.00000000
0.00000000 0.87387506 0.24505658
0.00000000 0.86440580 0.41588668
0.00000000 0.85187134 0.56987745
0.00000000 0.88375800 0.81171966
0.00000000 0.83909225 0.98481280
0.00000000 0.60394391 0.92982412
0.00000000 0.45060666 0.93633297
0.00000000 0.32647084 0.93988243
0.00000000 0.22983353 0.94171933
0.00000000 0.15553356 0.94264813
0.00000000 0.10057626 0.94309690
0.00000000 0.08080373 0.94321335
0.00000000 0.08080191 0.94321277
0.00000000 0.08080084 0.94321243
0.00000000 0.08080019 0.94321223
0.00000000 0.08079980 0.94321210
0.00000000 0.08079957 0.94321203
0.00000000 0.08079943 0.94321199
0.36028159 0.96138473 0.00000000
0.36028159 0.96138473 0.00000000
0.36028159 0.96138473 0.00000000
0.36028159 0.96138473 0.00000000
0.36028159 0.96138473 0.00000000
0.36028167 0.96138477 0.00000000
0.36028174 0.96138482 0.00000000
0.36028184 0.96138487 0.00000000
0.36028196 0.96138495 0.00000000
0.36028214 0.96138505 0.00000000
0.36028237 0.96138519 0.00000000
0.36028268 0.96138537 0.00000000
0.36028311 0.96138562 0.00000000
0.34423430 0.96141087 0.00000000
0.29592027 0.96143136 0.00000000
0.17812406 0.96146646 0.00000000
0.00000000 0.96152193 0.23180965
0.00000000 0.96160851 0.42919197
0.00000000 0.96174397 0.60723689
0.06681228 1.00000000 0.88905376
0.00000000 0.83710635 0.98603579
0.00000000 0.56361516 0.93176976
0.00000000 0.40904235 0.93767511
0.00000000 0.29397113 0.94058165
0.00000000 0.21367087 0.94195289
0.00000000 0.14687715 0.94273014
0.00000000 0.09820591 0.94311118
0.00000000 0.08080193 0.94321278
0.00000000 0.08080084 0.94321243
0.00000000 0.08080019 0.94321223
0.00000000 0.08079980 0.94321211
0.00000000 0.08079957 0.94321203
0.00000000 0.08079943 0.94321199
0.36025220 0.96136746 0.00000000
0.36025220 0.96136746 0.00000000
0.36025220 0.96136746 0.00000000
0.36025220 0.96136746 0.00000000
0.36025220 0.96136746 0.00000000
0.36025223 0.96136748 0.00000000
0.36025227 0.96136750 0.00000000
0.36025231 0.96136753 0.00000000
0.36025237 0.96136756 0.00000000
0.36025244 0.96136761 0.00000000
0.36025255 0.96136767 0.00000000
0.36025269 0.96136775 0.00000000
0.36025288 0.96136786 0.00000000
0.36025314 0.96136801 0.00000000
0.34588794 0.96138517 0.00000000
0.30463403 0.96140284 0.00000000
0.21330849 0.96143268 0.00000000
0.00000000 0.96147985 0.16421300
0.00000000 0.96155361 0.37744904
0.00000000 0.96166096 0.54217362
0.06631222 1.00000000 0.89152177
0.00000000 0.75395063 0.92098376
0.00000000 0.55250111 0.93226839
0.00000000 0.39999209 0.93794196
0.00000000 0.28369046 0.94078312
0.00000000 0.19657812 0.94218037
0.00000000 0.13927063 0.94279865
0.00000000 0.09608786 0.94312396
0.00000000 0.08080085 0.94321244
0.00000000 0.08080020 0.94321223
0.00000000 0.08079980 0.94321211
0.00000000 0.08079957 0.94321203
0.00000000 0.08079943 0.94321199
0.36023487 0.96135728 0.00000000
0.36023487 0.96135728 0.00000000
0.36023487 0.96135728 0.00000000
0.36023487 0.96135728 0.00000000
0.36023487 0.96135728 0.00000000
0.36023488 0.96135729 0.00000000
0.36023490 0.96135730 0.00000000
0.36023491 0.96135731 0.00000000
0.36023494 0.96135732 0.00000000
0.36023497 0.96135734 0.00000000
0.36023502 0.96135737 0.00000000
0.36023508 0.96135740 0.00000000
0.36023516 0.96135745 0.00000000
0.36023527 0.96135752 0.00000000
0.36023542 0.96135760 0.00000000
0.34773738 0.96136957 0.00000000
0.31267598 0.96138474 0.00000000
0.24059594 0.96141000 0.00000000
0.00000000 0.96144990 0.05273294
0.00000000 0.96150538 0.30469832
0.00000000 0.96163943 0.53582051
0.06624197 1.00000000 0.90144339
0.00000000 0.74689168 0.92125454
0.00000000 0.55027204 0.93236285
0.00000000 0.40004932 0.93793706
0.00000000 0.28376294 0.94077993
0.00000000 0.19422459 0.94220927
0.00000000 0.13058240 0.94287290
