luts/S9_VLog_to_5219.cube
# Film Emulation LUT
# Generated by lutex.py
# Grid: 17³
TITLE "Panasonic S9 V-Log to Kodak Vision3 5219 (500T)"
LUT_3D_SIZE 5
DOMAIN_MIN 0.0 0.0 0.0
DOMAIN_MAX 1.0 1.0 1.0
0.00000007 0.00000008 0.00000006
0.00000007 0.00000008 0.00000006
0.00000007 0.00000008 0.00000006
0.01603454 0.03046558 0.16638417
0.23665820 0.32608471 0.93969098
0.00000007 0.00000008 0.00000006
0.00000007 0.00000008 0.00000006
0.00000007 0.00000008 0.00000006
0.01603454 0.03046558 0.16638417
0.23665820 0.32608471 0.93969098
0.00000007 0.00000008 0.00000006
0.00000007 0.00000008 0.00000006
0.00000007 0.00000008 0.00000006
0.01603454 0.03046558 0.16638417
0.23665820 0.32608471 0.93969098
0.01080508 0.13280957 0.01080507
0.01080508 0.13280957 0.01080507
0.01080508 0.13280957 0.01080507
0.01310792 0.11817582 0.14855353
0.23483274 0.32369953 0.93346528
0.17260123 0.72122670 0.17260123
0.17260123 0.72122670 0.17260123
0.17260123 0.72122670 0.17260123
0.17152980 0.71757259 0.17152979
0.21127991 0.70897318 0.85313911
0.00000007 0.00000008 0.00000006
0.00000007 0.00000008 0.00000006
0.00000007 0.00000008 0.00000006
0.01603454 0.03046558 0.16638417
0.23665820 0.32608471 0.93969098
0.00000007 0.00000008 0.00000006
0.00000007 0.00000008 0.00000006
0.00000007 0.00000008 0.00000006
0.01603454 0.03046558 0.16638417
0.23665820 0.32608471 0.93969098
0.00000007 0.00000008 0.00000006
0.00000007 0.00000008 0.00000006
0.00000007 0.00000008 0.00000006
0.01603454 0.03046558 0.16638417
0.23665820 0.32608471 0.93969098
0.01080508 0.13280957 0.01080507
0.01080508 0.13280957 0.01080507
0.01080508 0.13280957 0.01080507
0.01310792 0.11817582 0.14855353
0.23483274 0.32369953 0.93346528
0.17260123 0.72122670 0.17260123
0.17260123 0.72122670 0.17260123
0.17260123 0.72122670 0.17260123
0.17152980 0.71757259 0.17152979
0.21127991 0.70897318 0.85313911
0.00000007 0.00000008 0.00000006
0.00000007 0.00000008 0.00000006
0.00000007 0.00000008 0.00000006
0.01603454 0.03046558 0.16638417
0.23665820 0.32608471 0.93969098
0.00000007 0.00000008 0.00000006
0.00000007 0.00000008 0.00000006
0.00000007 0.00000008 0.00000006
0.01603454 0.03046558 0.16638417
0.23665820 0.32608471 0.93969098
0.00000007 0.00000008 0.00000006
0.00000007 0.00000008 0.00000006
0.00000007 0.00000008 0.00000006
0.01603454 0.03046558 0.16638417
0.23665820 0.32608471 0.93969098
0.01080508 0.13280957 0.01080507
0.01080508 0.13280957 0.01080507
0.01080508 0.13280957 0.01080507
0.01310792 0.11817582 0.14855353
0.23483274 0.32369953 0.93346528
0.17260123 0.72122670 0.17260123
0.17260123 0.72122670 0.17260123
0.17260123 0.72122670 0.17260123
0.17152980 0.71757259 0.17152979
0.21127991 0.70897318 0.85313911
0.18790365 0.03205278 0.02003299
0.18790365 0.03205278 0.02003299
0.18790365 0.03205278 0.02003299
0.17923101 0.01835910 0.16438481
0.23635449 0.31862740 0.93865517
0.18790365 0.03205278 0.02003299
0.18790365 0.03205278 0.02003299
0.18790365 0.03205278 0.02003299
0.17923101 0.01835910 0.16438481
0.23635449 0.31862740 0.93865517
0.18790365 0.03205278 0.02003299
0.18790365 0.03205278 0.02003299
0.18790365 0.03205278 0.02003299
0.17923101 0.01835910 0.16438481
0.23635449 0.31862740 0.93865517
0.12873671 0.11917471 0.01025122
0.12873671 0.11917471 0.01025122
0.12873671 0.11917471 0.01025122
0.12080907 0.11240900 0.14814433
0.23453411 0.32330933 0.93244681
0.17125927 0.71664997 0.17125927
0.17125927 0.71664997 0.17125927
0.17125927 0.71664997 0.17125927
0.17018287 0.71297895 0.17018287
0.21099956 0.70458608 0.85218299
0.97769156 0.31330417 0.24780054
0.97769156 0.31330417 0.24780054
0.97769156 0.31330417 0.24780054
0.97476857 0.28340610 0.24694348
0.94083529 0.23699374 0.92331932
0.97769156 0.31330417 0.24780054
0.97769156 0.31330417 0.24780054
0.97769156 0.31330417 0.24780054
0.97476857 0.28340610 0.24694348
0.94083529 0.23699374 0.92331932
0.97769156 0.31330417 0.24780054
0.97769156 0.31330417 0.24780054
0.97769156 0.31330417 0.24780054
0.97476857 0.28340610 0.24694348
0.94083529 0.23699374 0.92331932
0.95924826 0.30672646 0.24239269
0.95924826 0.30672646 0.24239269
0.95924826 0.30672646 0.24239269
0.95628577 0.28360030 0.24152405
0.92187889 0.23143544 0.91658721
0.72626085 0.66617357 0.17407732
0.72626085 0.66617357 0.17407732
0.72626085 0.66617357 0.17407732
0.72266221 0.66230632 0.17302214
0.69117984 0.64161925 0.84869569
