luts/S9_VLog_to_c200.cube
# Film Emulation LUT
# Generated by lutex.py
# Grid: 33³
TITLE "Panasonic S9 V-Log to Fujifilm Fujicolor C200 (Japan)"
LUT_3D_SIZE 9
DOMAIN_MIN 0.0 0.0 0.0
DOMAIN_MAX 1.0 1.0 1.0
0.00000071 0.00000060 0.00000065
0.00000071 0.00000060 0.00000065
0.00000071 0.00000060 0.00000065
0.00000071 0.00000060 0.00000065
0.00000071 0.00000060 0.00000065
0.00000000 0.00000000 0.00000000
0.00000004 0.00000000 0.10008184
0.00000009 0.00000000 0.37789828
0.00000010 0.00000000 0.77283698
0.00000071 0.00000060 0.00000065
0.00000071 0.00000060 0.00000065
0.00000071 0.00000060 0.00000065
0.00000071 0.00000060 0.00000065
0.00000071 0.00000060 0.00000065
0.00000000 0.00000000 0.00000000
0.00000004 0.00000000 0.10008184
0.00000009 0.00000000 0.37789828
0.00000010 0.00000000 0.77283698
0.00000071 0.00000060 0.00000065
0.00000071 0.00000060 0.00000065
0.00000071 0.00000060 0.00000065
0.00000071 0.00000060 0.00000065
0.00000071 0.00000060 0.00000065
0.00000000 0.00000000 0.00000000
0.00000004 0.00000000 0.10008184
0.00000009 0.00000000 0.37789828
0.00000010 0.00000000 0.77283698
0.00000071 0.00000060 0.00000065
0.00000071 0.00000060 0.00000065
0.00000071 0.00000060 0.00000065
0.00000071 0.00000060 0.00000065
0.00000071 0.00000060 0.00000065
0.00000000 0.00000000 0.00000000
0.00000004 0.00000000 0.10008184
0.00000009 0.00000000 0.37789828
0.00000010 0.00000000 0.77283698
0.00000071 0.00000060 0.00000065
0.00000071 0.00000060 0.00000065
0.00000071 0.00000060 0.00000065
0.00000071 0.00000060 0.00000065
0.00000071 0.00000060 0.00000065
0.00000000 0.00000000 0.00000000
0.00000004 0.00000000 0.10008184
0.00000009 0.00000000 0.37789828
0.00000010 0.00000000 0.77283698
0.00000000 0.23640777 0.09402628
0.00000000 0.23640777 0.09402628
0.00000000 0.23640777 0.09402628
0.00000000 0.23640777 0.09402628
0.00000000 0.23640777 0.09402628
0.00000000 0.06013829 0.04626195
0.00000000 0.00873116 0.09433206
0.00000009 0.00000000 0.37621984
0.00000010 0.00000000 0.77199937
0.00000000 0.31535504 0.13440030
0.00000000 0.31535504 0.13440030
0.00000000 0.31535504 0.13440030
0.00000000 0.31535504 0.13440030
0.00000000 0.31535504 0.13440030
0.00000000 0.31350664 0.14348978
0.00000000 0.20911199 0.17381114
0.00000000 0.15004052 0.36921696
0.00000010 0.00000000 0.76841065
0.00000000 0.52147789 0.23981199
0.00000000 0.52147789 0.23981199
0.00000000 0.52147789 0.23981199
0.00000000 0.52147789 0.23981199
0.00000000 0.52147789 0.23981199
0.00000000 0.52019416 0.23915548
0.00000000 0.51468156 0.27761079
0.00000000 0.44984958 0.37807105
0.00000000 0.36770623 0.75857590
0.00000000 0.94567968 0.45674968
0.00000000 0.94567968 0.45674968
0.00000000 0.94567968 0.45674968
0.00000000 0.94567968 0.45674968
0.00000000 0.94567968 0.45674968
0.00000000 0.94492601 0.45636425
0.00000000 0.94169962 0.45471427
0.00000000 0.93100183 0.53252088
0.00000000 0.87425504 0.74054653
0.00000071 0.00000060 0.00000065
0.00000071 0.00000060 0.00000065
0.00000071 0.00000060 0.00000065
0.00000071 0.00000060 0.00000065
0.00000071 0.00000060 0.00000065
0.00000000 0.00000000 0.00000000
0.00000004 0.00000000 0.10008184
0.00000009 0.00000000 0.37789828
0.00000010 0.00000000 0.77283698
0.00000071 0.00000060 0.00000065
0.00000071 0.00000060 0.00000065
0.00000071 0.00000060 0.00000065
0.00000071 0.00000060 0.00000065
0.00000071 0.00000060 0.00000065
0.00000000 0.00000000 0.00000000
0.00000004 0.00000000 0.10008184
0.00000009 0.00000000 0.37789828
0.00000010 0.00000000 0.77283698
0.00000071 0.00000060 0.00000065
0.00000071 0.00000060 0.00000065
0.00000071 0.00000060 0.00000065
0.00000071 0.00000060 0.00000065
0.00000071 0.00000060 0.00000065
0.00000000 0.00000000 0.00000000
0.00000004 0.00000000 0.10008184
0.00000009 0.00000000 0.37789828
0.00000010 0.00000000 0.77283698
0.00000071 0.00000060 0.00000065
0.00000071 0.00000060 0.00000065
0.00000071 0.00000060 0.00000065
0.00000071 0.00000060 0.00000065
0.00000071 0.00000060 0.00000065
0.00000000 0.00000000 0.00000000
0.00000004 0.00000000 0.10008184
0.00000009 0.00000000 0.37789828
0.00000010 0.00000000 0.77283698
0.00000071 0.00000060 0.00000065
0.00000071 0.00000060 0.00000065
0.00000071 0.00000060 0.00000065
0.00000071 0.00000060 0.00000065
0.00000071 0.00000060 0.00000065
0.00000000 0.00000000 0.00000000
0.00000004 0.00000000 0.10008184
0.00000009 0.00000000 0.37789828
0.00000010 0.00000000 0.77283698
0.00000000 0.23640777 0.09402628
0.00000000 0.23640777 0.09402628
0.00000000 0.23640777 0.09402628
0.00000000 0.23640777 0.09402628
0.00000000 0.23640777 0.09402628
0.00000000 0.06013829 0.04626195
0.00000000 0.00873116 0.09433206
0.00000009 0.00000000 0.37621984
0.00000010 0.00000000 0.77199937
0.00000000 0.31535504 0.13440030
0.00000000 0.31535504 0.13440030
0.00000000 0.31535504 0.13440030
0.00000000 0.31535504 0.13440030
0.00000000 0.31535504 0.13440030
0.00000000 0.31350664 0.14348978
0.00000000 0.20911199 0.17381114
0.00000000 0.15004052 0.36921696
0.00000010 0.00000000 0.76841065
0.00000000 0.52147789 0.23981199
0.00000000 0.52147789 0.23981199
0.00000000 0.52147789 0.23981199
0.00000000 0.52147789 0.23981199
0.00000000 0.52147789 0.23981199
0.00000000 0.52019416 0.23915548
0.00000000 0.51468156 0.27761079
0.00000000 0.44984958 0.37807105
0.00000000 0.36770623 0.75857590
0.00000000 0.94567968 0.45674968
0.00000000 0.94567968 0.45674968
0.00000000 0.94567968 0.45674968
0.00000000 0.94567968 0.45674968
0.00000000 0.94567968 0.45674968
0.00000000 0.94492601 0.45636425
0.00000000 0.94169962 0.45471427
0.00000000 0.93100183 0.53252088
0.00000000 0.87425504 0.74054653
0.00000071 0.00000060 0.00000065
0.00000071 0.00000060 0.00000065
0.00000071 0.00000060 0.00000065
0.00000071 0.00000060 0.00000065
0.00000071 0.00000060 0.00000065
0.00000000 0.00000000 0.00000000
0.00000004 0.00000000 0.10008184
0.00000009 0.00000000 0.37789828
0.00000010 0.00000000 0.77283698
0.00000071 0.00000060 0.00000065
0.00000071 0.00000060 0.00000065
0.00000071 0.00000060 0.00000065
0.00000071 0.00000060 0.00000065
0.00000071 0.00000060 0.00000065
0.00000000 0.00000000 0.00000000
0.00000004 0.00000000 0.10008184
0.00000009 0.00000000 0.37789828
0.00000010 0.00000000 0.77283698
0.00000071 0.00000060 0.00000065
0.00000071 0.00000060 0.00000065
0.00000071 0.00000060 0.00000065
0.00000071 0.00000060 0.00000065
0.00000071 0.00000060 0.00000065
0.00000000 0.00000000 0.00000000
0.00000004 0.00000000 0.10008184
0.00000009 0.00000000 0.37789828
0.00000010 0.00000000 0.77283698
0.00000071 0.00000060 0.00000065
0.00000071 0.00000060 0.00000065
0.00000071 0.00000060 0.00000065
0.00000071 0.00000060 0.00000065
0.00000071 0.00000060 0.00000065
0.00000000 0.00000000 0.00000000
0.00000004 0.00000000 0.10008184
0.00000009 0.00000000 0.37789828
0.00000010 0.00000000 0.77283698
0.00000071 0.00000060 0.00000065
0.00000071 0.00000060 0.00000065
0.00000071 0.00000060 0.00000065
0.00000071 0.00000060 0.00000065
0.00000071 0.00000060 0.00000065
0.00000000 0.00000000 0.00000000
0.00000004 0.00000000 0.10008184
0.00000009 0.00000000 0.37789828
0.00000010 0.00000000 0.77283698
0.00000000 0.23640777 0.09402628
0.00000000 0.23640777 0.09402628
0.00000000 0.23640777 0.09402628
0.00000000 0.23640777 0.09402628
0.00000000 0.23640777 0.09402628
0.00000000 0.06013829 0.04626195
0.00000000 0.00873116 0.09433206
0.00000009 0.00000000 0.37621984
0.00000010 0.00000000 0.77199937
0.00000000 0.31535504 0.13440030
0.00000000 0.31535504 0.13440030
0.00000000 0.31535504 0.13440030
0.00000000 0.31535504 0.13440030
0.00000000 0.31535504 0.13440030
0.00000000 0.31350664 0.14348978
0.00000000 0.20911199 0.17381114
0.00000000 0.15004052 0.36921696
0.00000010 0.00000000 0.76841065
0.00000000 0.52147789 0.23981199
0.00000000 0.52147789 0.23981199
0.00000000 0.52147789 0.23981199
0.00000000 0.52147789 0.23981199
0.00000000 0.52147789 0.23981199
0.00000000 0.52019416 0.23915548
0.00000000 0.51468156 0.27761079
0.00000000 0.44984958 0.37807105
0.00000000 0.36770623 0.75857590
0.00000000 0.94567968 0.45674968
0.00000000 0.94567968 0.45674968
0.00000000 0.94567968 0.45674968
0.00000000 0.94567968 0.45674968
0.00000000 0.94567968 0.45674968
0.00000000 0.94492601 0.45636425
0.00000000 0.94169962 0.45471427
0.00000000 0.93100183 0.53252088
0.00000000 0.87425504 0.74054653
0.00000071 0.00000060 0.00000065
0.00000071 0.00000060 0.00000065
0.00000071 0.00000060 0.00000065
0.00000071 0.00000060 0.00000065
0.00000071 0.00000060 0.00000065
0.00000000 0.00000000 0.00000000
0.00000004 0.00000000 0.10008184
0.00000009 0.00000000 0.37789828
0.00000010 0.00000000 0.77283698
0.00000071 0.00000060 0.00000065
0.00000071 0.00000060 0.00000065
0.00000071 0.00000060 0.00000065
0.00000071 0.00000060 0.00000065
0.00000071 0.00000060 0.00000065
0.00000000 0.00000000 0.00000000
0.00000004 0.00000000 0.10008184
0.00000009 0.00000000 0.37789828
0.00000010 0.00000000 0.77283698
0.00000071 0.00000060 0.00000065
0.00000071 0.00000060 0.00000065
0.00000071 0.00000060 0.00000065
0.00000071 0.00000060 0.00000065
0.00000071 0.00000060 0.00000065
0.00000000 0.00000000 0.00000000
0.00000004 0.00000000 0.10008184
0.00000009 0.00000000 0.37789828
0.00000010 0.00000000 0.77283698
0.00000071 0.00000060 0.00000065
0.00000071 0.00000060 0.00000065
0.00000071 0.00000060 0.00000065
0.00000071 0.00000060 0.00000065
0.00000071 0.00000060 0.00000065
0.00000000 0.00000000 0.00000000
0.00000004 0.00000000 0.10008184
0.00000009 0.00000000 0.37789828
0.00000010 0.00000000 0.77283698
0.00000071 0.00000060 0.00000065
0.00000071 0.00000060 0.00000065
0.00000071 0.00000060 0.00000065
0.00000071 0.00000060 0.00000065
0.00000071 0.00000060 0.00000065
0.00000000 0.00000000 0.00000000
0.00000004 0.00000000 0.10008184
0.00000009 0.00000000 0.37789828
0.00000010 0.00000000 0.77283698
0.00000000 0.23640777 0.09402628
0.00000000 0.23640777 0.09402628
0.00000000 0.23640777 0.09402628
0.00000000 0.23640777 0.09402628
0.00000000 0.23640777 0.09402628
0.00000000 0.06013829 0.04626195
0.00000000 0.00873116 0.09433206
0.00000009 0.00000000 0.37621984
0.00000010 0.00000000 0.77199937
0.00000000 0.31535504 0.13440030
0.00000000 0.31535504 0.13440030
0.00000000 0.31535504 0.13440030
0.00000000 0.31535504 0.13440030
0.00000000 0.31535504 0.13440030
0.00000000 0.31350664 0.14348978
0.00000000 0.20911199 0.17381114
0.00000000 0.15004052 0.36921696
0.00000010 0.00000000 0.76841065
0.00000000 0.52147789 0.23981199
0.00000000 0.52147789 0.23981199
0.00000000 0.52147789 0.23981199
0.00000000 0.52147789 0.23981199
0.00000000 0.52147789 0.23981199
0.00000000 0.52019416 0.23915548
0.00000000 0.51468156 0.27761079
0.00000000 0.44984958 0.37807105
0.00000000 0.36770623 0.75857590
0.00000000 0.94567968 0.45674968
0.00000000 0.94567968 0.45674968
0.00000000 0.94567968 0.45674968
0.00000000 0.94567968 0.45674968
0.00000000 0.94567968 0.45674968
0.00000000 0.94492601 0.45636425
0.00000000 0.94169962 0.45471427
0.00000000 0.93100183 0.53252088
0.00000000 0.87425504 0.74054653
0.00000071 0.00000060 0.00000065
0.00000071 0.00000060 0.00000065
0.00000071 0.00000060 0.00000065
0.00000071 0.00000060 0.00000065
0.00000071 0.00000060 0.00000065
0.00000000 0.00000000 0.00000000
0.00000004 0.00000000 0.10008184
0.00000009 0.00000000 0.37789828
0.00000010 0.00000000 0.77283698
0.00000071 0.00000060 0.00000065
0.00000071 0.00000060 0.00000065
0.00000071 0.00000060 0.00000065
0.00000071 0.00000060 0.00000065
0.00000071 0.00000060 0.00000065
0.00000000 0.00000000 0.00000000
0.00000004 0.00000000 0.10008184
0.00000009 0.00000000 0.37789828
0.00000010 0.00000000 0.77283698
0.00000071 0.00000060 0.00000065
0.00000071 0.00000060 0.00000065
0.00000071 0.00000060 0.00000065
0.00000071 0.00000060 0.00000065
0.00000071 0.00000060 0.00000065
0.00000000 0.00000000 0.00000000
0.00000004 0.00000000 0.10008184
0.00000009 0.00000000 0.37789828
0.00000010 0.00000000 0.77283698
0.00000071 0.00000060 0.00000065
0.00000071 0.00000060 0.00000065
0.00000071 0.00000060 0.00000065
0.00000071 0.00000060 0.00000065
0.00000071 0.00000060 0.00000065
0.00000000 0.00000000 0.00000000
0.00000004 0.00000000 0.10008184
0.00000009 0.00000000 0.37789828
0.00000010 0.00000000 0.77283698
0.00000071 0.00000060 0.00000065
0.00000071 0.00000060 0.00000065
0.00000071 0.00000060 0.00000065
0.00000071 0.00000060 0.00000065
0.00000071 0.00000060 0.00000065
0.00000000 0.00000000 0.00000000
0.00000004 0.00000000 0.10008184
0.00000009 0.00000000 0.37789828
0.00000010 0.00000000 0.77283698
0.00000000 0.23640777 0.09402628
0.00000000 0.23640777 0.09402628
0.00000000 0.23640777 0.09402628
0.00000000 0.23640777 0.09402628
0.00000000 0.23640777 0.09402628
0.00000000 0.06013829 0.04626195
0.00000000 0.00873116 0.09433206
0.00000009 0.00000000 0.37621984
0.00000010 0.00000000 0.77199937
0.00000000 0.31535504 0.13440030
0.00000000 0.31535504 0.13440030
0.00000000 0.31535504 0.13440030
0.00000000 0.31535504 0.13440030
0.00000000 0.31535504 0.13440030
0.00000000 0.31350664 0.14348978
0.00000000 0.20911199 0.17381114
0.00000000 0.15004052 0.36921696
0.00000010 0.00000000 0.76841065
0.00000000 0.52147789 0.23981199
0.00000000 0.52147789 0.23981199
0.00000000 0.52147789 0.23981199
0.00000000 0.52147789 0.23981199
0.00000000 0.52147789 0.23981199
0.00000000 0.52019416 0.23915548
0.00000000 0.51468156 0.27761079
0.00000000 0.44984958 0.37807105
0.00000000 0.36770623 0.75857590
0.00000000 0.94567968 0.45674968
0.00000000 0.94567968 0.45674968
0.00000000 0.94567968 0.45674968
0.00000000 0.94567968 0.45674968
0.00000000 0.94567968 0.45674968
0.00000000 0.94492601 0.45636425
0.00000000 0.94169962 0.45471427
0.00000000 0.93100183 0.53252088
0.00000000 0.87425504 0.74054653
0.08383571 0.00662774 0.00000000
0.08383571 0.00662774 0.00000000
0.08383571 0.00662774 0.00000000
0.08383571 0.00662774 0.00000000
0.08383571 0.00662774 0.00000000
0.07959013 0.00000000 0.05234045
0.02076325 0.00000000 0.09917286
0.00000009 0.00000000 0.37762488
0.00000010 0.00000000 0.77270036
0.08383571 0.00662774 0.00000000
0.08383571 0.00662774 0.00000000
0.08383571 0.00662774 0.00000000
0.08383571 0.00662774 0.00000000
0.08383571 0.00662774 0.00000000
0.07959013 0.00000000 0.05234045
0.02076325 0.00000000 0.09917286
0.00000009 0.00000000 0.37762488
0.00000010 0.00000000 0.77270036
0.08383571 0.00662774 0.00000000
0.08383571 0.00662774 0.00000000
0.08383571 0.00662774 0.00000000
0.08383571 0.00662774 0.00000000
0.08383571 0.00662774 0.00000000
0.07959013 0.00000000 0.05234045
0.02076325 0.00000000 0.09917286
0.00000009 0.00000000 0.37762488
0.00000010 0.00000000 0.77270036
0.08383571 0.00662774 0.00000000
0.08383571 0.00662774 0.00000000
0.08383571 0.00662774 0.00000000
0.08383571 0.00662774 0.00000000
0.08383571 0.00662774 0.00000000
0.07959013 0.00000000 0.05234045
0.02076325 0.00000000 0.09917286
0.00000009 0.00000000 0.37762488
0.00000010 0.00000000 0.77270036
0.08383571 0.00662774 0.00000000
0.08383571 0.00662774 0.00000000
0.08383571 0.00662774 0.00000000
0.08383571 0.00662774 0.00000000
0.08383571 0.00662774 0.00000000
0.07959013 0.00000000 0.05234045
0.02076325 0.00000000 0.09917286
0.00000009 0.00000000 0.37762488
0.00000010 0.00000000 0.77270036
0.05435412 0.05843922 0.00000000
0.05435412 0.05843922 0.00000000
0.05435412 0.05843922 0.00000000
0.05435412 0.05843922 0.00000000
0.05435412 0.05843922 0.00000000
0.04886767 0.05154599 0.04489657
0.00433081 0.00259518 0.10143271
0.00000009 0.00000000 0.37594527
0.00000010 0.00000000 0.77186261
0.00000000 0.31304001 0.13321639
0.00000000 0.31304001 0.13321639
0.00000000 0.31304001 0.13321639
0.00000000 0.31304001 0.13321639
0.00000000 0.31304001 0.13321639
0.00000000 0.31118443 0.14172457
0.00000000 0.20545613 0.17328303
0.00000000 0.14589226 0.36892520
0.00000010 0.00000000 0.76827327
0.00000000 0.51987036 0.23898989
0.00000000 0.51987036 0.23898989
0.00000000 0.51987036 0.23898989
0.00000000 0.51987036 0.23898989
0.00000000 0.51987036 0.23898989
0.00000000 0.51858331 0.23833169
0.00000000 0.51305632 0.27662605
0.00000000 0.44795420 0.37778777
0.00000000 0.36550370 0.75841001
0.00000000 0.94473607 0.45626711
0.00000000 0.94473607 0.45626711
0.00000000 0.94473607 0.45626711
0.00000000 0.94473607 0.45626711
0.00000000 0.94473607 0.45626711
0.00000000 0.94398169 0.45588132
0.00000000 0.94075227 0.45422979
0.00000000 0.93004430 0.53195670
0.00000000 0.87323041 0.74039180
0.25803138 0.04628606 0.00000000
0.25803138 0.04628606 0.00000000
0.25803138 0.04628606 0.00000000
0.25803138 0.04628606 0.00000000
0.25803138 0.04628606 0.00000000
0.25624520 0.00000000 0.00179369
0.24848514 0.00000000 0.18737252
0.20373395 0.00000000 0.37657991
0.09701664 0.00000000 0.77216878
0.25803138 0.04628606 0.00000000
0.25803138 0.04628606 0.00000000
0.25803138 0.04628606 0.00000000
0.25803138 0.04628606 0.00000000
0.25803138 0.04628606 0.00000000
0.25624520 0.00000000 0.00179369
0.24848514 0.00000000 0.18737252
0.20373395 0.00000000 0.37657991
0.09701664 0.00000000 0.77216878
0.25803138 0.04628606 0.00000000
0.25803138 0.04628606 0.00000000
0.25803138 0.04628606 0.00000000
0.25803138 0.04628606 0.00000000
0.25803138 0.04628606 0.00000000
0.25624520 0.00000000 0.00179369
0.24848514 0.00000000 0.18737252
0.20373395 0.00000000 0.37657991
0.09701664 0.00000000 0.77216878
0.25803138 0.04628606 0.00000000
0.25803138 0.04628606 0.00000000
0.25803138 0.04628606 0.00000000
0.25803138 0.04628606 0.00000000
0.25803138 0.04628606 0.00000000
0.25624520 0.00000000 0.00179369
0.24848514 0.00000000 0.18737252
0.20373395 0.00000000 0.37657991
0.09701664 0.00000000 0.77216878
0.25803138 0.04628606 0.00000000
0.25803138 0.04628606 0.00000000
0.25803138 0.04628606 0.00000000
0.25803138 0.04628606 0.00000000
0.25803138 0.04628606 0.00000000
0.25624520 0.00000000 0.00179369
0.24848514 0.00000000 0.18737252
0.20373395 0.00000000 0.37657991
0.09701664 0.00000000 0.77216878
0.24664547 0.05790323 0.00000000
0.24664547 0.05790323 0.00000000
0.24664547 0.05790323 0.00000000
0.24664547 0.05790323 0.00000000
0.24664547 0.05790323 0.00000000
0.24694389 0.01310250 0.00000000
0.23671489 0.00000000 0.18433940
0.19137738 0.00000000 0.37488127
0.07173380 0.00000000 0.77131185
0.19172783 0.20523644 0.00000000
0.19172783 0.20523644 0.00000000
0.19172783 0.20523644 0.00000000
0.19172783 0.20523644 0.00000000
0.19172783 0.20523644 0.00000000
0.19104142 0.20422738 0.00000000
0.23440676 0.25314389 0.22795299
0.11514873 0.11249050 0.37606189
0.00000010 0.00000000 0.76768601
0.00000000 0.51295511 0.23545342
0.00000000 0.51295511 0.23545342
0.00000000 0.51295511 0.23545342
0.00000000 0.51295511 0.23545342
0.00000000 0.51295511 0.23545342
0.00000000 0.51165364 0.23478785
0.00000000 0.50606394 0.27238694
0.00000000 0.43977419 0.37657589
0.00000000 0.35596054 0.75770165
0.00000000 0.94069453 0.45420026
0.00000000 0.94069453 0.45420026
0.00000000 0.94069453 0.45420026
0.00000000 0.94069453 0.45420026
0.00000000 0.94069453 0.45420026
0.00000000 0.93993712 0.45381292
0.00000000 0.93669466 0.45215472
0.00000000 0.92594285 0.52954025
0.00000000 0.86883975 0.73973047
0.53500788 0.13590607 0.00000000
0.53500788 0.13590607 0.00000000
0.53500788 0.13590607 0.00000000
0.53500788 0.13590607 0.00000000
0.53500788 0.13590607 0.00000000
0.53409338 0.12415366 0.00000000
0.53015540 0.00000000 0.10727895
0.51696777 0.00000000 0.40290374
0.46337775 0.00000000 0.77118441
0.53500788 0.13590607 0.00000000
0.53500788 0.13590607 0.00000000
0.53500788 0.13590607 0.00000000
0.53500788 0.13590607 0.00000000
0.53500788 0.13590607 0.00000000
0.53409338 0.12415366 0.00000000
0.53015540 0.00000000 0.10727895
0.51696777 0.00000000 0.40290374
0.46337775 0.00000000 0.77118441
0.53500788 0.13590607 0.00000000
0.53500788 0.13590607 0.00000000
0.53500788 0.13590607 0.00000000
0.53500788 0.13590607 0.00000000
0.53500788 0.13590607 0.00000000
0.53409338 0.12415366 0.00000000
0.53015540 0.00000000 0.10727895
0.51696777 0.00000000 0.40290374
0.46337775 0.00000000 0.77118441
0.53500788 0.13590607 0.00000000
0.53500788 0.13590607 0.00000000
0.53500788 0.13590607 0.00000000
0.53500788 0.13590607 0.00000000
0.53500788 0.13590607 0.00000000
0.53409338 0.12415366 0.00000000
0.53015540 0.00000000 0.10727895
0.51696777 0.00000000 0.40290374
0.46337775 0.00000000 0.77118441
0.53500788 0.13590607 0.00000000
0.53500788 0.13590607 0.00000000
0.53500788 0.13590607 0.00000000
0.53500788 0.13590607 0.00000000
0.53500788 0.13590607 0.00000000
0.53409338 0.12415366 0.00000000
0.53015540 0.00000000 0.10727895
0.51696777 0.00000000 0.40290374
0.46337775 0.00000000 0.77118441
0.52925791 0.13404558 0.00000000
0.52925791 0.13404558 0.00000000
0.52925791 0.13404558 0.00000000
0.52925791 0.13404558 0.00000000
0.52925791 0.13404558 0.00000000
0.52833442 0.12522805 0.00000000
0.52435564 0.00000000 0.10431957
0.51102691 0.00000000 0.40133720
0.45696537 0.00000000 0.77031389
0.50382996 0.20091381 0.00000000
0.50382996 0.20091381 0.00000000
0.50382996 0.20091381 0.00000000
0.50382996 0.20091381 0.00000000
0.50382996 0.20091381 0.00000000
0.50287092 0.19798153 0.00000000
0.50301040 0.13089779 0.10305802
0.48920131 0.00000000 0.39618036
0.42856501 0.00000000 0.76658650
0.40941388 0.44247380 0.00000000
0.40941388 0.44247380 0.00000000
0.40941388 0.44247380 0.00000000
0.40941388 0.44247380 0.00000000
0.40941388 0.44247380 0.00000000
0.40825212 0.44093720 0.00000000
0.40607120 0.43807742 0.09100252
0.40359277 0.44297859 0.39731139
0.29259580 0.29734702 0.76615504
0.00000000 0.92727013 0.44733500
0.00000000 0.92727013 0.44733500
0.00000000 0.92727013 0.44733500
0.00000000 0.92727013 0.44733500
0.00000000 0.92727013 0.44733500
0.00000000 0.92650247 0.44694241
0.00000000 0.92321594 0.44526168
0.00000000 0.91231594 0.52151299
0.00000000 0.85423091 0.73755015
1.00000000 0.33939106 0.18833388
1.00000000 0.33939106 0.18833388
1.00000000 0.33939106 0.18833388
1.00000000 0.33939106 0.18833388
1.00000000 0.33939106 0.18833388
1.00000000 0.33757085 0.18446898
1.00000000 0.29021270 0.16656749
1.00000000 0.08286500 0.28840771
0.97980273 0.00000000 0.78114291
1.00000000 0.33939106 0.18833388
1.00000000 0.33939106 0.18833388
1.00000000 0.33939106 0.18833388
1.00000000 0.33939106 0.18833388
1.00000000 0.33939106 0.18833388
1.00000000 0.33757085 0.18446898
1.00000000 0.29021270 0.16656749
1.00000000 0.08286500 0.28840771
0.97980273 0.00000000 0.78114291
1.00000000 0.33939106 0.18833388
1.00000000 0.33939106 0.18833388
1.00000000 0.33939106 0.18833388
1.00000000 0.33939106 0.18833388
1.00000000 0.33939106 0.18833388
1.00000000 0.33757085 0.18446898
1.00000000 0.29021270 0.16656749
1.00000000 0.08286500 0.28840771
0.97980273 0.00000000 0.78114291
1.00000000 0.33939106 0.18833388
1.00000000 0.33939106 0.18833388
1.00000000 0.33939106 0.18833388
1.00000000 0.33939106 0.18833388
1.00000000 0.33939106 0.18833388
1.00000000 0.33757085 0.18446898
1.00000000 0.29021270 0.16656749
1.00000000 0.08286500 0.28840771
0.97980273 0.00000000 0.78114291
1.00000000 0.33939106 0.18833388
1.00000000 0.33939106 0.18833388
1.00000000 0.33939106 0.18833388
1.00000000 0.33939106 0.18833388
1.00000000 0.33939106 0.18833388
1.00000000 0.33757085 0.18446898
1.00000000 0.29021270 0.16656749
1.00000000 0.08286500 0.28840771
0.97980273 0.00000000 0.78114291
1.00000000 0.32777271 0.16246417
1.00000000 0.32777271 0.16246417
1.00000000 0.32777271 0.16246417
1.00000000 0.32777271 0.16246417
1.00000000 0.32777271 0.16246417
1.00000000 0.32587587 0.15792863
1.00000000 0.27729351 0.13645780
1.00000000 0.00771676 0.27364233
0.97667506 0.00000000 0.78027257
0.99681614 0.28533122 0.00000000
0.99681614 0.28533122 0.00000000
0.99681614 0.28533122 0.00000000
0.99681614 0.28533122 0.00000000
0.99681614 0.28533122 0.00000000
0.99632591 0.28517260 0.00000000
0.99420146 0.24515557 0.00000000
0.98709404 0.00000000 0.26617485
0.96319354 0.00000000 0.77654555
0.95109914 0.43197576 0.00000000
0.95109914 0.43197576 0.00000000
0.95109914 0.43197576 0.00000000
0.95109914 0.43197576 0.00000000
0.95109914 0.43197576 0.00000000
0.95060262 0.43043181 0.00000000
0.95133857 0.41773313 0.00000000
0.94881272 0.31709979 0.27121296
0.92470296 0.11967797 0.76769039
0.78228501 0.86062286 0.00000000
0.78228501 0.86062286 0.00000000
0.78228501 0.86062286 0.00000000
0.78228501 0.86062286 0.00000000
0.78228501 0.86062286 0.00000000
0.78166362 0.85979219 0.00000000
0.77900324 0.85623455 0.00000000
0.77470303 0.85120853 0.24412109
0.74212463 0.81775942 0.74848606
