luts/S9_VLog_to_m9_ccd_day.cube
# Film Emulation LUT
# Generated by lutex.py
# Grid: 33³
TITLE "Panasonic S9 V-Log to Leica M9 CCD Day — S9 V-Log v1"
LUT_3D_SIZE 33
DOMAIN_MIN 0.0 0.0 0.0
DOMAIN_MAX 1.0 1.0 1.0
0.01034684 0.01114307 0.00888298
0.01034684 0.01114307 0.00888298
0.01034684 0.01114307 0.00888298
0.01034684 0.01114307 0.00888298
0.01034684 0.01114307 0.00888298
0.00000000 0.00000000 0.00000000
0.00000000 0.00000000 0.00000000
0.00000000 0.00000000 0.00000000
0.00000000 0.00000000 0.00000000
0.00000000 0.00000000 0.00000000
0.00000000 0.00000000 0.00000000
0.00000000 0.00000000 0.00000000
0.00000000 0.00099727 0.09080356
0.00000000 0.00582055 0.25168452
0.00000000 0.01246550 0.36870824
0.00000000 0.02171755 0.48118757
0.00000000 0.03466150 0.59838928
0.00000000 0.05166286 0.72526216
0.00000000 0.06855808 0.85003837
0.00000000 0.08354854 0.96108219
0.00000000 0.08341422 0.96097133
0.00000000 0.08332898 0.96090100
0.00000000 0.08327654 0.96085775
0.00000000 0.08324433 0.96083119
0.00000000 0.08322439 0.96081475
0.00000000 0.08321193 0.96080447
0.00000000 0.08320407 0.96079799
0.00000000 0.08319908 0.96079388
0.00000000 0.08319589 0.96079125
0.00000000 0.08319384 0.96078956
0.00000000 0.08319252 0.96078847
0.00000000 0.08319167 0.96078777
0.00000000 0.08319111 0.96078731
0.01034684 0.01114307 0.00888298
0.01034684 0.01114307 0.00888298
0.01034684 0.01114307 0.00888298
0.01034684 0.01114307 0.00888298
0.01034684 0.01114307 0.00888298
0.00000000 0.00000000 0.00000000
0.00000000 0.00000000 0.00000000
0.00000000 0.00000000 0.00000000
0.00000000 0.00000000 0.00000000
0.00000000 0.00000000 0.00000000
0.00000000 0.00000000 0.00000000
0.00000000 0.00000000 0.00000000
0.00000000 0.00099727 0.09080356
0.00000000 0.00582055 0.25168452
0.00000000 0.01246550 0.36870824
0.00000000 0.02171755 0.48118757
0.00000000 0.03466150 0.59838928
0.00000000 0.05166286 0.72526216
0.00000000 0.06855808 0.85003837
0.00000000 0.08354854 0.96108219
0.00000000 0.08341422 0.96097133
0.00000000 0.08332898 0.96090100
0.00000000 0.08327654 0.96085775
0.00000000 0.08324433 0.96083119
0.00000000 0.08322439 0.96081475
0.00000000 0.08321193 0.96080447
0.00000000 0.08320407 0.96079799
0.00000000 0.08319908 0.96079388
0.00000000 0.08319589 0.96079125
0.00000000 0.08319384 0.96078956
0.00000000 0.08319252 0.96078847
0.00000000 0.08319167 0.96078777
0.00000000 0.08319111 0.96078731
0.01034684 0.01114307 0.00888298
0.01034684 0.01114307 0.00888298
0.01034684 0.01114307 0.00888298
0.01034684 0.01114307 0.00888298
0.01034684 0.01114307 0.00888298
0.00000000 0.00000000 0.00000000
0.00000000 0.00000000 0.00000000
0.00000000 0.00000000 0.00000000
0.00000000 0.00000000 0.00000000
0.00000000 0.00000000 0.00000000
0.00000000 0.00000000 0.00000000
0.00000000 0.00000000 0.00000000
0.00000000 0.00099727 0.09080356
0.00000000 0.00582055 0.25168452
0.00000000 0.01246550 0.36870824
0.00000000 0.02171755 0.48118757
0.00000000 0.03466150 0.59838928
0.00000000 0.05166286 0.72526216
0.00000000 0.06855808 0.85003837
0.00000000 0.08354854 0.96108219
0.00000000 0.08341422 0.96097133
0.00000000 0.08332898 0.96090100
0.00000000 0.08327654 0.96085775
0.00000000 0.08324433 0.96083119
0.00000000 0.08322439 0.96081475
0.00000000 0.08321193 0.96080447
0.00000000 0.08320407 0.96079799
0.00000000 0.08319908 0.96079388
0.00000000 0.08319589 0.96079125
0.00000000 0.08319384 0.96078956
0.00000000 0.08319252 0.96078847
0.00000000 0.08319167 0.96078777
0.00000000 0.08319111 0.96078731
0.01034684 0.01114307 0.00888298
0.01034684 0.01114307 0.00888298
0.01034684 0.01114307 0.00888298
0.01034684 0.01114307 0.00888298
0.01034684 0.01114307 0.00888298
0.00000000 0.00000000 0.00000000
0.00000000 0.00000000 0.00000000
0.00000000 0.00000000 0.00000000
0.00000000 0.00000000 0.00000000
0.00000000 0.00000000 0.00000000
0.00000000 0.00000000 0.00000000
0.00000000 0.00000000 0.00000000
0.00000000 0.00099727 0.09080356
0.00000000 0.00582055 0.25168452
0.00000000 0.01246550 0.36870824
0.00000000 0.02171755 0.48118757
0.00000000 0.03466150 0.59838928
0.00000000 0.05166286 0.72526216
0.00000000 0.06855808 0.85003837
0.00000000 0.08354854 0.96108219
0.00000000 0.08341422 0.96097133
0.00000000 0.08332898 0.96090100
0.00000000 0.08327654 0.96085775
0.00000000 0.08324433 0.96083119
0.00000000 0.08322439 0.96081475
0.00000000 0.08321193 0.96080447
0.00000000 0.08320407 0.96079799
0.00000000 0.08319908 0.96079388
0.00000000 0.08319589 0.96079125
0.00000000 0.08319384 0.96078956
0.00000000 0.08319252 0.96078847
0.00000000 0.08319167 0.96078777
0.00000000 0.08319111 0.96078731
0.01034684 0.01114307 0.00888298
0.01034684 0.01114307 0.00888298
0.01034684 0.01114307 0.00888298
0.01034684 0.01114307 0.00888298
0.01034684 0.01114307 0.00888298
0.00000000 0.00000000 0.00000000
0.00000000 0.00000000 0.00000000
0.00000000 0.00000000 0.00000000
0.00000000 0.00000000 0.00000000
0.00000000 0.00000000 0.00000000
0.00000000 0.00000000 0.00000000
0.00000000 0.00000000 0.00000000
0.00000000 0.00099727 0.09080356
0.00000000 0.00582055 0.25168452
0.00000000 0.01246550 0.36870824
0.00000000 0.02171755 0.48118757
0.00000000 0.03466150 0.59838928
0.00000000 0.05166286 0.72526216
0.00000000 0.06855808 0.85003837
0.00000000 0.08354854 0.96108219
0.00000000 0.08341422 0.96097133
0.00000000 0.08332898 0.96090100
0.00000000 0.08327654 0.96085775
0.00000000 0.08324433 0.96083119
0.00000000 0.08322439 0.96081475
0.00000000 0.08321193 0.96080447
0.00000000 0.08320407 0.96079799
0.00000000 0.08319908 0.96079388
0.00000000 0.08319589 0.96079125
0.00000000 0.08319384 0.96078956
0.00000000 0.08319252 0.96078847
0.00000000 0.08319167 0.96078777
0.00000000 0.08319111 0.96078731
0.00000000 0.00000000 0.00000000
0.00000000 0.00000000 0.00000000
0.00000000 0.00000000 0.00000000
0.00000000 0.00000000 0.00000000
0.00000000 0.00000000 0.00000000
0.00797077 0.06600950 0.05166226
0.00000000 0.00000000 0.00000000
0.00000000 0.00000000 0.00000000
0.00000000 0.00000000 0.00000000
0.00000000 0.00000000 0.00000000
0.00000000 0.00000000 0.00000000
0.00000000 0.00000000 0.00000000
0.00000000 0.00091243 0.08547154
0.00000000 0.00573458 0.24975609
0.00000000 0.01237702 0.36742897
0.00000000 0.02162583 0.48022734
0.00000000 0.03456612 0.59762964
0.00000000 0.05157924 0.72464428
0.00000000 0.06848632 0.84950865
0.00000000 0.08354896 0.96108253
0.00000000 0.08341443 0.96097150
0.00000000 0.08332907 0.96090108
0.00000000 0.08327658 0.96085779
0.00000000 0.08324435 0.96083120
0.00000000 0.08322440 0.96081475
0.00000000 0.08321193 0.96080447
0.00000000 0.08320407 0.96079799
0.00000000 0.08319908 0.96079388
0.00000000 0.08319589 0.96079125
0.00000000 0.08319384 0.96078956
0.00000000 0.08319252 0.96078847
0.00000000 0.08319167 0.96078777
0.00000000 0.08319111 0.96078731
0.00000000 0.00000000 0.00000000
0.00000000 0.00000000 0.00000000
0.00000000 0.00000000 0.00000000
0.00000000 0.00000000 0.00000000
0.00000000 0.00000000 0.00000000
0.00000000 0.00000000 0.00000000
0.00527765 0.10585257 0.08810745
0.00000000 0.00000000 0.00000000
0.00000000 0.00000000 0.00000000
0.00000000 0.00000000 0.00000000
0.00000000 0.00000000 0.00000000
0.00000000 0.00000000 0.00000000
0.00000000 0.00082704 0.07980728
0.00000000 0.00564808 0.24779889
0.00000000 0.01228800 0.36613641
0.00000000 0.02153354 0.47925871
0.00000000 0.03447014 0.59686396
0.00000000 0.05149499 0.72402176
0.00000000 0.06841417 0.84897600
0.00000000 0.08354938 0.96108288
0.00000000 0.08341463 0.96097166
0.00000000 0.08332917 0.96090116
0.00000000 0.08327663 0.96085782
0.00000000 0.08324437 0.96083122
0.00000000 0.08322441 0.96081476
0.00000000 0.08321193 0.96080448
0.00000000 0.08320407 0.96079800
0.00000000 0.08319908 0.96079388
0.00000000 0.08319589 0.96079125
0.00000000 0.08319384 0.96078956
0.00000000 0.08319252 0.96078847
0.00000000 0.08319167 0.96078777
0.00000000 0.08319111 0.96078731
0.00000000 0.00000000 0.00000000
0.00000000 0.00000000 0.00000000
0.00000000 0.00000000 0.00000000
0.00000000 0.00000000 0.00000000
0.00000000 0.00000000 0.00000000
0.00000000 0.00000000 0.00000000
0.00000000 0.00000000 0.00000000
0.00200532 0.14071999 0.12021624
0.00000000 0.13222193 0.15896917
0.00000000 0.00000000 0.00000000
0.00000000 0.00000000 0.00000000
0.00000000 0.00000000 0.00000000
0.00000000 0.00599031 0.07214002
0.00000000 0.01331912 0.24534168
0.00000000 0.01217843 0.36453813
0.00000000 0.02141994 0.47806313
0.00000000 0.03435199 0.59591972
0.00000000 0.05139115 0.72325446
0.00000000 0.06832542 0.84832091
0.00000000 0.08354990 0.96108331
0.00000000 0.08341489 0.96097187
0.00000000 0.08332928 0.96090125
0.00000000 0.08327668 0.96085787
0.00000000 0.08324439 0.96083124
0.00000000 0.08322442 0.96081477
0.00000000 0.08321194 0.96080448
0.00000000 0.08320407 0.96079800
0.00000000 0.08319908 0.96079388
0.00000000 0.08319589 0.96079125
0.00000000 0.08319384 0.96078956
0.00000000 0.08319252 0.96078847
0.00000000 0.08319167 0.96078777
0.00000000 0.08319111 0.96078731
0.00000000 0.00000000 0.00000000
0.00000000 0.00000000 0.00000000
0.00000000 0.00000000 0.00000000
0.00000000 0.00000000 0.00000000
0.00000000 0.00000000 0.00000000
0.00000000 0.00000000 0.00000000
0.00000000 0.00000000 0.00000000
0.00000000 0.00000000 0.00000000
0.00000000 0.17611438 0.15316689
0.00000000 0.16685577 0.19394794
0.00000000 0.00000000 0.00000000
0.00000000 0.00000000 0.00000000
0.00000000 0.01139316 0.06063288
0.00000000 0.05500605 0.24188154
0.00000000 0.04954791 0.36230224
0.00000000 0.02126698 0.47644751
0.00000000 0.03419288 0.59464522
0.00000000 0.05125108 0.72221947
0.00000000 0.06820606 0.84743980
0.00000000 0.08355060 0.96108389
0.00000000 0.08341523 0.96097216
0.00000000 0.08332944 0.96090138
0.00000000 0.08327675 0.96085792
0.00000000 0.08324443 0.96083127
0.00000000 0.08322443 0.96081478
0.00000000 0.08321195 0.96080449
0.00000000 0.08320408 0.96079800
0.00000000 0.08319908 0.96079388
0.00000000 0.08319589 0.96079125
0.00000000 0.08319384 0.96078956
0.00000000 0.08319252 0.96078847
0.00000000 0.08319167 0.96078777
0.00000000 0.08319111 0.96078731
0.00000000 0.00000000 0.00000000
0.00000000 0.00000000 0.00000000
0.00000000 0.00000000 0.00000000
0.00000000 0.00000000 0.00000000
0.00000000 0.00000000 0.00000000
0.00000000 0.00000000 0.00000000
0.00000000 0.00000000 0.00000000
0.00000000 0.00000000 0.00000000
0.00000000 0.00000000 0.00000000
0.00000000 0.21334535 0.18808971
0.00000000 0.20360568 0.23234833
0.00000000 0.00000000 0.00000000
0.00000000 0.01343412 0.04204592
0.00000000 0.09069753 0.23714439
0.00000000 0.10533544 0.35919427
0.00000000 0.09089928 0.47412363
0.00000000 0.03397867 0.59292372
0.00000000 0.05106206 0.72082274
0.00000000 0.06804562 0.84625540
0.00000000 0.08355155 0.96108467
0.00000000 0.08341569 0.96097254
0.00000000 0.08332965 0.96090156
0.00000000 0.08327685 0.96085800
0.00000000 0.08324447 0.96083130
0.00000000 0.08322445 0.96081480
0.00000000 0.08321196 0.96080450
0.00000000 0.08320408 0.96079800
0.00000000 0.08319908 0.96079388
0.00000000 0.08319589 0.96079125
0.00000000 0.08319384 0.96078956
0.00000000 0.08319252 0.96078847
0.00000000 0.08319167 0.96078777
0.00000000 0.08319111 0.96078731
0.00904494 0.08766750 0.00000000
0.00904494 0.08766750 0.00000000
0.00904494 0.08766750 0.00000000
0.00904494 0.08766750 0.00000000
0.00904494 0.08766750 0.00000000
0.00841561 0.08343156 0.00000000
0.00390326 0.07981972 0.00000000
0.00000000 0.07407951 0.00528764
0.00000000 0.06572697 0.01496553
0.00000000 0.05299300 0.02273583
0.00000000 0.25394497 0.22623513
0.00000000 0.24342954 0.27487766
0.00000000 0.00648288 0.01256790
0.00000000 0.12263696 0.23061134
0.00000000 0.15128540 0.35497012
0.00000000 0.15287507 0.47093250
0.00000000 0.13174773 0.59035383
0.00000000 0.06920866 0.71890111
0.00000000 0.06783011 0.84466456
0.00000000 0.08355284 0.96108573
0.00000000 0.08341631 0.96097305
0.00000000 0.08332994 0.96090179
0.00000000 0.08327698 0.96085811
0.00000000 0.08324453 0.96083135
0.00000000 0.08322448 0.96081482
0.00000000 0.08321197 0.96080451
0.00000000 0.08320409 0.96079801
0.00000000 0.08319909 0.96079388
0.00000000 0.08319589 0.96079125
0.00000000 0.08319384 0.96078956
0.00000000 0.08319252 0.96078847
0.00000000 0.08319167 0.96078777
0.00000000 0.08319111 0.96078731
0.03518335 0.19693909 0.00000000
0.03518335 0.19693909 0.00000000
0.03518335 0.19693909 0.00000000
0.03518335 0.19693909 0.00000000
0.03518335 0.19693909 0.00000000
0.03446743 0.19477709 0.00000000
0.03374725 0.19257584 0.00000000
0.00490931 0.19019703 0.00000000
0.00000000 0.18643910 0.03330835
0.00000000 0.18125216 0.07319178
0.00000000 0.17401864 0.10627595
0.00000000 0.29934951 0.26832289
0.00000000 0.28686781 0.32806315
0.00000000 0.15265777 0.22150707
0.00000000 0.19500060 0.34920494
0.00000000 0.20741858 0.46660784
0.00000000 0.20066661 0.58687449
0.00000000 0.17361323 0.71598186
0.00000000 0.10676925 0.84242277
0.00000000 0.08355457 0.96108717
0.00000000 0.08341716 0.96097375
0.00000000 0.08333033 0.96090211
0.00000000 0.08327715 0.96085826
0.00000000 0.08324461 0.96083142
0.00000000 0.08322452 0.96081485
0.00000000 0.08321199 0.96080452
0.00000000 0.08320410 0.96079802
0.00000000 0.08319909 0.96079389
0.00000000 0.08319589 0.96079125
0.00000000 0.08319384 0.96078956
0.00000000 0.08319252 0.96078847
0.00000000 0.08319167 0.96078777
0.00000000 0.08319111 0.96078731
0.06751024 0.28838635 0.00000000
0.06751024 0.28838635 0.00000000
0.06751024 0.28838635 0.00000000
0.06751024 0.28838635 0.00000000
0.06751024 0.28838635 0.00000000
0.06699701 0.28693880 0.00000000
0.06647760 0.28547383 0.00000000
0.05274117 0.28389613 0.00000000
0.00000000 0.28143273 0.00411107
0.00000000 0.27807779 0.07283073
0.00000000 0.27348954 0.12425613
0.00000000 0.26717708 0.16987325
0.00000000 0.35636055 0.31989624
0.00000000 0.34209555 0.38979971
0.00000000 0.24280264 0.34125172
0.00000000 0.26367493 0.46070531
0.00000000 0.26405801 0.58216454
0.00000000 0.25040650 0.71204934
0.00000000 0.21649349 0.83901905
0.00000000 0.13589923 0.96090074
0.00000000 0.08341830 0.96097469
0.00000000 0.08333085 0.96090254
0.00000000 0.08327739 0.96085845
0.00000000 0.08324472 0.96083151
0.00000000 0.08322457 0.96081489
0.00000000 0.08321201 0.96080454
0.00000000 0.08320411 0.96079802
0.00000000 0.08319909 0.96079389
0.00000000 0.08319589 0.96079125
0.00000000 0.08319384 0.96078956
0.00000000 0.08319252 0.96078847
0.00000000 0.08319167 0.96078777
0.00000000 0.08319111 0.96078731
0.09878954 0.37663505 0.00000000
0.09878954 0.37663505 0.00000000
0.09878954 0.37663505 0.00000000
0.09878954 0.37663505 0.00000000
0.09878954 0.37663505 0.00000000
0.09840453 0.37554868 0.00000000
0.09801577 0.37445172 0.00000000
0.09753540 0.37309625 0.00000000
0.06718009 0.37143655 0.00000000
0.00000000 0.36894943 0.02258863
0.00000000 0.36557030 0.11018019
0.00000000 0.36096452 0.17147649
0.00000000 0.35465817 0.23107144
0.00000000 0.42104326 0.38058125
0.00000000 0.40489661 0.46026374
0.00000000 0.32747563 0.45257583
0.00000000 0.33673907 0.57567760
0.00000000 0.32942486 0.70666343
0.00000000 0.30467821 0.83446235
0.00000000 0.24658457 0.96020162
0.00000000 0.13609386 0.96078620
0.00000000 0.08333156 0.96090313
0.00000000 0.08327771 0.96085872
0.00000000 0.08324486 0.96083163
0.00000000 0.08322464 0.96081495
0.00000000 0.08321204 0.96080457
0.00000000 0.08320412 0.96079804
0.00000000 0.08319910 0.96079390
0.00000000 0.08319590 0.96079126
0.00000000 0.08319384 0.96078956
0.00000000 0.08319252 0.96078847
0.00000000 0.08319167 0.96078777
0.00000000 0.08319111 0.96078731
0.13133098 0.46845088 0.00000000
0.13133098 0.46845088 0.00000000
0.13133098 0.46845088 0.00000000
0.13133098 0.46845088 0.00000000
0.13133098 0.46845088 0.00000000
0.13102721 0.46759388 0.00000000
0.13072082 0.46672950 0.00000000
0.13034272 0.46566279 0.00000000
0.12983188 0.46422163 0.00000000
0.08129023 0.46240827 0.00000000
0.00000000 0.45976657 0.04927622
0.00000000 0.45618171 0.14719601
0.00000000 0.45130356 0.22045396
0.00000000 0.44463941 0.29701734
0.00000000 0.49463698 0.44970957
0.00000000 0.47627532 0.54076733
0.00000000 0.41411165 0.56680152
0.00000000 0.41492935 0.69927511
0.00000000 0.39968517 0.82824696
0.00000000 0.34792493 0.95914520
0.00000000 0.23350817 0.96019291
0.00000000 0.13309640 0.96072693
0.00000000 0.08327815 0.96085908
0.00000000 0.08324506 0.96083179
0.00000000 0.08322473 0.96081502
0.00000000 0.08321208 0.96080460
0.00000000 0.08320414 0.96079805
0.00000000 0.08319911 0.96079391
0.00000000 0.08319590 0.96079126
0.00000000 0.08319385 0.96078956
0.00000000 0.08319252 0.96078847
0.00000000 0.08319167 0.96078777
0.00000000 0.08319111 0.96078731
0.16645193 0.56751618 0.00000000
0.16645193 0.56751618 0.00000000
0.16645193 0.56751618 0.00000000
0.16645193 0.56751618 0.00000000
0.16645193 0.56751618 0.00000000
0.16620571 0.56682178 0.00000000
0.16595752 0.56612185 0.00000000
0.16565147 0.56525873 0.00000000
0.16523839 0.56409375 0.00000000
0.15865642 0.56263141 0.00000000
0.09728219 0.56050148 0.00000000
0.00000000 0.55761820 0.07590631
0.00000000 0.55370819 0.18499051
0.00000000 0.54839166 0.27780543
0.00000000 0.54113876 0.36792477
0.00000000 0.57853097 0.52852601
0.00000000 0.55758834 0.63274672
0.00000000 0.50664620 0.68917097
0.00000000 0.49915561 0.81992907
0.00000000 0.45508386 0.95753449
0.00000000 0.33067029 0.95923927
0.00000000 0.22239140 0.96020491
0.00000000 0.12893973 0.96070008
0.00000000 0.08324533 0.96083201
0.00000000 0.08322485 0.96081513
0.00000000 0.08321214 0.96080465
0.00000000 0.08320417 0.96079808
0.00000000 0.08319912 0.96079392
0.00000000 0.08319591 0.96079127
0.00000000 0.08319385 0.96078957
0.00000000 0.08319252 0.96078847
0.00000000 0.08319167 0.96078777
0.00000000 0.08319111 0.96078731
0.20514494 0.67661722 0.00000000
0.20514494 0.67661722 0.00000000
0.20514494 0.67661722 0.00000000
0.20514494 0.67661722 0.00000000
0.20514494 0.67661722 0.00000000
0.20494218 0.67604559 0.00000000
0.20473788 0.67546965 0.00000000
0.20448607 0.67475974 0.00000000
0.20414640 0.67380214 0.00000000
0.20368798 0.67250977 0.00000000
0.18914577 0.67085681 0.00000000
0.11674912 0.66849350 0.00000000
0.00000000 0.66529527 0.10095161
0.00000000 0.66095917 0.23252354
0.00000000 0.65506668 0.34059978
0.00000000 0.64703450 0.44567477
0.00000000 0.67428695 0.61836265
0.00000000 0.65035845 0.73774701
0.00000000 0.60638180 0.80891245
0.00000000 0.57091859 0.95515870
0.00000000 0.43085598 0.95782718
0.00000000 0.31191466 0.95937965
0.00000000 0.21147117 0.96023909
0.00000000 0.12452020 0.96069095
0.00000000 0.08322502 0.96081526
0.00000000 0.08321222 0.96080471
0.00000000 0.08320420 0.96079811
0.00000000 0.08319914 0.96079393
0.00000000 0.08319592 0.96079127
0.00000000 0.08319385 0.96078957
0.00000000 0.08319252 0.96078848
0.00000000 0.08319167 0.96078777
0.00000000 0.08319111 0.96078731
0.24830537 0.79827355 0.00000000
0.24830537 0.79827355 0.00000000
0.24830537 0.79827355 0.00000000
0.24830537 0.79827355 0.00000000
0.24830537 0.79827355 0.00000000
0.24813675 0.79779834 0.00000000
0.24796691 0.79731968 0.00000000
0.24775763 0.79672987 0.00000000
0.24747544 0.79593456 0.00000000
0.24709480 0.79486181 0.00000000
0.24658114 0.79341417 0.00000000
0.22423446 0.79153736 0.00000000
0.14099056 0.78888873 0.00000000
0.00000000 0.78530483 0.12873749
0.00000000 0.78044591 0.28574567
0.00000000 0.77384564 0.41002583
0.00000000 0.76485300 0.53182210
0.00000000 0.78365971 0.72060340
0.00000000 0.75666075 0.84597375
0.00000000 0.70073872 0.95163032
0.00000000 0.53988235 0.95574148
0.00000000 0.40507957 0.95815901
0.00000000 0.29421843 0.95952301
0.00000000 0.20134492 0.96028099
0.00000000 0.12075782 0.96068906
0.00000000 0.08321232 0.96080480
0.00000000 0.08320425 0.96079815
0.00000000 0.08319916 0.96079395
0.00000000 0.08319593 0.96079128
0.00000000 0.08319386 0.96078957
0.00000000 0.08319253 0.96078848
0.00000000 0.08319167 0.96078777
0.00000000 0.08319112 0.96078731
0.29394151 0.92688262 0.00000000
0.29394151 0.92688262 0.00000000
0.29394151 0.92688262 0.00000000
0.29394151 0.92688262 0.00000000
0.29394151 0.92688262 0.00000000
0.29377312 0.92640812 0.00000000
0.29360368 0.92593064 0.00000000
0.29339511 0.92534293 0.00000000
0.29311428 0.92455159 0.00000000
0.29273622 0.92348624 0.00000000
0.29222736 0.92205235 0.00000000
0.29154270 0.92012304 0.00000000
0.26093373 0.91760366 0.00000000
0.16397879 0.91412745 0.00000000
0.00000000 0.90946212 0.17564043
0.00000000 0.90321098 0.34847857
0.00000000 0.89485532 0.49018305
0.00000000 0.88373577 0.63027481
0.00000000 0.89500312 0.83110906
0.00000000 0.85689432 0.98940569
0.00000000 0.65385208 0.95288959
0.00000000 0.50694816 0.95635722
0.00000000 0.38102005 0.95846520
0.00000000 0.27817564 0.95965521
0.00000000 0.19211109 0.96032406
0.00000000 0.11796806 0.96068935
0.00000000 0.08320432 0.96079820
0.00000000 0.08319920 0.96079398
0.00000000 0.08319594 0.96079129
0.00000000 0.08319386 0.96078958
0.00000000 0.08319253 0.96078848
0.00000000 0.08319167 0.96078777
0.00000000 0.08319112 0.96078731
0.31232401 0.97888736 0.00000000
0.31232401 0.97888736 0.00000000
0.31232401 0.97888736 0.00000000
0.31232401 0.97888736 0.00000000
0.31232401 0.97888736 0.00000000
0.31232427 0.97888756 0.00000000
0.31232452 0.97888777 0.00000000
0.31232484 0.97888802 0.00000000
0.31232527 0.97888837 0.00000000
0.31232585 0.97888883 0.00000000
0.31232664 0.97888946 0.00000000
0.31232770 0.97889031 0.00000000
0.31232914 0.97889146 0.00000000
0.28123751 0.97894870 0.00000000
0.19306879 0.97896310 0.00000000
0.00000000 0.97898601 0.16643307
0.00000000 0.97901992 0.35817388
0.00000000 0.97907003 0.51428771
0.00000000 0.97914460 0.67314478
0.04445878 1.00000000 0.90676227
0.00000000 0.83026902 0.98972272
0.00000000 0.62250889 0.95366440
0.00000000 0.47201191 0.95698528
0.00000000 0.35348223 0.95880830
0.00000000 0.26374646 0.95977309
0.00000000 0.18370864 0.96036548
0.00000000 0.11527225 0.96069295
0.00000000 0.08319924 0.96079401
0.00000000 0.08319596 0.96079131
0.00000000 0.08319387 0.96078959
0.00000000 0.08319254 0.96078848
0.00000000 0.08319167 0.96078777
0.00000000 0.08319112 0.96078732
0.31222143 0.97880538 0.00000000
0.31222143 0.97880538 0.00000000
0.31222143 0.97880538 0.00000000
0.31222143 0.97880538 0.00000000
0.31222143 0.97880538 0.00000000
0.31222155 0.97880548 0.00000000
0.31222167 0.97880558 0.00000000
0.31222182 0.97880570 0.00000000
0.31222203 0.97880586 0.00000000
0.31222231 0.97880609 0.00000000
0.31222268 0.97880639 0.00000000
0.31222319 0.97880679 0.00000000
0.31222388 0.97880734 0.00000000
0.31222482 0.97880809 0.00000000
0.28371177 0.97884580 0.00000000
0.20636894 0.97885823 0.00000000
0.00000000 0.97887775 0.12018271
0.00000000 0.97890675 0.32504512
0.00000000 0.97894976 0.47887009
0.00000000 0.97901081 0.62571572
0.04128361 1.00000000 0.90633078
0.00000000 0.77667049 0.94856453
0.00000000 0.61419348 0.95383134
0.00000000 0.46466990 0.95708982
0.00000000 0.34453020 0.95890408
0.00000000 0.24794099 0.95990086
0.00000000 0.17603844 0.96040412
0.00000000 0.11271411 0.96069826
0.00000000 0.08319599 0.96079133
0.00000000 0.08319389 0.96078960
0.00000000 0.08319254 0.96078849
0.00000000 0.08319168 0.96078778
0.00000000 0.08319112 0.96078732
0.31215646 0.97875346 0.00000000
0.31215646 0.97875346 0.00000000
0.31215646 0.97875346 0.00000000
0.31215646 0.97875346 0.00000000
0.31215646 0.97875346 0.00000000
0.31215652 0.97875350 0.00000000
0.31215658 0.97875355 0.00000000
0.31215665 0.97875360 0.00000000
0.31215674 0.97875368 0.00000000
0.31215687 0.97875378 0.00000000
0.31215704 0.97875392 0.00000000
0.31215728 0.97875411 0.00000000
0.31215760 0.97875436 0.00000000
0.31215803 0.97875471 0.00000000
0.31215861 0.97875517 0.00000000
0.28676175 0.97878020 0.00000000
0.21922292 0.97879097 0.00000000
0.00000000 0.97880764 0.04576722
0.00000000 0.97883244 0.28907235
0.00000000 0.97886641 0.43136893
0.00000000 0.97893592 0.61875567
0.03924524 1.00000000 0.91118146
0.00000000 0.77235939 0.94858443
0.00000000 0.61304382 0.95382962
0.00000000 0.46508950 0.95706372
0.00000000 0.34484067 0.95888907
0.00000000 0.24587232 0.95991143
0.00000000 0.16685209 0.96045149
