luts/S9_VLog_to_ricoh_negative_film.cube
# Film Emulation LUT
# Generated by lutex.py
# Grid: 33³
TITLE "Panasonic S9 V-Log to Ricoh Negative Film (ネガフィルム調)"
LUT_3D_SIZE 9
DOMAIN_MIN 0.0 0.0 0.0
DOMAIN_MAX 1.0 1.0 1.0
0.00000011 0.00000011 0.00000011
0.00000011 0.00000011 0.00000011
0.00000011 0.00000011 0.00000011
0.00000011 0.00000011 0.00000011
0.00000011 0.00000011 0.00000011
0.00183258 0.00183258 0.02716232
0.01647554 0.01647554 0.14689668
0.07896956 0.07896956 0.35699634
0.20678716 0.20678716 0.75007385
0.00000011 0.00000011 0.00000011
0.00000011 0.00000011 0.00000011
0.00000011 0.00000011 0.00000011
0.00000011 0.00000011 0.00000011
0.00000011 0.00000011 0.00000011
0.00183258 0.00183258 0.02716232
0.01647554 0.01647554 0.14689668
0.07896956 0.07896956 0.35699634
0.20678716 0.20678716 0.75007385
0.00000011 0.00000011 0.00000011
0.00000011 0.00000011 0.00000011
0.00000011 0.00000011 0.00000011
0.00000011 0.00000011 0.00000011
0.00000011 0.00000011 0.00000011
0.00183258 0.00183258 0.02716232
0.01647554 0.01647554 0.14689668
0.07896956 0.07896956 0.35699634
0.20678716 0.20678716 0.75007385
0.00000011 0.00000011 0.00000011
0.00000011 0.00000011 0.00000011
0.00000011 0.00000011 0.00000011
0.00000011 0.00000011 0.00000011
0.00000011 0.00000011 0.00000011
0.00183258 0.00183258 0.02716232
0.01647554 0.01647554 0.14689668
0.07896956 0.07896956 0.35699634
0.20678716 0.20678716 0.75007385
0.00000011 0.00000011 0.00000011
0.00000011 0.00000011 0.00000011
0.00000011 0.00000011 0.00000011
0.00000011 0.00000011 0.00000011
0.00000011 0.00000011 0.00000011
0.00183258 0.00183258 0.02716232
0.01647554 0.01647554 0.14689668
0.07896956 0.07896956 0.35699634
0.20678716 0.20678716 0.75007385
0.00372726 0.03015614 0.00372726
0.00372726 0.03015614 0.00372726
0.00372726 0.03015614 0.00372726
0.00372726 0.03015614 0.00372726
0.00372726 0.03015614 0.00372726
0.00322226 0.02607022 0.02199557
0.01593794 0.02622590 0.14412514
0.07847138 0.07847138 0.35546426
0.20650121 0.20650121 0.74919446
0.03348743 0.15582666 0.03348743
0.03348743 0.15582666 0.03348743
0.03348743 0.15582666 0.03348743
0.03348743 0.15582666 0.03348743
0.03348743 0.15582666 0.03348743
0.03261930 0.15353190 0.03735457
0.02897330 0.14348325 0.12994819
0.07630617 0.14122761 0.34880560
0.20527655 0.20527655 0.74542827
0.12504413 0.37524030 0.12504413
0.12504413 0.37524030 0.12504413
0.12504413 0.37524030 0.12504413
0.12504413 0.37524030 0.12504413
0.12504413 0.37524030 0.12504413
0.12451221 0.37396919 0.12451220
0.12222479 0.36850309 0.15358192
0.11451421 0.35007759 0.32210446
0.20098902 0.34522082 0.73224283
0.29700396 0.78616220 0.29700396
0.29700396 0.78616220 0.29700396
0.29700396 0.78616220 0.29700396
0.29700396 0.78616220 0.29700396
0.29700396 0.78616220 0.29700396
0.29669801 0.78543109 0.29669801
0.29538838 0.78230153 0.29538837
0.29104717 0.77192762 0.36296139
0.27642339 0.73698208 0.67868042
0.00000011 0.00000011 0.00000011
0.00000011 0.00000011 0.00000011
0.00000011 0.00000011 0.00000011
0.00000011 0.00000011 0.00000011
0.00000011 0.00000011 0.00000011
0.00183258 0.00183258 0.02716232
0.01647554 0.01647554 0.14689668
0.07896956 0.07896956 0.35699634
0.20678716 0.20678716 0.75007385
0.00000011 0.00000011 0.00000011
0.00000011 0.00000011 0.00000011
0.00000011 0.00000011 0.00000011
0.00000011 0.00000011 0.00000011
0.00000011 0.00000011 0.00000011
0.00183258 0.00183258 0.02716232
0.01647554 0.01647554 0.14689668
0.07896956 0.07896956 0.35699634
0.20678716 0.20678716 0.75007385
0.00000011 0.00000011 0.00000011
0.00000011 0.00000011 0.00000011
0.00000011 0.00000011 0.00000011
0.00000011 0.00000011 0.00000011
0.00000011 0.00000011 0.00000011
0.00183258 0.00183258 0.02716232
0.01647554 0.01647554 0.14689668
0.07896956 0.07896956 0.35699634
0.20678716 0.20678716 0.75007385
0.00000011 0.00000011 0.00000011
0.00000011 0.00000011 0.00000011
0.00000011 0.00000011 0.00000011
0.00000011 0.00000011 0.00000011
0.00000011 0.00000011 0.00000011
0.00183258 0.00183258 0.02716232
0.01647554 0.01647554 0.14689668
0.07896956 0.07896956 0.35699634
0.20678716 0.20678716 0.75007385
0.00000011 0.00000011 0.00000011
0.00000011 0.00000011 0.00000011
0.00000011 0.00000011 0.00000011
0.00000011 0.00000011 0.00000011
0.00000011 0.00000011 0.00000011
0.00183258 0.00183258 0.02716232
0.01647554 0.01647554 0.14689668
0.07896956 0.07896956 0.35699634
0.20678716 0.20678716 0.75007385
0.00372726 0.03015614 0.00372726
0.00372726 0.03015614 0.00372726
0.00372726 0.03015614 0.00372726
0.00372726 0.03015614 0.00372726
0.00372726 0.03015614 0.00372726
0.00322226 0.02607022 0.02199557
0.01593794 0.02622590 0.14412514
0.07847138 0.07847138 0.35546426
0.20650121 0.20650121 0.74919446
0.03348743 0.15582666 0.03348743
0.03348743 0.15582666 0.03348743
0.03348743 0.15582666 0.03348743
0.03348743 0.15582666 0.03348743
0.03348743 0.15582666 0.03348743
0.03261930 0.15353190 0.03735457
0.02897330 0.14348325 0.12994819
0.07630617 0.14122761 0.34880560
0.20527655 0.20527655 0.74542827
0.12504413 0.37524030 0.12504413
0.12504413 0.37524030 0.12504413
0.12504413 0.37524030 0.12504413
0.12504413 0.37524030 0.12504413
0.12504413 0.37524030 0.12504413
0.12451221 0.37396919 0.12451220
0.12222479 0.36850309 0.15358192
0.11451421 0.35007759 0.32210446
0.20098902 0.34522082 0.73224283
0.29700396 0.78616220 0.29700396
0.29700396 0.78616220 0.29700396
0.29700396 0.78616220 0.29700396
0.29700396 0.78616220 0.29700396
0.29700396 0.78616220 0.29700396
0.29669801 0.78543109 0.29669801
0.29538838 0.78230153 0.29538837
0.29104717 0.77192762 0.36296139
0.27642339 0.73698208 0.67868042
0.00000011 0.00000011 0.00000011
0.00000011 0.00000011 0.00000011
0.00000011 0.00000011 0.00000011
0.00000011 0.00000011 0.00000011
0.00000011 0.00000011 0.00000011
0.00183258 0.00183258 0.02716232
0.01647554 0.01647554 0.14689668
0.07896956 0.07896956 0.35699634
0.20678716 0.20678716 0.75007385
0.00000011 0.00000011 0.00000011
0.00000011 0.00000011 0.00000011
0.00000011 0.00000011 0.00000011
0.00000011 0.00000011 0.00000011
0.00000011 0.00000011 0.00000011
0.00183258 0.00183258 0.02716232
0.01647554 0.01647554 0.14689668
0.07896956 0.07896956 0.35699634
0.20678716 0.20678716 0.75007385
0.00000011 0.00000011 0.00000011
0.00000011 0.00000011 0.00000011
0.00000011 0.00000011 0.00000011
0.00000011 0.00000011 0.00000011
0.00000011 0.00000011 0.00000011
0.00183258 0.00183258 0.02716232
0.01647554 0.01647554 0.14689668
0.07896956 0.07896956 0.35699634
0.20678716 0.20678716 0.75007385
0.00000011 0.00000011 0.00000011
0.00000011 0.00000011 0.00000011
0.00000011 0.00000011 0.00000011
0.00000011 0.00000011 0.00000011
0.00000011 0.00000011 0.00000011
0.00183258 0.00183258 0.02716232
0.01647554 0.01647554 0.14689668
0.07896956 0.07896956 0.35699634
0.20678716 0.20678716 0.75007385
0.00000011 0.00000011 0.00000011
0.00000011 0.00000011 0.00000011
0.00000011 0.00000011 0.00000011
0.00000011 0.00000011 0.00000011
0.00000011 0.00000011 0.00000011
0.00183258 0.00183258 0.02716232
0.01647554 0.01647554 0.14689668
0.07896956 0.07896956 0.35699634
0.20678716 0.20678716 0.75007385
0.00372726 0.03015614 0.00372726
0.00372726 0.03015614 0.00372726
0.00372726 0.03015614 0.00372726
0.00372726 0.03015614 0.00372726
0.00372726 0.03015614 0.00372726
0.00322226 0.02607022 0.02199557
0.01593794 0.02622590 0.14412514
0.07847138 0.07847138 0.35546426
0.20650121 0.20650121 0.74919446
0.03348743 0.15582666 0.03348743
0.03348743 0.15582666 0.03348743
0.03348743 0.15582666 0.03348743
0.03348743 0.15582666 0.03348743
0.03348743 0.15582666 0.03348743
0.03261930 0.15353190 0.03735457
0.02897330 0.14348325 0.12994819
0.07630617 0.14122761 0.34880560
0.20527655 0.20527655 0.74542827
0.12504413 0.37524030 0.12504413
0.12504413 0.37524030 0.12504413
0.12504413 0.37524030 0.12504413
0.12504413 0.37524030 0.12504413
0.12504413 0.37524030 0.12504413
0.12451221 0.37396919 0.12451220
0.12222479 0.36850309 0.15358192
0.11451421 0.35007759 0.32210446
0.20098902 0.34522082 0.73224283
0.29700396 0.78616220 0.29700396
0.29700396 0.78616220 0.29700396
0.29700396 0.78616220 0.29700396
0.29700396 0.78616220 0.29700396
0.29700396 0.78616220 0.29700396
0.29669801 0.78543109 0.29669801
0.29538838 0.78230153 0.29538837
0.29104717 0.77192762 0.36296139
0.27642339 0.73698208 0.67868042
0.00000011 0.00000011 0.00000011
0.00000011 0.00000011 0.00000011
0.00000011 0.00000011 0.00000011
0.00000011 0.00000011 0.00000011
0.00000011 0.00000011 0.00000011
0.00183258 0.00183258 0.02716232
0.01647554 0.01647554 0.14689668
0.07896956 0.07896956 0.35699634
0.20678716 0.20678716 0.75007385
0.00000011 0.00000011 0.00000011
0.00000011 0.00000011 0.00000011
0.00000011 0.00000011 0.00000011
0.00000011 0.00000011 0.00000011
0.00000011 0.00000011 0.00000011
0.00183258 0.00183258 0.02716232
0.01647554 0.01647554 0.14689668
0.07896956 0.07896956 0.35699634
0.20678716 0.20678716 0.75007385
0.00000011 0.00000011 0.00000011
0.00000011 0.00000011 0.00000011
0.00000011 0.00000011 0.00000011
0.00000011 0.00000011 0.00000011
0.00000011 0.00000011 0.00000011
0.00183258 0.00183258 0.02716232
0.01647554 0.01647554 0.14689668
0.07896956 0.07896956 0.35699634
0.20678716 0.20678716 0.75007385
0.00000011 0.00000011 0.00000011
0.00000011 0.00000011 0.00000011
0.00000011 0.00000011 0.00000011
0.00000011 0.00000011 0.00000011
0.00000011 0.00000011 0.00000011
0.00183258 0.00183258 0.02716232
0.01647554 0.01647554 0.14689668
0.07896956 0.07896956 0.35699634
0.20678716 0.20678716 0.75007385
0.00000011 0.00000011 0.00000011
0.00000011 0.00000011 0.00000011
0.00000011 0.00000011 0.00000011
0.00000011 0.00000011 0.00000011
0.00000011 0.00000011 0.00000011
0.00183258 0.00183258 0.02716232
0.01647554 0.01647554 0.14689668
0.07896956 0.07896956 0.35699634
0.20678716 0.20678716 0.75007385
0.00372726 0.03015614 0.00372726
0.00372726 0.03015614 0.00372726
0.00372726 0.03015614 0.00372726
0.00372726 0.03015614 0.00372726
0.00372726 0.03015614 0.00372726
0.00322226 0.02607022 0.02199557
0.01593794 0.02622590 0.14412514
0.07847138 0.07847138 0.35546426
0.20650121 0.20650121 0.74919446
0.03348743 0.15582666 0.03348743
0.03348743 0.15582666 0.03348743
0.03348743 0.15582666 0.03348743
0.03348743 0.15582666 0.03348743
0.03348743 0.15582666 0.03348743
0.03261930 0.15353190 0.03735457
0.02897330 0.14348325 0.12994819
0.07630617 0.14122761 0.34880560
0.20527655 0.20527655 0.74542827
0.12504413 0.37524030 0.12504413
0.12504413 0.37524030 0.12504413
0.12504413 0.37524030 0.12504413
0.12504413 0.37524030 0.12504413
0.12504413 0.37524030 0.12504413
0.12451221 0.37396919 0.12451220
0.12222479 0.36850309 0.15358192
0.11451421 0.35007759 0.32210446
0.20098902 0.34522082 0.73224283
0.29700396 0.78616220 0.29700396
0.29700396 0.78616220 0.29700396
0.29700396 0.78616220 0.29700396
0.29700396 0.78616220 0.29700396
0.29700396 0.78616220 0.29700396
0.29669801 0.78543109 0.29669801
0.29538838 0.78230153 0.29538837
0.29104717 0.77192762 0.36296139
0.27642339 0.73698208 0.67868042
0.00000011 0.00000011 0.00000011
0.00000011 0.00000011 0.00000011
0.00000011 0.00000011 0.00000011
0.00000011 0.00000011 0.00000011
0.00000011 0.00000011 0.00000011
0.00183258 0.00183258 0.02716232
0.01647554 0.01647554 0.14689668
0.07896956 0.07896956 0.35699634
0.20678716 0.20678716 0.75007385
0.00000011 0.00000011 0.00000011
0.00000011 0.00000011 0.00000011
0.00000011 0.00000011 0.00000011
0.00000011 0.00000011 0.00000011
0.00000011 0.00000011 0.00000011
0.00183258 0.00183258 0.02716232
0.01647554 0.01647554 0.14689668
0.07896956 0.07896956 0.35699634
0.20678716 0.20678716 0.75007385
0.00000011 0.00000011 0.00000011
0.00000011 0.00000011 0.00000011
0.00000011 0.00000011 0.00000011
0.00000011 0.00000011 0.00000011
0.00000011 0.00000011 0.00000011
0.00183258 0.00183258 0.02716232
0.01647554 0.01647554 0.14689668
0.07896956 0.07896956 0.35699634
0.20678716 0.20678716 0.75007385
0.00000011 0.00000011 0.00000011
0.00000011 0.00000011 0.00000011
0.00000011 0.00000011 0.00000011
0.00000011 0.00000011 0.00000011
0.00000011 0.00000011 0.00000011
0.00183258 0.00183258 0.02716232
0.01647554 0.01647554 0.14689668
0.07896956 0.07896956 0.35699634
0.20678716 0.20678716 0.75007385
0.00000011 0.00000011 0.00000011
0.00000011 0.00000011 0.00000011
0.00000011 0.00000011 0.00000011
0.00000011 0.00000011 0.00000011
0.00000011 0.00000011 0.00000011
0.00183258 0.00183258 0.02716232
0.01647554 0.01647554 0.14689668
0.07896956 0.07896956 0.35699634
0.20678716 0.20678716 0.75007385
0.00372726 0.03015614 0.00372726
0.00372726 0.03015614 0.00372726
0.00372726 0.03015614 0.00372726
0.00372726 0.03015614 0.00372726
0.00372726 0.03015614 0.00372726
0.00322226 0.02607022 0.02199557
0.01593794 0.02622590 0.14412514
0.07847138 0.07847138 0.35546426
0.20650121 0.20650121 0.74919446
0.03348743 0.15582666 0.03348743
0.03348743 0.15582666 0.03348743
0.03348743 0.15582666 0.03348743
0.03348743 0.15582666 0.03348743
0.03348743 0.15582666 0.03348743
0.03261930 0.15353190 0.03735457
0.02897330 0.14348325 0.12994819
0.07630617 0.14122761 0.34880560
0.20527655 0.20527655 0.74542827
0.12504413 0.37524030 0.12504413
0.12504413 0.37524030 0.12504413
0.12504413 0.37524030 0.12504413
0.12504413 0.37524030 0.12504413
0.12504413 0.37524030 0.12504413
0.12451221 0.37396919 0.12451220
0.12222479 0.36850309 0.15358192
0.11451421 0.35007759 0.32210446
0.20098902 0.34522082 0.73224283
0.29700396 0.78616220 0.29700396
0.29700396 0.78616220 0.29700396
0.29700396 0.78616220 0.29700396
0.29700396 0.78616220 0.29700396
0.29700396 0.78616220 0.29700396
0.29669801 0.78543109 0.29669801
0.29538838 0.78230153 0.29538837
0.29104717 0.77192762 0.36296139
0.27642339 0.73698208 0.67868042
0.04594510 0.00571836 0.00571836
0.04594510 0.00571836 0.00571836
0.04594510 0.00571836 0.00571836
0.04594510 0.00571836 0.00571836
0.04594510 0.00571836 0.00571836
0.04248205 0.00525880 0.02723552
0.04334097 0.01638726 0.14644523
0.07888838 0.07888838 0.35674666
0.20674052 0.20674052 0.74993040
0.04594510 0.00571836 0.00571836
0.04594510 0.00571836 0.00571836
0.04594510 0.00571836 0.00571836
0.04594510 0.00571836 0.00571836
0.04594510 0.00571836 0.00571836
0.04248205 0.00525880 0.02723552
0.04334097 0.01638726 0.14644523
0.07888838 0.07888838 0.35674666
0.20674052 0.20674052 0.74993040
0.04594510 0.00571836 0.00571836
0.04594510 0.00571836 0.00571836
0.04594510 0.00571836 0.00571836
0.04594510 0.00571836 0.00571836
0.04594510 0.00571836 0.00571836
0.04248205 0.00525880 0.02723552
0.04334097 0.01638726 0.14644523
0.07888838 0.07888838 0.35674666
0.20674052 0.20674052 0.74993040
0.04594510 0.00571836 0.00571836
0.04594510 0.00571836 0.00571836
0.04594510 0.00571836 0.00571836
0.04594510 0.00571836 0.00571836
0.04594510 0.00571836 0.00571836
0.04248205 0.00525880 0.02723552
0.04334097 0.01638726 0.14644523
0.07888838 0.07888838 0.35674666
0.20674052 0.20674052 0.74993040
0.04594510 0.00571836 0.00571836
0.04594510 0.00571836 0.00571836
0.04594510 0.00571836 0.00571836
0.04594510 0.00571836 0.00571836
0.04594510 0.00571836 0.00571836
0.04248205 0.00525880 0.02723552
0.04334097 0.01638726 0.14644523
0.07888838 0.07888838 0.35674666
0.20674052 0.20674052 0.74993040
0.02439489 0.02506395 0.00309789
0.02439489 0.02506395 0.00309789
0.02439489 0.02506395 0.00309789
0.02439489 0.02506395 0.00309789
0.02439489 0.02506395 0.00309789
0.02370113 0.02372797 0.02334081
0.02515010 0.02284982 0.14383672
0.07838994 0.07838994 0.35521381
0.20645452 0.20645452 0.74905089
0.03240147 0.15295054 0.03240147
0.03240147 0.15295054 0.03240147
0.03240147 0.15295054 0.03240147
0.03240147 0.15295054 0.03240147
0.03240147 0.15295054 0.03240147
0.03154025 0.15062941 0.03584166
0.02792495 0.14045863 0.12913466
0.07622465 0.13850628 0.34855490
0.20522968 0.20522968 0.74528413
0.12437800 0.37364850 0.12437800
0.12437800 0.37364850 0.12437800
0.12437800 0.37364850 0.12437800
0.12437800 0.37364850 0.12437800
0.12437800 0.37364850 0.12437800
0.12384445 0.37237350 0.12384445
0.12154992 0.36689039 0.15275559
0.11381406 0.34840449 0.32165607
0.20094460 0.34369133 0.73210622
0.29662091 0.78524684 0.29662091
0.29662091 0.78524684 0.29662091
0.29662091 0.78524684 0.29662091
0.29662091 0.78524684 0.29662091
0.29662091 0.78524684 0.29662091
0.29631468 0.78451507 0.29631468
0.29500387 0.78138269 0.29500386
0.29065869 0.77099929 0.36249990
0.27602083 0.73602010 0.67843225
0.19684156 0.05038906 0.05038906
0.19684156 0.05038906 0.05038906
0.19684156 0.05038906 0.05038906
0.19684156 0.05038906 0.05038906
0.19684156 0.05038906 0.05038906
0.19522822 0.04971392 0.06482266
0.18824231 0.04679051 0.14709067
0.18822509 0.07852906 0.35564165
0.22056072 0.20653627 0.74930229
0.19684156 0.05038906 0.05038906
0.19684156 0.05038906 0.05038906
0.19684156 0.05038906 0.05038906
0.19684156 0.05038906 0.05038906
0.19684156 0.05038906 0.05038906
0.19522822 0.04971392 0.06482266
0.18824231 0.04679051 0.14709067
0.18822509 0.07852906 0.35564165
0.22056072 0.20653627 0.74930229
0.19684156 0.05038906 0.05038906
0.19684156 0.05038906 0.05038906
0.19684156 0.05038906 0.05038906
0.19684156 0.05038906 0.05038906
0.19684156 0.05038906 0.05038906
0.19522822 0.04971392 0.06482266
0.18824231 0.04679051 0.14709067
0.18822509 0.07852906 0.35564165
0.22056072 0.20653627 0.74930229
0.19684156 0.05038906 0.05038906
0.19684156 0.05038906 0.05038906
0.19684156 0.05038906 0.05038906
0.19684156 0.05038906 0.05038906
0.19684156 0.05038906 0.05038906
0.19522822 0.04971392 0.06482266
0.18824231 0.04679051 0.14709067
0.18822509 0.07852906 0.35564165
0.22056072 0.20653627 0.74930229
0.19684156 0.05038906 0.05038906
0.19684156 0.05038906 0.05038906
0.19684156 0.05038906 0.05038906
0.19684156 0.05038906 0.05038906
0.19684156 0.05038906 0.05038906
0.19522822 0.04971392 0.06482266
0.18824231 0.04679051 0.14709067
0.18822509 0.07852906 0.35564165
0.22056072 0.20653627 0.74930229
0.18656860 0.05103275 0.04609010
0.18656860 0.05103275 0.04609010
0.18656860 0.05103275 0.04609010
0.18656860 0.05103275 0.04609010
0.18656860 0.05103275 0.04609010
0.18502193 0.04873480 0.05883225
0.17765520 0.04236009 0.14312915
0.17826496 0.07803105 0.35411014
0.21497055 0.20625199 0.74842805
0.13819034 0.14027311 0.02786138
0.13819034 0.14027311 0.02786138
0.13819034 0.14027311 0.02786138
0.13819034 0.14027311 0.02786138
0.13819034 0.14027311 0.02786138
0.13625379 0.13796038 0.02996570
0.13593218 0.13594593 0.13460592
0.13515183 0.12962207 0.34844539
0.20502936 0.20502936 0.74466809
0.12150873 0.36679197 0.12150873
0.12150873 0.36679197 0.12150873
0.12150873 0.36679197 0.12150873
0.12150873 0.36679197 0.12150873
0.12150873 0.36679197 0.12150873
0.12096802 0.36549987 0.12096802
0.11864227 0.35994216 0.14919405
0.11079534 0.34119082 0.31973886
0.20075460 0.33712033 0.73152190
0.29498043 0.78132669 0.29498043
0.29498043 0.78132669 0.29498043
0.29498043 0.78132669 0.29498043
0.29498043 0.78132669 0.29498043
0.29498043 0.78132669 0.29498043
0.29467302 0.78059210 0.29467302
0.29335712 0.77744757 0.29335712
0.28899484 0.76702328 0.36052332
0.27429632 0.73189915 0.67737162
0.45947878 0.16029568 0.16029568
0.45947878 0.16029568 0.16029568
0.45947878 0.16029568 0.16029568
0.45947878 0.16029568 0.16029568
0.45947878 0.16029568 0.16029568
0.45858091 0.15991994 0.16339001
0.45474630 0.15831526 0.20808340
0.44199039 0.15297726 0.35732313
0.44171893 0.20575022 0.74688495
0.45947878 0.16029568 0.16029568
0.45947878 0.16029568 0.16029568
0.45947878 0.16029568 0.16029568
0.45947878 0.16029568 0.16029568
0.45947878 0.16029568 0.16029568
0.45858091 0.15991994 0.16339001
0.45474630 0.15831526 0.20808340
0.44199039 0.15297726 0.35732313
0.44171893 0.20575022 0.74688495
0.45947878 0.16029568 0.16029568
0.45947878 0.16029568 0.16029568
0.45947878 0.16029568 0.16029568
0.45947878 0.16029568 0.16029568
0.45947878 0.16029568 0.16029568
0.45858091 0.15991994 0.16339001
0.45474630 0.15831526 0.20808340
0.44199039 0.15297726 0.35732313
0.44171893 0.20575022 0.74688495
0.45947878 0.16029568 0.16029568
0.45947878 0.16029568 0.16029568
0.45947878 0.16029568 0.16029568
0.45947878 0.16029568 0.16029568
0.45947878 0.16029568 0.16029568
0.45858091 0.15991994 0.16339001
0.45474630 0.15831526 0.20808340
0.44199039 0.15297726 0.35732313
0.44171893 0.20575022 0.74688495
0.45947878 0.16029568 0.16029568
0.45947878 0.16029568 0.16029568
0.45947878 0.16029568 0.16029568
0.45947878 0.16029568 0.16029568
0.45947878 0.16029568 0.16029568
0.45858091 0.15991994 0.16339001
0.45474630 0.15831526 0.20808340
0.44199039 0.15297726 0.35732313
0.44171893 0.20575022 0.74688495
0.45381488 0.15792549 0.15792549
0.45381488 0.15792549 0.15792549
0.45381488 0.15792549 0.15792549
0.45381488 0.15792549 0.15792549
0.45381488 0.15792549 0.15792549
0.45290849 0.15754619 0.16007055
0.44903816 0.15592656 0.20475545
0.43615981 0.15053731 0.35513224
0.43617400 0.20546800 0.74601703
0.42913612 0.17874012 0.14759808
0.42913612 0.17874012 0.14759808
0.42913612 0.17874012 0.14759808
0.42913612 0.17874012 0.14759808
0.42913612 0.17874012 0.14759808
0.42818499 0.17700377 0.14720007
0.42521120 0.17271253 0.19291164
0.41087626 0.14700078 0.34601674
0.41199050 0.20425872 0.74229813
0.34026568 0.34353375 0.11177579
0.34026568 0.34353375 0.11177579
0.34026568 0.34353375 0.11177579
0.34026568 0.34353375 0.11177579
0.34026568 0.34353375 0.11177579
0.33910793 0.34217967 0.11120914
0.33546841 0.33767206 0.14060393
0.33555902 0.33479314 0.33168782
0.33243945 0.32154279 0.73171903
0.28953325 0.76830990 0.28953325
0.28953325 0.76830990 0.28953325
0.28953325 0.76830990 0.28953325
0.28953325 0.76830990 0.28953325
0.28953325 0.76830990 0.28953325
0.28922184 0.76756575 0.28922184
0.28788874 0.76438011 0.28788874
0.28346856 0.75381747 0.35395745
0.26856446 0.71820206 0.67387534
0.95670308 0.36837077 0.36837077
0.95670308 0.36837077 0.36837077
0.95670308 0.36837077 0.36837077
0.95670308 0.36837077 0.36837077
0.95670308 0.36837077 0.36837077
0.95617539 0.36814994 0.36814994
0.95395259 0.36721976 0.38323678
0.94671514 0.36419108 0.47014851
0.92293280 0.35423881 0.75015029
0.95670308 0.36837077 0.36837077
0.95670308 0.36837077 0.36837077
0.95670308 0.36837077 0.36837077
0.95670308 0.36837077 0.36837077
0.95670308 0.36837077 0.36837077
0.95617539 0.36814994 0.36814994
0.95395259 0.36721976 0.38323678
0.94671514 0.36419108 0.47014851
0.92293280 0.35423881 0.75015029
0.95670308 0.36837077 0.36837077
0.95670308 0.36837077 0.36837077
0.95670308 0.36837077 0.36837077
0.95670308 0.36837077 0.36837077
0.95670308 0.36837077 0.36837077
0.95617539 0.36814994 0.36814994
0.95395259 0.36721976 0.38323678
0.94671514 0.36419108 0.47014851
0.92293280 0.35423881 0.75015029
0.95670308 0.36837077 0.36837077
0.95670308 0.36837077 0.36837077
0.95670308 0.36837077 0.36837077
0.95670308 0.36837077 0.36837077
0.95670308 0.36837077 0.36837077
0.95617539 0.36814994 0.36814994
0.95395259 0.36721976 0.38323678
0.94671514 0.36419108 0.47014851
0.92293280 0.35423881 0.75015029
0.95670308 0.36837077 0.36837077
0.95670308 0.36837077 0.36837077
0.95670308 0.36837077 0.36837077
0.95670308 0.36837077 0.36837077
0.95670308 0.36837077 0.36837077
0.95617539 0.36814994 0.36814994
0.95395259 0.36721976 0.38323678
0.94671514 0.36419108 0.47014851
0.92293280 0.35423881 0.75015029
0.95338872 0.36698379 0.36698379
0.95338872 0.36698379 0.36698379
0.95338872 0.36698379 0.36698379
0.95338872 0.36698379 0.36698379
0.95338872 0.36698379 0.36698379
0.95285973 0.36676243 0.36676242
0.95062970 0.36582922 0.38122153
0.94337192 0.36279203 0.46825414
0.91952047 0.35281084 0.74889264
0.93913464 0.36101884 0.36101884
0.93913464 0.36101884 0.36101884
0.93913464 0.36101884 0.36101884
0.93913464 0.36101884 0.36101884
0.93913464 0.36101884 0.36101884
0.93859993 0.36079508 0.36079508
0.93633879 0.35984885 0.37258442
0.92899211 0.35677447 0.46009803
0.90483842 0.34666679 0.74350614
0.89245936 0.41372343 0.34148648
0.89245936 0.41372343 0.34148648
0.89245936 0.41372343 0.34148648
0.89245936 0.41372343 0.34148648
0.89245936 0.41372343 0.34148648
0.89188563 0.41271276 0.34124639
0.88962473 0.40889232 0.34523332
0.88415600 0.40147214 0.43920098
0.85655245 0.35116349 0.72673875
0.72741527 0.72457662 0.27248657
0.72741527 0.72457662 0.27248657
0.72741527 0.72457662 0.27248657
0.72741527 0.72457662 0.27248657
0.72741527 0.72457662 0.27248657
0.72675556 0.72382777 0.27214387
0.72383499 0.72054490 0.27092169
0.71740420 0.71284678 0.34122917
0.71669797 0.70769854 0.69808597
