luts/S9_VLog_to_m9_ccd_soft.cube
TITLE "Panasonic S9 V-Log to Leica M9 CCD Soft — S9 V-Log v1"
#LUMIXPHOTOSTYLE VLOG
# Film Emulation LUT
# Generated by lutex.py
# Grid: 33^3
LUT_3D_SIZE 5
DOMAIN_MIN 0.0 0.0 0.0
DOMAIN_MAX 1.0 1.0 1.0
0.03399313 0.03375161 0.03170326
0.24368846 0.04486536 0.02295799
0.84858246 0.16467854 0.00000000
1.00000000 0.23264871 0.10755454
1.00000000 0.23224768 0.10668902
0.01422688 0.07877289 0.00973622
0.19370163 0.19505168 0.02615009
0.83762758 0.16203332 0.00000000
1.00000000 0.23265010 0.10755755
1.00000000 0.23224768 0.10668904
0.22060176 0.69263417 0.14631482
0.21946682 0.68938237 0.14553651
0.67681230 0.68021043 0.00000000
1.00000000 0.23266902 0.10759826
1.00000000 0.23224775 0.10668919
0.33121374 0.96669210 0.23645865
0.33121384 0.96669221 0.23645871
0.33121518 0.96669364 0.23645953
0.98262366 0.98630681 0.20180481
1.00000000 0.23224857 0.10669095
0.33112820 0.96660117 0.23640674
0.33112820 0.96660117 0.23640674
0.33112821 0.96660118 0.23640674
0.33112826 0.96660124 0.23640678
0.98324488 0.98628060 0.20116521
0.00000000 0.00000000 0.00000000
0.23664463 0.02549789 0.19209204
0.84694246 0.03776725 0.00000000
1.00000000 0.23264893 0.10755502
1.00000000 0.23224768 0.10668903
0.02827542 0.19785653 0.18159062
0.18277579 0.18203442 0.17822241
0.83596056 0.07132171 0.00000000
1.00000000 0.23265033 0.10755803
1.00000000 0.23224768 0.10668904
0.21969569 0.69003817 0.14569344
0.21855582 0.68677159 0.14491192
0.67452941 0.67747094 0.00000000
1.00000000 0.23266926 0.10759878
1.00000000 0.23224776 0.10668919
0.33121382 0.96669219 0.23645870
0.33121392 0.96669230 0.23645876
0.33121527 0.96669373 0.23645958
0.98269363 0.98630415 0.20182527
1.00000000 0.23224857 0.10669096
0.33112820 0.96660117 0.23640674
0.33112820 0.96660117 0.23640674
0.33112821 0.96660118 0.23640675
0.33112826 0.96660124 0.23640678
0.98325101 0.98628037 0.20116694
0.00022316 0.00000000 0.65269367
0.06107581 0.00000000 0.65214521
0.82414539 0.00000000 0.68019487
1.00000000 0.17214767 0.10770973
1.00000000 0.23224769 0.10668905
0.00022277 0.00000000 0.64939485
0.00022270 0.00000000 0.64885468
0.81278945 0.00000000 0.67717624
1.00000000 0.17285575 0.10771213
1.00000000 0.23224769 0.10668906
0.00000000 0.68997765 0.64207823
0.00000000 0.68660235 0.64160105
0.64232269 0.63906042 0.63261019
1.00000000 0.18214967 0.10774463
1.00000000 0.23224777 0.10668922
0.33121489 0.96669332 0.23645935
0.33121499 0.96669344 0.23645941
0.33121636 0.96669489 0.23646024
0.98361135 0.98626925 0.20209371
1.00000000 0.23224858 0.10669098
0.33112821 0.96660118 0.23640674
0.33112821 0.96660118 0.23640674
0.33112821 0.96660118 0.23640675
0.33112827 0.96660124 0.23640678
0.98333074 0.98627733 0.20118939
0.00002687 0.00000000 0.97720328
0.00002687 0.00000000 0.97720330
0.15457127 0.00000000 0.97714221
1.00000000 0.11035223 0.79904900
1.00000000 0.17767049 0.10677207
0.00002690 0.00000000 0.97720342
0.00002691 0.00000000 0.97720344
0.14648756 0.00000000 0.97714788
1.00000000 0.11036209 0.79987452
1.00000000 0.17774911 0.10677199
0.00002731 0.00000000 0.97720527
0.00002732 0.00000000 0.97720530
0.00002738 0.00000000 0.97720561
1.00000000 0.11049564 0.81094785
1.00000000 0.17876692 0.10677087
0.09171054 0.99699020 0.92161904
0.09179106 0.99698543 0.92204096
0.09284654 0.99692253 0.92757549
1.00000000 0.99446192 0.99296241
1.00000000 0.18952330 0.10675877
0.33112825 0.96660123 0.23640677
0.33112825 0.96660123 0.23640677
0.33112826 0.96660123 0.23640677
0.33112831 0.96660129 0.23640681
0.98420430 0.98624403 0.20143542
0.00000114 0.00000000 0.97708694
0.00000114 0.00000000 0.97708694
0.00000114 0.00000000 0.97708695
0.13206158 0.00000000 0.97704018
1.00000000 0.10951250 0.81750850
0.00000114 0.00000000 0.97708694
0.00000114 0.00000000 0.97708694
0.00000114 0.00000000 0.97708695
0.13125297 0.00000000 0.97704066
1.00000000 0.10951310 0.81758357
0.00000114 0.00000000 0.97708695
0.00000114 0.00000000 0.97708695
0.00000114 0.00000000 0.97708695
0.12048981 0.00000000 0.97704683
1.00000000 0.10952092 0.81856055
0.00000115 0.00000000 0.97708703
0.00000115 0.00000000 0.97708703
0.00000115 0.00000000 0.97708703
0.00000116 0.00000000 0.97708704
1.00000000 0.10960939 0.82950381
0.09265639 0.99681377 0.93732259
0.09266342 0.99681334 0.93736007
0.09275478 0.99680770 0.93784679
0.09375523 0.99674563 0.94318048
0.98888257 0.98008410 0.99020439
