luts/S9_VLog_to_m9_ccd_soft.cube
TITLE "Panasonic S9 V-Log to Leica M9 CCD Soft — S9 V-Log v1"
#LUMIXPHOTOSTYLE VLOG
# Film Emulation LUT
# Generated by lutex.py
# Grid: 33^3
LUT_3D_SIZE 33
DOMAIN_MIN 0.0 0.0 0.0
DOMAIN_MAX 1.0 1.0 1.0
0.03399313 0.03375161 0.03170326
0.03399313 0.03375161 0.03170326
0.03399313 0.03375161 0.03170326
0.03399313 0.03375161 0.03170326
0.03399313 0.03375161 0.03170326
0.10889144 0.03600018 0.03001603
0.15812363 0.03847689 0.02809231
0.20047003 0.04134168 0.02585069
0.24368846 0.04486536 0.02295799
0.28921299 0.04919041 0.01920695
0.33874835 0.05453992 0.01425649
0.40128044 0.06212154 0.00663869
0.47087672 0.07382246 0.00000000
0.54850765 0.09240432 0.00000000
0.63627579 0.11349063 0.00000000
0.73572094 0.13744404 0.00000000
0.84858246 0.16467854 0.00000000
0.97113699 0.19428972 0.00000000
1.00000000 0.23719111 0.11704803
1.00000000 0.23549998 0.11357691
1.00000000 0.23437795 0.11123355
1.00000000 0.23364591 0.10968642
1.00000000 0.23316846 0.10866927
1.00000000 0.23285539 0.10799876
1.00000000 0.23264871 0.10755454
1.00000000 0.23251137 0.10725868
1.00000000 0.23241960 0.10706065
1.00000000 0.23235798 0.10692756
1.00000000 0.23231645 0.10683780
1.00000000 0.23228838 0.10677710
1.00000000 0.23226936 0.10673595
1.00000000 0.23225645 0.10670802
1.00000000 0.23224768 0.10668902
0.03399313 0.03375161 0.03170326
0.03399313 0.03375161 0.03170326
0.03399313 0.03375161 0.03170326
0.03399313 0.03375161 0.03170326
0.03399313 0.03375161 0.03170326
0.10889144 0.03600018 0.03001603
0.15812363 0.03847689 0.02809231
0.20047003 0.04134168 0.02585069
0.24368846 0.04486536 0.02295799
0.28921299 0.04919041 0.01920695
0.33874835 0.05453992 0.01425649
0.40128044 0.06212154 0.00663869
0.47087672 0.07382246 0.00000000
0.54850765 0.09240432 0.00000000
0.63627579 0.11349063 0.00000000
0.73572094 0.13744404 0.00000000
0.84858246 0.16467854 0.00000000
0.97113699 0.19428972 0.00000000
1.00000000 0.23719111 0.11704803
1.00000000 0.23549998 0.11357691
1.00000000 0.23437795 0.11123355
1.00000000 0.23364591 0.10968642
1.00000000 0.23316846 0.10866927
1.00000000 0.23285539 0.10799876
1.00000000 0.23264871 0.10755454
1.00000000 0.23251137 0.10725868
1.00000000 0.23241960 0.10706065
1.00000000 0.23235798 0.10692756
1.00000000 0.23231645 0.10683780
1.00000000 0.23228838 0.10677710
1.00000000 0.23226936 0.10673595
1.00000000 0.23225645 0.10670802
1.00000000 0.23224768 0.10668902
0.03399313 0.03375161 0.03170326
0.03399313 0.03375161 0.03170326
0.03399313 0.03375161 0.03170326
0.03399313 0.03375161 0.03170326
0.03399313 0.03375161 0.03170326
0.10889144 0.03600018 0.03001603
0.15812363 0.03847689 0.02809231
0.20047003 0.04134168 0.02585069
0.24368846 0.04486536 0.02295799
0.28921299 0.04919041 0.01920695
0.33874835 0.05453992 0.01425649
0.40128044 0.06212154 0.00663869
0.47087672 0.07382246 0.00000000
0.54850765 0.09240432 0.00000000
0.63627579 0.11349063 0.00000000
0.73572094 0.13744404 0.00000000
0.84858246 0.16467854 0.00000000
0.97113699 0.19428972 0.00000000
1.00000000 0.23719111 0.11704803
1.00000000 0.23549998 0.11357691
1.00000000 0.23437795 0.11123355
1.00000000 0.23364591 0.10968642
1.00000000 0.23316846 0.10866927
1.00000000 0.23285539 0.10799876
1.00000000 0.23264871 0.10755454
1.00000000 0.23251137 0.10725868
1.00000000 0.23241960 0.10706065
1.00000000 0.23235798 0.10692756
1.00000000 0.23231645 0.10683780
1.00000000 0.23228838 0.10677710
1.00000000 0.23226936 0.10673595
1.00000000 0.23225645 0.10670802
1.00000000 0.23224768 0.10668902
0.03399313 0.03375161 0.03170326
0.03399313 0.03375161 0.03170326
0.03399313 0.03375161 0.03170326
0.03399313 0.03375161 0.03170326
0.03399313 0.03375161 0.03170326
0.10889144 0.03600018 0.03001603
0.15812363 0.03847689 0.02809231
0.20047003 0.04134168 0.02585069
0.24368846 0.04486536 0.02295799
0.28921299 0.04919041 0.01920695
0.33874835 0.05453992 0.01425649
0.40128044 0.06212154 0.00663869
0.47087672 0.07382246 0.00000000
0.54850765 0.09240432 0.00000000
0.63627579 0.11349063 0.00000000
0.73572094 0.13744404 0.00000000
0.84858246 0.16467854 0.00000000
0.97113699 0.19428972 0.00000000
1.00000000 0.23719111 0.11704803
1.00000000 0.23549998 0.11357691
1.00000000 0.23437795 0.11123355
1.00000000 0.23364591 0.10968642
1.00000000 0.23316846 0.10866927
1.00000000 0.23285539 0.10799876
1.00000000 0.23264871 0.10755454
1.00000000 0.23251137 0.10725868
1.00000000 0.23241960 0.10706065
1.00000000 0.23235798 0.10692756
1.00000000 0.23231645 0.10683780
1.00000000 0.23228838 0.10677710
1.00000000 0.23226936 0.10673595
1.00000000 0.23225645 0.10670802
1.00000000 0.23224768 0.10668902
0.03399313 0.03375161 0.03170326
0.03399313 0.03375161 0.03170326
0.03399313 0.03375161 0.03170326
0.03399313 0.03375161 0.03170326
0.03399313 0.03375161 0.03170326
0.10889144 0.03600018 0.03001603
0.15812363 0.03847689 0.02809231
0.20047003 0.04134168 0.02585069
0.24368846 0.04486536 0.02295799
0.28921299 0.04919041 0.01920695
0.33874835 0.05453992 0.01425649
0.40128044 0.06212154 0.00663869
0.47087672 0.07382246 0.00000000
0.54850765 0.09240432 0.00000000
0.63627579 0.11349063 0.00000000
0.73572094 0.13744404 0.00000000
0.84858246 0.16467854 0.00000000
0.97113699 0.19428972 0.00000000
1.00000000 0.23719111 0.11704803
1.00000000 0.23549998 0.11357691
1.00000000 0.23437795 0.11123355
1.00000000 0.23364591 0.10968642
1.00000000 0.23316846 0.10866927
1.00000000 0.23285539 0.10799876
1.00000000 0.23264871 0.10755454
1.00000000 0.23251137 0.10725868
1.00000000 0.23241960 0.10706065
1.00000000 0.23235798 0.10692756
1.00000000 0.23231645 0.10683780
1.00000000 0.23228838 0.10677710
1.00000000 0.23226936 0.10673595
1.00000000 0.23225645 0.10670802
1.00000000 0.23224768 0.10668902
0.00000000 0.00000000 0.00000000
0.00000000 0.00000000 0.00000000
0.00000000 0.00000000 0.00000000
0.00000000 0.00000000 0.00000000
0.00000000 0.00000000 0.00000000
0.08137804 0.08213908 0.03077495
0.14167556 0.07679588 0.02881099
0.18860286 0.06757230 0.02653463
0.23465239 0.05254683 0.02361480
0.28212688 0.04847820 0.01983998
0.33243161 0.05382327 0.01493985
0.39585102 0.06143040 0.00736279
0.46642864 0.07276050 0.00000000
0.54478495 0.09151150 0.00000000
0.63315104 0.11273888 0.00000000
0.73309239 0.13681028 0.00000000
0.84636764 0.16414371 0.00000000
0.96895414 0.19376205 0.00000000
1.00000000 0.23721181 0.11709009
1.00000000 0.23551036 0.11359842
1.00000000 0.23438299 0.11124415
1.00000000 0.23364835 0.10969159
1.00000000 0.23316964 0.10867179
1.00000000 0.23285596 0.10799999
1.00000000 0.23264899 0.10755515
1.00000000 0.23251151 0.10725898
1.00000000 0.23241967 0.10706081
1.00000000 0.23235802 0.10692764
1.00000000 0.23231647 0.10683784
1.00000000 0.23228839 0.10677711
1.00000000 0.23226937 0.10673596
1.00000000 0.23225645 0.10670802
1.00000000 0.23224768 0.10668903
0.00000000 0.00000000 0.00000000
0.00000000 0.00000000 0.00000000
0.00000000 0.00000000 0.00000000
0.00000000 0.00000000 0.00000000
0.00000000 0.00000000 0.00000000
0.00000000 0.00000000 0.00000000
0.12240971 0.12339109 0.02951426
0.17560500 0.12028783 0.02722860
0.22506451 0.11279657 0.02427625
0.27474194 0.10152333 0.02047586
0.32659892 0.08334539 0.01555490
0.39029966 0.06072985 0.00809062
0.46190155 0.07168006 0.00000000
0.54100757 0.09060572 0.00000000
0.62998723 0.11197780 0.00000000
0.73043513 0.13616963 0.00000000
0.84413118 0.16360367 0.00000000
0.96675866 0.19323134 0.00000000
1.00000000 0.23723279 0.11713270
1.00000000 0.23552085 0.11362018
1.00000000 0.23438808 0.11125487
1.00000000 0.23365081 0.10969681
1.00000000 0.23317084 0.10867434
1.00000000 0.23285655 0.10800124
1.00000000 0.23264928 0.10755577
1.00000000 0.23251165 0.10725929
1.00000000 0.23241974 0.10706096
1.00000000 0.23235805 0.10692771
1.00000000 0.23231649 0.10683788
1.00000000 0.23228840 0.10677713
1.00000000 0.23226937 0.10673597
1.00000000 0.23225646 0.10670802
1.00000000 0.23224768 0.10668903
0.00000000 0.00000000 0.00000000
0.00000000 0.00000000 0.00000000
0.00000000 0.00000000 0.00000000
0.00000000 0.00000000 0.00000000
0.00000000 0.00000000 0.00000000
0.00000000 0.00000000 0.00000000
0.00000000 0.00000000 0.00000000
0.15769367 0.15886029 0.02804538
0.21245350 0.15639457 0.02509980
0.26525463 0.14907123 0.02126325
0.31921313 0.13828345 0.01631158
0.38335109 0.12210750 0.00897803
0.45626124 0.09558845 0.00000000
0.53631391 0.08948045 0.00000000
0.62606574 0.11103454 0.00000000
0.72714736 0.13537702 0.00000000
0.84136762 0.16293637 0.00000000
0.96405800 0.19257852 0.00000000
1.00000000 0.23725882 0.11718555
1.00000000 0.23553386 0.11364714
1.00000000 0.23439438 0.11126812
1.00000000 0.23365384 0.10970326
1.00000000 0.23317231 0.10867748
1.00000000 0.23285726 0.10800278
1.00000000 0.23264963 0.10755653
1.00000000 0.23251183 0.10725966
1.00000000 0.23241982 0.10706114
1.00000000 0.23235809 0.10692781
1.00000000 0.23231651 0.10683792
1.00000000 0.23228841 0.10677716
1.00000000 0.23226938 0.10673598
1.00000000 0.23225646 0.10670803
1.00000000 0.23224768 0.10668903
0.01422688 0.07877289 0.00973622
0.01422688 0.07877289 0.00973622
0.01422688 0.07877289 0.00973622
0.01422688 0.07877289 0.00973622
0.01422688 0.07877289 0.00973622
0.01280159 0.07243314 0.00880247
0.01133841 0.06557021 0.00783463
0.03059026 0.05628080 0.00660026
0.19370163 0.19505168 0.02615009
0.25168398 0.19297249 0.02233458
0.30886211 0.18544248 0.01733804
0.37375965 0.17473297 0.01017092
0.44854549 0.15901427 0.00000000
0.52992904 0.13821697 0.00000000
0.62073700 0.10975297 0.00000000
0.72269031 0.13430258 0.00000000
0.83762758 0.16203332 0.00000000
0.96042493 0.19170034 0.00000000
1.00000000 0.23729422 0.11725742
1.00000000 0.23555152 0.11368374
1.00000000 0.23440292 0.11128607
1.00000000 0.23365795 0.10971199
1.00000000 0.23317430 0.10868173
1.00000000 0.23285823 0.10800486
1.00000000 0.23265010 0.10755755
1.00000000 0.23251206 0.10726017
1.00000000 0.23241994 0.10706140
1.00000000 0.23235815 0.10692793
1.00000000 0.23231654 0.10683799
1.00000000 0.23228843 0.10677719
1.00000000 0.23226939 0.10673600
1.00000000 0.23225646 0.10670804
1.00000000 0.23224768 0.10668904
0.03578034 0.15314759 0.02289619
0.03578034 0.15314759 0.02289619
0.03578034 0.15314759 0.02289619
0.03578034 0.15314759 0.02289619
0.03578034 0.15314759 0.02289619
0.03464574 0.14984831 0.02224268
0.03349305 0.14644723 0.02157486
0.04709598 0.14214065 0.02073763
0.09536682 0.13611175 0.01958128
0.23163128 0.23316677 0.02369280
0.29409173 0.23133624 0.01873410
0.36038231 0.22349707 0.01177393
0.43776003 0.21254488 0.00143458
0.52118972 0.19873161 0.00000000
0.61350228 0.17888830 0.00000000
0.71663972 0.14466386 0.00000000
0.83255757 0.16080920 0.00000000
0.95554087 0.19051980 0.00000000
1.00000000 0.23734254 0.11735546
1.00000000 0.23557555 0.11373355
1.00000000 0.23441451 0.11131045
1.00000000 0.23366352 0.10972381
1.00000000 0.23317699 0.10868748
1.00000000 0.23285954 0.10800767
1.00000000 0.23265075 0.10755893
1.00000000 0.23251238 0.10726085
1.00000000 0.23242010 0.10706174
1.00000000 0.23235823 0.10692810
1.00000000 0.23231658 0.10683807
1.00000000 0.23228845 0.10677723
1.00000000 0.23226939 0.10673602
1.00000000 0.23225647 0.10670805
1.00000000 0.23224768 0.10668904
0.05752185 0.21487389 0.03612262
0.05752185 0.21487389 0.03612262
0.05752185 0.21487389 0.03612262
0.05752185 0.21487389 0.03612262
0.05752185 0.21487389 0.03612262
0.05675286 0.21264245 0.03561092
0.05596774 0.21036756 0.03509196
0.05498518 0.20752544 0.03444739
0.09086540 0.20362045 0.03356769
0.14794815 0.19821398 0.03236166
0.27235618 0.27407984 0.02049762
0.34142961 0.27243555 0.01392484
0.42270051 0.26428151 0.00362893
0.50913593 0.25377978 0.00000000
0.60359154 0.24016604 0.00000000
0.70843223 0.22047266 0.00000000
0.82568852 0.18790006 0.00000000
0.94898231 0.18893458 0.00000000
1.00000000 0.23740881 0.11748980
1.00000000 0.23560841 0.11380160
1.00000000 0.23443030 0.11134363
1.00000000 0.23367109 0.10973987
1.00000000 0.23318063 0.10869527
1.00000000 0.23286131 0.10801148
1.00000000 0.23265161 0.10756080
1.00000000 0.23251281 0.10726178
1.00000000 0.23242031 0.10706220
1.00000000 0.23235834 0.10692833
1.00000000 0.23231663 0.10683819
1.00000000 0.23228847 0.10677729
1.00000000 0.23226941 0.10673605
1.00000000 0.23225648 0.10670806
1.00000000 0.23224769 0.10668905
0.07802686 0.27522848 0.05015946
0.07802686 0.27522848 0.05015946
0.07802686 0.27522848 0.05015946
0.07802686 0.27522848 0.05015946
0.07802686 0.27522848 0.05015946
0.07738317 0.27331698 0.04972321
0.07673006 0.27137820 0.04928026
0.07591857 0.26897029 0.04872941
0.07487415 0.26587293 0.04801965
0.13265924 0.26200778 0.04713016
0.19785515 0.25668195 0.04589978
0.31662617 0.31853888 0.01633522
0.40138634 0.31721795 0.00657369
0.49234915 0.30875870 0.00000000
0.57516838 0.31557052 0.13618076
0.69718381 0.28450919 0.00000000
0.81636924 0.26451713 0.00000000
0.94023351 0.23037279 0.00000000
1.00000000 0.23750025 0.11767502
1.00000000 0.23565353 0.11389503
1.00000000 0.23445188 0.11138899
1.00000000 0.23368139 0.10976174
1.00000000 0.23318558 0.10870585
1.00000000 0.23286372 0.10801663
1.00000000 0.23265279 0.10756333
1.00000000 0.23251339 0.10726302
1.00000000 0.23242060 0.10706282
1.00000000 0.23235848 0.10692864
1.00000000 0.23231670 0.10683834
1.00000000 0.23228851 0.10677737
1.00000000 0.23226943 0.10673609
1.00000000 0.23225648 0.10670808
1.00000000 0.23224769 0.10668906
0.10168388 0.34566954 0.06604304
0.10168388 0.34566954 0.06604304
0.10168388 0.34566954 0.06604304
0.10168388 0.34566954 0.06604304
0.10168388 0.34566954 0.06604304
0.10118493 0.34418407 0.06570986
0.10068030 0.34268153 0.06537284
0.10005559 0.34082128 0.06495557
0.09920809 0.33829730 0.06438937
0.09805532 0.33486371 0.06361902
0.17702513 0.33017099 0.06256334
0.25050002 0.32372935 0.06111308
0.37042419 0.37313157 0.01018733
0.46862598 0.37039805 0.00000000
0.57089300 0.35958868 0.00000000
0.66544512 0.36620618 0.16000326
0.80359608 0.33271328 0.00000000
0.92859656 0.31073729 0.00000000
1.00000000 0.27975630 0.11864008
1.00000000 0.23571594 0.11402416
1.00000000 0.23448153 0.11145130
1.00000000 0.23369547 0.10979162
1.00000000 0.23319232 0.10872025
1.00000000 0.23286697 0.10802362
1.00000000 0.23265438 0.10756675
1.00000000 0.23251417 0.10726471
1.00000000 0.23242099 0.10706365
1.00000000 0.23235867 0.10692906
1.00000000 0.23231680 0.10683855
1.00000000 0.23228856 0.10677747
1.00000000 0.23226945 0.10673614
1.00000000 0.23225650 0.10670811
1.00000000 0.23224770 0.10668907
0.12696313 0.42066049 0.08291458
0.12696313 0.42066049 0.08291458
0.12696313 0.42066049 0.08291458
0.12696313 0.42066049 0.08291458
0.12696313 0.42066049 0.08291458
0.12656092 0.41947247 0.08264583
0.12615481 0.41827272 0.08237450
0.12565300 0.41679002 0.08203926
0.12497393 0.41478310 0.08158564
0.12405345 0.41206191 0.08097086
0.12280290 0.40836339 0.08013576
0.22275976 0.40331282 0.07899288
0.30521445 0.39639345 0.07742873
0.43405639 0.43704766 0.00145680
0.54401509 0.43385690 0.00000000
0.64421960 0.42885202 0.15434304
0.76798681 0.42826304 0.18760586
0.91315178 0.38650715 0.00000000
1.00000000 0.35220239 0.12051974
1.00000000 0.27732213 0.11491778
1.00000000 0.23452258 0.11153750
1.00000000 0.23371481 0.10983267
1.00000000 0.23320153 0.10873993
1.00000000 0.23287141 0.10803315
1.00000000 0.23265654 0.10757140
1.00000000 0.23251523 0.10726700
1.00000000 0.23242151 0.10706479
1.00000000 0.23235893 0.10692962
1.00000000 0.23231693 0.10683883
1.00000000 0.23228862 0.10677761
1.00000000 0.23226948 0.10673621
1.00000000 0.23225651 0.10670815
1.00000000 0.23224771 0.10668909
0.15474710 0.50227456 0.10154456
0.15474710 0.50227456 0.10154456
0.15474710 0.50227456 0.10154456
0.15474710 0.50227456 0.10154456
0.15474710 0.50227456 0.10154456
0.15441618 0.50130770 0.10132180
0.15408237 0.50033225 0.10109711
0.15367036 0.49912812 0.10081982
0.15311361 0.49750069 0.10044517
0.15236044 0.49529853 0.09993844
0.15133998 0.49231385 0.09925206
0.14995445 0.48825956 0.09832049
0.27086731 0.48272438 0.09704581
0.36872162 0.47515012 0.09530433
0.50505411 0.50827840 0.00000000
0.61422854 0.50064256 0.14639096
0.74391915 0.49975800 0.18107244
0.87309796 0.49716821 0.21630510
1.00000000 0.43665085 0.12330344
1.00000000 0.34248715 0.11655263
1.00000000 0.27371780 0.11233832
1.00000000 0.23374160 0.10988948
1.00000000 0.23321419 0.10876697
1.00000000 0.23287748 0.10804616
1.00000000 0.23265948 0.10757773
1.00000000 0.23251667 0.10727011
1.00000000 0.23242222 0.10706632
1.00000000 0.23235929 0.10693039
1.00000000 0.23231711 0.10683921
1.00000000 0.23228871 0.10677780
1.00000000 0.23226953 0.10673631
1.00000000 0.23225654 0.10670819
1.00000000 0.23224772 0.10668911
0.18574223 0.59233665 0.12251087
0.18574223 0.59233665 0.12251087
0.18574223 0.59233665 0.12251087
0.18574223 0.59233665 0.12251087
0.18574223 0.59233665 0.12251087
0.18546696 0.59154081 0.12232380
0.18518945 0.59073844 0.12213522
0.18484716 0.58974871 0.12190265
0.18438506 0.58841235 0.12158870
0.18376070 0.58660645 0.12116458
0.18291622 0.58416329 0.12059106
0.18177231 0.58085289 0.11981442
0.18345500 0.57635761 0.11876059
0.32242008 0.57021958 0.11731834
0.43981358 0.56182606 0.11534897
0.58544779 0.58882964 0.00000000
0.70991534 0.58094228 0.17188073
0.84841117 0.57876967 0.20951935
0.98460630 0.55670734 0.24654523
1.00000000 0.42459488 0.11912876
1.00000000 0.33511574 0.11381318
1.00000000 0.26985909 0.11059901
1.00000000 0.23323171 0.10880438
1.00000000 0.23288581 0.10806404
1.00000000 0.23266350 0.10758638
1.00000000 0.23251863 0.10727434
1.00000000 0.23242319 0.10706841
1.00000000 0.23235977 0.10693142
1.00000000 0.23231735 0.10683973
1.00000000 0.23228883 0.10677806
1.00000000 0.23226959 0.10673644
1.00000000 0.23225657 0.10670826
1.00000000 0.23224773 0.10668915
0.22060176 0.69263417 0.14631482
0.22060176 0.69263417 0.14631482
0.22060176 0.69263417 0.14631482
0.22060176 0.69263417 0.14631482
0.22060176 0.69263417 0.14631482
0.22037137 0.69197413 0.14615681
0.22013921 0.69130897 0.14599759
0.21985299 0.69048891 0.14580131
0.21946682 0.68938237 0.14553651
0.21894550 0.68788839 0.14517907
0.21824117 0.68586970 0.14469622
0.21728861 0.68313905 0.14404332
0.21599849 0.67943979 0.14315930
0.22878791 0.67441646 0.14195935
0.37984973 0.66755584 0.14031695
0.51876482 0.65817667 0.13807388
0.67681230 0.68021043 0.00000000
0.81872413 0.67191828 0.20137737
0.98507495 0.66975019 0.24714913
0.98453553 0.54130051 0.24471735
1.00000000 0.41140642 0.11609828
1.00000000 0.32787578 0.11193766
1.00000000 0.26629401 0.10943411
1.00000000 0.23289734 0.10808876
1.00000000 0.23266902 0.10759826
1.00000000 0.23252131 0.10728011
1.00000000 0.23242450 0.10707124
1.00000000 0.23236042 0.10693282
1.00000000 0.23231767 0.10684043
1.00000000 0.23228899 0.10677841
1.00000000 0.23226967 0.10673661
1.00000000 0.23225661 0.10670835
1.00000000 0.23224775 0.10668919
0.25998526 0.80502325 0.17343939
0.25998526 0.80502325 0.17343939
0.25998526 0.80502325 0.17343939
0.25998526 0.80502325 0.17343939
0.25998526 0.80502325 0.17343939
0.25979178 0.80447300 0.17330564
0.25959686 0.80391866 0.17317089
0.25935665 0.80323547 0.17300484
0.25903268 0.80231404 0.17278091
0.25859558 0.80107076 0.17247879
0.25800552 0.79939226 0.17207099
0.25720836 0.79712440 0.17152012
0.25613031 0.79405697 0.17077528
0.25467035 0.78990202 0.16976678
0.27718210 0.78425903 0.16839728
0.44845473 0.77654627 0.16652117
0.60712014 0.76600510 0.16395901
0.78094203 0.78406216 0.00000000
0.93522495 0.77458705 0.23336785
0.98496664 0.64952100 0.24517954
0.98446692 0.52443747 0.24346397
1.00000000 0.39882179 0.11396926
1.00000000 0.32114528 0.11065682
1.00000000 0.26420079 0.10867078
1.00000000 0.23267666 0.10761469
1.00000000 0.23252499 0.10728805
1.00000000 0.23242630 0.10707512
1.00000000 0.23236130 0.10693474
1.00000000 0.23231811 0.10684138
1.00000000 0.23228921 0.10677889
1.00000000 0.23226978 0.10673685
1.00000000 0.23225666 0.10670847
1.00000000 0.23224778 0.10668925
0.30300065 0.92462235 0.20408202
0.30300065 0.92462235 0.20408202
0.30300065 0.92462235 0.20408202
0.30300065 0.92462235 0.20408202
0.30300065 0.92462235 0.20408202
0.30261752 0.92414204 0.20361041
0.30223219 0.92365858 0.20313585
0.30175817 0.92306332 0.20255175
0.30131826 0.92220794 0.20211283
0.30089483 0.92101053 0.20181825
0.30032488 0.91939863 0.20142175
0.29955791 0.91722941 0.20088824
0.29852629 0.91431139 0.20017072
0.29713966 0.91038864 0.19920642
0.29527783 0.90512064 0.19791192
0.32690366 0.89806817 0.19617937
0.52373670 0.88871396 0.19387944
0.70522581 0.87485921 0.19981556
0.88894596 0.89095740 0.00000000
0.98631447 0.78595698 0.24611218
0.98484878 0.62492486 0.24380022
1.00000000 0.48474258 0.11703042
1.00000000 0.38732344 0.11247615
1.00000000 0.31500123 0.10977392
1.00000000 0.26217890 0.10815332
1.00000000 0.23253008 0.10729902
1.00000000 0.23242876 0.10708044
1.00000000 0.23236251 0.10693735
1.00000000 0.23231870 0.10684267
1.00000000 0.23228951 0.10677953
1.00000000 0.23226993 0.10673717
1.00000000 0.23225674 0.10670863
1.00000000 0.23224782 0.10668933
0.33183868 0.96735570 0.23683763
0.33183868 0.96735570 0.23683763
0.33183868 0.96735570 0.23683763
0.33183868 0.96735570 0.23683763
0.33183868 0.96735570 0.23683763
0.33183943 0.96735650 0.23683808
0.33184019 0.96735730 0.23683854
0.33184112 0.96735829 0.23683911
0.33184238 0.96735963 0.23683987
0.33184408 0.96736143 0.23684090
0.33184639 0.96736388 0.23684230
0.33184951 0.96736719 0.23684419
0.33185375 0.96737169 0.23684676
0.33185953 0.96737782 0.23685026
0.33186743 0.96738619 0.23685505
0.33187828 0.96739770 0.23686162
0.36845044 0.96709237 0.23879878
0.57107973 0.96450627 0.25382111
0.76558495 0.96046862 0.27530241
0.98303203 0.98631002 0.20774579
0.98602241 0.76498472 0.24450528
0.98474461 0.60143397 0.24288074
1.00000000 0.46355151 0.11505989
1.00000000 0.37589409 0.11138687
1.00000000 0.30941301 0.10915594
1.00000000 0.26026047 0.10779824
1.00000000 0.23243217 0.10708780
1.00000000 0.23236417 0.10694093
1.00000000 0.23231952 0.10684443
1.00000000 0.23228991 0.10678040
1.00000000 0.23227013 0.10673761
1.00000000 0.23225684 0.10670885
1.00000000 0.23224787 0.10668944
0.33159414 0.96709619 0.23668939
0.33159414 0.96709619 0.23668939
0.33159414 0.96709619 0.23668939
0.33159414 0.96709619 0.23668939
0.33159414 0.96709619 0.23668939
0.33159451 0.96709658 0.23668961
0.33159489 0.96709699 0.23668984
0.33159536 0.96709748 0.23669013
0.33159599 0.96709815 0.23669051
0.33159684 0.96709905 0.23669102
0.33159799 0.96710027 0.23669172
0.33159954 0.96710193 0.23669267
0.33160165 0.96710417 0.23669395
0.33160452 0.96710721 0.23669568
0.33160843 0.96711136 0.23669806
0.33161378 0.96711704 0.23670130
0.33162115 0.96712487 0.23670577
0.36637644 0.96683139 0.23853981
0.55523402 0.96447574 0.25224892
0.73173944 0.96100040 0.27095813
0.98230060 0.98633058 0.20532140
0.98595570 0.76054667 0.24346763
0.98472460 0.59767890 0.24229315
1.00000000 0.45861558 0.11408696
1.00000000 0.36647451 0.11061925
1.00000000 0.30384565 0.10870461
1.00000000 0.25845567 0.10755116
1.00000000 0.23236646 0.10694588
1.00000000 0.23232064 0.10684685
1.00000000 0.23229046 0.10678160
1.00000000 0.23227040 0.10673820
1.00000000 0.23225697 0.10670914
1.00000000 0.23224794 0.10668959
0.33143232 0.96692436 0.23659126
0.33143232 0.96692436 0.23659126
0.33143232 0.96692436 0.23659126
0.33143232 0.96692436 0.23659126
0.33143232 0.96692436 0.23659126
0.33143251 0.96692455 0.23659137
0.33143269 0.96692475 0.23659148
0.33143291 0.96692499 0.23659162
0.33143322 0.96692531 0.23659180
0.33143363 0.96692575 0.23659205
0.33143419 0.96692634 0.23659239
0.33143494 0.96692713 0.23659284
0.33143596 0.96692822 0.23659346
0.33143733 0.96692968 0.23659430
0.33143921 0.96693167 0.23659543
0.33144177 0.96693439 0.23659699
0.33144527 0.96693811 0.23659911
0.33145009 0.96694323 0.23660203
0.36340564 0.96667191 0.23827957
0.53874898 0.96454135 0.25070708
0.71908270 0.96109483 0.26935161
0.98218824 0.98632997 0.20376858
0.98596127 0.76142907 0.24280289
0.98472884 0.59956675 0.24191398
1.00000000 0.46044319 0.11362238
1.00000000 0.36657655 0.11028399
1.00000000 0.29900273 0.10837946
1.00000000 0.25676447 0.10737646
