luts/S9_VLog_to_5219.cube
# Film Emulation LUT
# Generated by lutex.py
# Grid: 17³
TITLE "Panasonic S9 V-Log to Kodak Vision3 5219 (500T)"
LUT_3D_SIZE 9
DOMAIN_MIN 0.0 0.0 0.0
DOMAIN_MAX 1.0 1.0 1.0
0.00000007 0.00000008 0.00000006
0.00000007 0.00000008 0.00000006
0.00000007 0.00000008 0.00000006
0.00000007 0.00000008 0.00000006
0.00000007 0.00000008 0.00000006
0.00148040 0.00281271 0.02812639
0.01603454 0.03046558 0.16638417
0.08589240 0.12909197 0.42550892
0.23665820 0.32608471 0.93969098
0.00000007 0.00000008 0.00000006
0.00000007 0.00000008 0.00000006
0.00000007 0.00000008 0.00000006
0.00000007 0.00000008 0.00000006
0.00000007 0.00000008 0.00000006
0.00148040 0.00281271 0.02812639
0.01603454 0.03046558 0.16638417
0.08589240 0.12909197 0.42550892
0.23665820 0.32608471 0.93969098
0.00000007 0.00000008 0.00000006
0.00000007 0.00000008 0.00000006
0.00000007 0.00000008 0.00000006
0.00000007 0.00000008 0.00000006
0.00000007 0.00000008 0.00000006
0.00148040 0.00281271 0.02812639
0.01603454 0.03046558 0.16638417
0.08589240 0.12909197 0.42550892
0.23665820 0.32608471 0.93969098
0.00000007 0.00000008 0.00000006
0.00000007 0.00000008 0.00000006
0.00000007 0.00000008 0.00000006
0.00000007 0.00000008 0.00000006
0.00000007 0.00000008 0.00000006
0.00148040 0.00281271 0.02812639
0.01603454 0.03046558 0.16638417
0.08589240 0.12909197 0.42550892
0.23665820 0.32608471 0.93969098
0.00000007 0.00000008 0.00000006
0.00000007 0.00000008 0.00000006
0.00000007 0.00000008 0.00000006
0.00000007 0.00000008 0.00000006
0.00000007 0.00000008 0.00000006
0.00148040 0.00281271 0.02812639
0.01603454 0.03046558 0.16638417
0.08589240 0.12909197 0.42550892
0.23665820 0.32608471 0.93969098
0.00114063 0.02167072 0.00114062
0.00114063 0.02167072 0.00114062
0.00114063 0.02167072 0.00114062
0.00114063 0.02167072 0.00114062
0.00114063 0.02167072 0.00114062
0.00121014 0.01781092 0.02299136
0.01546713 0.03636062 0.16308565
0.08532318 0.12834822 0.42356760
0.23631259 0.32563312 0.93851226
0.01080508 0.13280957 0.01080507
0.01080508 0.13280957 0.01080507
0.01080508 0.13280957 0.01080507
0.01080508 0.13280957 0.01080507
0.01080508 0.13280957 0.01080507
0.01051806 0.13071452 0.01543902
0.01310792 0.11817582 0.14855353
0.08285235 0.16103371 0.41514091
0.23483274 0.32369953 0.93346528
0.05942867 0.33525516 0.05942866
0.05942867 0.33525516 0.05942866
0.05942867 0.33525516 0.05942866
0.05942867 0.33525516 0.05942866
0.05942867 0.33525516 0.05942866
0.05908197 0.33407277 0.05908196
0.05759140 0.32898922 0.11976950
0.07439927 0.32718625 0.38631195
0.22965556 0.39625400 0.91580868
0.17260123 0.72122670 0.17260123
0.17260123 0.72122670 0.17260123
0.17260123 0.72122670 0.17260123
0.17260123 0.72122670 0.17260123
0.17260123 0.72122670 0.17260123
0.17239832 0.72053467 0.17239832
0.17152980 0.71757259 0.17152979
0.16865140 0.70775590 0.32232738
0.21127991 0.70897318 0.85313911
0.00000007 0.00000008 0.00000006
0.00000007 0.00000008 0.00000006
0.00000007 0.00000008 0.00000006
0.00000007 0.00000008 0.00000006
0.00000007 0.00000008 0.00000006
0.00148040 0.00281271 0.02812639
0.01603454 0.03046558 0.16638417
0.08589240 0.12909197 0.42550892
0.23665820 0.32608471 0.93969098
0.00000007 0.00000008 0.00000006
0.00000007 0.00000008 0.00000006
0.00000007 0.00000008 0.00000006
0.00000007 0.00000008 0.00000006
0.00000007 0.00000008 0.00000006
0.00148040 0.00281271 0.02812639
0.01603454 0.03046558 0.16638417
0.08589240 0.12909197 0.42550892
0.23665820 0.32608471 0.93969098
0.00000007 0.00000008 0.00000006
0.00000007 0.00000008 0.00000006
0.00000007 0.00000008 0.00000006
0.00000007 0.00000008 0.00000006
0.00000007 0.00000008 0.00000006
0.00148040 0.00281271 0.02812639
0.01603454 0.03046558 0.16638417
0.08589240 0.12909197 0.42550892
0.23665820 0.32608471 0.93969098
0.00000007 0.00000008 0.00000006
0.00000007 0.00000008 0.00000006
0.00000007 0.00000008 0.00000006
0.00000007 0.00000008 0.00000006
0.00000007 0.00000008 0.00000006
0.00148040 0.00281271 0.02812639
0.01603454 0.03046558 0.16638417
0.08589240 0.12909197 0.42550892
0.23665820 0.32608471 0.93969098
0.00000007 0.00000008 0.00000006
0.00000007 0.00000008 0.00000006
0.00000007 0.00000008 0.00000006
0.00000007 0.00000008 0.00000006
0.00000007 0.00000008 0.00000006
0.00148040 0.00281271 0.02812639
0.01603454 0.03046558 0.16638417
0.08589240 0.12909197 0.42550892
0.23665820 0.32608471 0.93969098
0.00114063 0.02167072 0.00114062
0.00114063 0.02167072 0.00114062
0.00114063 0.02167072 0.00114062
0.00114063 0.02167072 0.00114062
0.00114063 0.02167072 0.00114062
0.00121014 0.01781092 0.02299136
0.01546713 0.03636062 0.16308565
0.08532318 0.12834822 0.42356760
0.23631259 0.32563312 0.93851226
0.01080508 0.13280957 0.01080507
0.01080508 0.13280957 0.01080507
0.01080508 0.13280957 0.01080507
0.01080508 0.13280957 0.01080507
0.01080508 0.13280957 0.01080507
0.01051806 0.13071452 0.01543902
0.01310792 0.11817582 0.14855353
0.08285235 0.16103371 0.41514091
0.23483274 0.32369953 0.93346528
0.05942867 0.33525516 0.05942866
0.05942867 0.33525516 0.05942866
0.05942867 0.33525516 0.05942866
0.05942867 0.33525516 0.05942866
0.05942867 0.33525516 0.05942866
0.05908197 0.33407277 0.05908196
0.05759140 0.32898922 0.11976950
0.07439927 0.32718625 0.38631195
0.22965556 0.39625400 0.91580868
0.17260123 0.72122670 0.17260123
0.17260123 0.72122670 0.17260123
0.17260123 0.72122670 0.17260123
0.17260123 0.72122670 0.17260123
0.17260123 0.72122670 0.17260123
0.17239832 0.72053467 0.17239832
0.17152980 0.71757259 0.17152979
0.16865140 0.70775590 0.32232738
0.21127991 0.70897318 0.85313911
0.00000007 0.00000008 0.00000006
0.00000007 0.00000008 0.00000006
0.00000007 0.00000008 0.00000006
0.00000007 0.00000008 0.00000006
0.00000007 0.00000008 0.00000006
0.00148040 0.00281271 0.02812639
0.01603454 0.03046558 0.16638417
0.08589240 0.12909197 0.42550892
0.23665820 0.32608471 0.93969098
0.00000007 0.00000008 0.00000006
0.00000007 0.00000008 0.00000006
0.00000007 0.00000008 0.00000006
0.00000007 0.00000008 0.00000006
0.00000007 0.00000008 0.00000006
0.00148040 0.00281271 0.02812639
0.01603454 0.03046558 0.16638417
0.08589240 0.12909197 0.42550892
0.23665820 0.32608471 0.93969098
0.00000007 0.00000008 0.00000006
0.00000007 0.00000008 0.00000006
0.00000007 0.00000008 0.00000006
0.00000007 0.00000008 0.00000006
0.00000007 0.00000008 0.00000006
0.00148040 0.00281271 0.02812639
0.01603454 0.03046558 0.16638417
0.08589240 0.12909197 0.42550892
0.23665820 0.32608471 0.93969098
0.00000007 0.00000008 0.00000006
0.00000007 0.00000008 0.00000006
0.00000007 0.00000008 0.00000006
0.00000007 0.00000008 0.00000006
0.00000007 0.00000008 0.00000006
0.00148040 0.00281271 0.02812639
0.01603454 0.03046558 0.16638417
0.08589240 0.12909197 0.42550892
0.23665820 0.32608471 0.93969098
0.00000007 0.00000008 0.00000006
0.00000007 0.00000008 0.00000006
0.00000007 0.00000008 0.00000006
0.00000007 0.00000008 0.00000006
0.00000007 0.00000008 0.00000006
0.00148040 0.00281271 0.02812639
0.01603454 0.03046558 0.16638417
0.08589240 0.12909197 0.42550892
0.23665820 0.32608471 0.93969098
0.00114063 0.02167072 0.00114062
0.00114063 0.02167072 0.00114062
0.00114063 0.02167072 0.00114062
0.00114063 0.02167072 0.00114062
0.00114063 0.02167072 0.00114062
0.00121014 0.01781092 0.02299136
0.01546713 0.03636062 0.16308565
0.08532318 0.12834822 0.42356760
0.23631259 0.32563312 0.93851226
0.01080508 0.13280957 0.01080507
0.01080508 0.13280957 0.01080507
0.01080508 0.13280957 0.01080507
0.01080508 0.13280957 0.01080507
0.01080508 0.13280957 0.01080507
0.01051806 0.13071452 0.01543902
0.01310792 0.11817582 0.14855353
0.08285235 0.16103371 0.41514091
0.23483274 0.32369953 0.93346528
0.05942867 0.33525516 0.05942866
0.05942867 0.33525516 0.05942866
0.05942867 0.33525516 0.05942866
0.05942867 0.33525516 0.05942866
0.05942867 0.33525516 0.05942866
0.05908197 0.33407277 0.05908196
0.05759140 0.32898922 0.11976950
0.07439927 0.32718625 0.38631195
0.22965556 0.39625400 0.91580868
0.17260123 0.72122670 0.17260123
0.17260123 0.72122670 0.17260123
0.17260123 0.72122670 0.17260123
0.17260123 0.72122670 0.17260123
0.17260123 0.72122670 0.17260123
0.17239832 0.72053467 0.17239832
0.17152980 0.71757259 0.17152979
0.16865140 0.70775590 0.32232738
0.21127991 0.70897318 0.85313911
0.00000007 0.00000008 0.00000006
0.00000007 0.00000008 0.00000006
0.00000007 0.00000008 0.00000006
0.00000007 0.00000008 0.00000006
0.00000007 0.00000008 0.00000006
0.00148040 0.00281271 0.02812639
0.01603454 0.03046558 0.16638417
0.08589240 0.12909197 0.42550892
0.23665820 0.32608471 0.93969098
0.00000007 0.00000008 0.00000006
0.00000007 0.00000008 0.00000006
0.00000007 0.00000008 0.00000006
0.00000007 0.00000008 0.00000006
0.00000007 0.00000008 0.00000006
0.00148040 0.00281271 0.02812639
0.01603454 0.03046558 0.16638417
0.08589240 0.12909197 0.42550892
0.23665820 0.32608471 0.93969098
0.00000007 0.00000008 0.00000006
0.00000007 0.00000008 0.00000006
0.00000007 0.00000008 0.00000006
0.00000007 0.00000008 0.00000006
0.00000007 0.00000008 0.00000006
0.00148040 0.00281271 0.02812639
0.01603454 0.03046558 0.16638417
0.08589240 0.12909197 0.42550892
0.23665820 0.32608471 0.93969098
0.00000007 0.00000008 0.00000006
0.00000007 0.00000008 0.00000006
0.00000007 0.00000008 0.00000006
0.00000007 0.00000008 0.00000006
0.00000007 0.00000008 0.00000006
0.00148040 0.00281271 0.02812639
0.01603454 0.03046558 0.16638417
0.08589240 0.12909197 0.42550892
0.23665820 0.32608471 0.93969098
0.00000007 0.00000008 0.00000006
0.00000007 0.00000008 0.00000006
0.00000007 0.00000008 0.00000006
0.00000007 0.00000008 0.00000006
0.00000007 0.00000008 0.00000006
0.00148040 0.00281271 0.02812639
0.01603454 0.03046558 0.16638417
0.08589240 0.12909197 0.42550892
0.23665820 0.32608471 0.93969098
0.00114063 0.02167072 0.00114062
0.00114063 0.02167072 0.00114062
0.00114063 0.02167072 0.00114062
0.00114063 0.02167072 0.00114062
0.00114063 0.02167072 0.00114062
0.00121014 0.01781092 0.02299136
0.01546713 0.03636062 0.16308565
0.08532318 0.12834822 0.42356760
0.23631259 0.32563312 0.93851226
0.01080508 0.13280957 0.01080507
0.01080508 0.13280957 0.01080507
0.01080508 0.13280957 0.01080507
0.01080508 0.13280957 0.01080507
0.01080508 0.13280957 0.01080507
0.01051806 0.13071452 0.01543902
0.01310792 0.11817582 0.14855353
0.08285235 0.16103371 0.41514091
0.23483274 0.32369953 0.93346528
0.05942867 0.33525516 0.05942866
0.05942867 0.33525516 0.05942866
0.05942867 0.33525516 0.05942866
0.05942867 0.33525516 0.05942866
0.05942867 0.33525516 0.05942866
0.05908197 0.33407277 0.05908196
0.05759140 0.32898922 0.11976950
0.07439927 0.32718625 0.38631195
0.22965556 0.39625400 0.91580868
0.17260123 0.72122670 0.17260123
0.17260123 0.72122670 0.17260123
0.17260123 0.72122670 0.17260123
0.17260123 0.72122670 0.17260123
0.17260123 0.72122670 0.17260123
0.17239832 0.72053467 0.17239832
0.17152980 0.71757259 0.17152979
0.16865140 0.70775590 0.32232738
0.21127991 0.70897318 0.85313911
0.00000007 0.00000008 0.00000006
0.00000007 0.00000008 0.00000006
0.00000007 0.00000008 0.00000006
0.00000007 0.00000008 0.00000006
0.00000007 0.00000008 0.00000006
0.00148040 0.00281271 0.02812639
0.01603454 0.03046558 0.16638417
0.08589240 0.12909197 0.42550892
0.23665820 0.32608471 0.93969098
0.00000007 0.00000008 0.00000006
0.00000007 0.00000008 0.00000006
0.00000007 0.00000008 0.00000006
0.00000007 0.00000008 0.00000006
0.00000007 0.00000008 0.00000006
0.00148040 0.00281271 0.02812639
0.01603454 0.03046558 0.16638417
0.08589240 0.12909197 0.42550892
0.23665820 0.32608471 0.93969098
0.00000007 0.00000008 0.00000006
0.00000007 0.00000008 0.00000006
0.00000007 0.00000008 0.00000006
0.00000007 0.00000008 0.00000006
0.00000007 0.00000008 0.00000006
0.00148040 0.00281271 0.02812639
0.01603454 0.03046558 0.16638417
0.08589240 0.12909197 0.42550892
0.23665820 0.32608471 0.93969098
0.00000007 0.00000008 0.00000006
0.00000007 0.00000008 0.00000006
0.00000007 0.00000008 0.00000006
0.00000007 0.00000008 0.00000006
0.00000007 0.00000008 0.00000006
0.00148040 0.00281271 0.02812639
0.01603454 0.03046558 0.16638417
0.08589240 0.12909197 0.42550892
0.23665820 0.32608471 0.93969098
0.00000007 0.00000008 0.00000006
0.00000007 0.00000008 0.00000006
0.00000007 0.00000008 0.00000006
0.00000007 0.00000008 0.00000006
0.00000007 0.00000008 0.00000006
0.00148040 0.00281271 0.02812639
0.01603454 0.03046558 0.16638417
0.08589240 0.12909197 0.42550892
0.23665820 0.32608471 0.93969098
0.00114063 0.02167072 0.00114062
0.00114063 0.02167072 0.00114062
0.00114063 0.02167072 0.00114062
0.00114063 0.02167072 0.00114062
0.00114063 0.02167072 0.00114062
0.00121014 0.01781092 0.02299136
0.01546713 0.03636062 0.16308565
0.08532318 0.12834822 0.42356760
0.23631259 0.32563312 0.93851226
0.01080508 0.13280957 0.01080507
0.01080508 0.13280957 0.01080507
0.01080508 0.13280957 0.01080507
0.01080508 0.13280957 0.01080507
0.01080508 0.13280957 0.01080507
0.01051806 0.13071452 0.01543902
0.01310792 0.11817582 0.14855353
0.08285235 0.16103371 0.41514091
0.23483274 0.32369953 0.93346528
0.05942867 0.33525516 0.05942866
0.05942867 0.33525516 0.05942866
0.05942867 0.33525516 0.05942866
0.05942867 0.33525516 0.05942866
0.05942867 0.33525516 0.05942866
0.05908197 0.33407277 0.05908196
0.05759140 0.32898922 0.11976950
0.07439927 0.32718625 0.38631195
0.22965556 0.39625400 0.91580868
0.17260123 0.72122670 0.17260123
0.17260123 0.72122670 0.17260123
0.17260123 0.72122670 0.17260123
0.17260123 0.72122670 0.17260123
0.17260123 0.72122670 0.17260123
0.17239832 0.72053467 0.17239832
0.17152980 0.71757259 0.17152979
0.16865140 0.70775590 0.32232738
0.21127991 0.70897318 0.85313911
0.03846981 0.00323963 0.00202478
0.03846981 0.00323963 0.00202478
0.03846981 0.00323963 0.00202478
0.03846981 0.00323963 0.00202478
0.03846981 0.00323963 0.00202478
0.03524884 0.00185528 0.02768679
0.02283229 0.01594125 0.16584650
0.08579962 0.12897075 0.42519250
0.23660183 0.32601104 0.93949870
0.03846981 0.00323963 0.00202478
0.03846981 0.00323963 0.00202478
0.03846981 0.00323963 0.00202478
0.03846981 0.00323963 0.00202478
0.03846981 0.00323963 0.00202478
0.03524884 0.00185528 0.02768679
0.02283229 0.01594125 0.16584650
0.08579962 0.12897075 0.42519250
0.23660183 0.32601104 0.93949870
0.03846981 0.00323963 0.00202478
0.03846981 0.00323963 0.00202478
0.03846981 0.00323963 0.00202478
0.03846981 0.00323963 0.00202478
0.03846981 0.00323963 0.00202478
0.03524884 0.00185528 0.02768679
0.02283229 0.01594125 0.16584650
0.08579962 0.12897075 0.42519250
0.23660183 0.32601104 0.93949870
0.03846981 0.00323963 0.00202478
0.03846981 0.00323963 0.00202478
0.03846981 0.00323963 0.00202478
0.03846981 0.00323963 0.00202478
0.03846981 0.00323963 0.00202478
0.03524884 0.00185528 0.02768679
0.02283229 0.01594125 0.16584650
0.08579962 0.12897075 0.42519250
0.23660183 0.32601104 0.93949870
0.03846981 0.00323963 0.00202478
0.03846981 0.00323963 0.00202478
0.03846981 0.00323963 0.00202478
0.03846981 0.00323963 0.00202478
0.03846981 0.00323963 0.00202478
0.03524884 0.00185528 0.02768679
0.02283229 0.01594125 0.16584650
0.08579962 0.12897075 0.42519250
0.23660183 0.32601104 0.93949870
0.01965058 0.01802627 0.00103429
0.01965058 0.01802627 0.00103429
0.01965058 0.01802627 0.00103429
0.01965058 0.01802627 0.00103429
0.01965058 0.01802627 0.00103429
0.01772253 0.01625744 0.02297788
0.02000280 0.03139276 0.16262033
0.08523014 0.12822666 0.42325031
0.23625616 0.32555940 0.93831983
0.01044608 0.13018386 0.01044606
0.01044608 0.13018386 0.01044606
0.01044608 0.13018386 0.01044606
0.01044608 0.13018386 0.01044606
0.01044608 0.13018386 0.01044606
0.01016158 0.12806550 0.01459875
0.01302079 0.11548901 0.14798863
0.08275933 0.15922254 0.41482367
0.23477611 0.32362554 0.93327217
0.05899451 0.33377448 0.05899450
0.05899451 0.33377448 0.05899450
0.05899451 0.33377448 0.05899450
0.05899451 0.33377448 0.05899450
0.05899451 0.33377448 0.05899450
0.05864679 0.33258858 0.05864678
0.05715172 0.32748971 0.11900252
0.07430311 0.32575639 0.38598400
0.22960206 0.39521954 0.91562624
0.17234718 0.72036027 0.17234718
0.17234718 0.72036027 0.17234718
0.17234718 0.72036027 0.17234718
0.17234718 0.72036027 0.17234718
0.17234718 0.72036027 0.17234718
0.17214410 0.71966764 0.17214409
0.17127481 0.71670298 0.17127481
0.16839386 0.70687758 0.32188986
0.21122678 0.70814248 0.85295789
0.18790365 0.03205278 0.02003299
0.18790365 0.03205278 0.02003299
0.18790365 0.03205278 0.02003299
0.18790365 0.03205278 0.02003299
0.18790365 0.03205278 0.02003299
0.18627660 0.01971247 0.03032044
0.17923101 0.01835910 0.16438481
0.15354462 0.08538695 0.42378507
0.23635449 0.31862740 0.93865517
0.18790365 0.03205278 0.02003299
0.18790365 0.03205278 0.02003299
0.18790365 0.03205278 0.02003299
0.18790365 0.03205278 0.02003299
0.18790365 0.03205278 0.02003299
0.18627660 0.01971247 0.03032044
0.17923101 0.01835910 0.16438481
0.15354462 0.08538695 0.42378507
0.23635449 0.31862740 0.93865517
0.18790365 0.03205278 0.02003299
0.18790365 0.03205278 0.02003299
0.18790365 0.03205278 0.02003299
0.18790365 0.03205278 0.02003299
0.18790365 0.03205278 0.02003299
0.18627660 0.01971247 0.03032044
0.17923101 0.01835910 0.16438481
0.15354462 0.08538695 0.42378507
0.23635449 0.31862740 0.93865517
0.18790365 0.03205278 0.02003299
0.18790365 0.03205278 0.02003299
0.18790365 0.03205278 0.02003299
0.18790365 0.03205278 0.02003299
0.18790365 0.03205278 0.02003299
0.18627660 0.01971247 0.03032044
0.17923101 0.01835910 0.16438481
0.15354462 0.08538695 0.42378507
0.23635449 0.31862740 0.93865517
0.18790365 0.03205278 0.02003299
0.18790365 0.03205278 0.02003299
0.18790365 0.03205278 0.02003299
0.18790365 0.03205278 0.02003299
0.18790365 0.03205278 0.02003299
0.18627660 0.01971247 0.03032044
0.17923101 0.01835910 0.16438481
0.15354462 0.08538695 0.42378507
0.23635449 0.31862740 0.93865517
0.17755589 0.03310958 0.01804554
0.17755589 0.03310958 0.01804554
0.17755589 0.03310958 0.01804554
0.17755589 0.03310958 0.01804554
0.17755589 0.03310958 0.01804554
0.17591367 0.02030677 0.02514761
0.16858844 0.01642039 0.16064964
0.14245036 0.08481844 0.42184621
0.23601119 0.32102405 0.93748435
0.12873671 0.11917471 0.01025122
0.12873671 0.11917471 0.01025122
0.12873671 0.11917471 0.01025122
0.12873671 0.11917471 0.01025122
0.12873671 0.11917471 0.01025122
0.12678807 0.11702028 0.01267872
0.12080907 0.11240900 0.14814433
0.12062924 0.14321041 0.41387976
0.23453411 0.32330933 0.93244681
0.05712489 0.32739820 0.05712488
0.05712489 0.32739820 0.05712488
0.05712489 0.32739820 0.05712488
0.05712489 0.32739820 0.05712488
0.05712489 0.32739820 0.05712488
0.05677265 0.32619691 0.05677264
0.05525789 0.32103086 0.11569820
0.07389161 0.31960384 0.38458059
0.22937324 0.39080332 0.91484583
0.17125927 0.71664997 0.17125927
0.17125927 0.71664997 0.17125927
0.17125927 0.71664997 0.17125927
0.17125927 0.71664997 0.17125927
0.17125927 0.71664997 0.17125927
0.17105542 0.71595476 0.17105542
0.17018287 0.71297895 0.17018287
0.16729094 0.70311609 0.32001616
0.21099956 0.70458608 0.85218299
0.45711823 0.12764437 0.09516071
0.45711823 0.12764437 0.09516071
0.45711823 0.12764437 0.09516071
0.45711823 0.12764437 0.09516071
0.45711823 0.12764437 0.09516071
0.45618509 0.12230609 0.09488711
0.45218393 0.09371391 0.16591618
0.43883952 0.08980113 0.42002273
0.38961290 0.23536373 0.93527619
0.45711823 0.12764437 0.09516071
0.45711823 0.12764437 0.09516071
0.45711823 0.12764437 0.09516071
0.45711823 0.12764437 0.09516071
0.45711823 0.12764437 0.09516071
0.45618509 0.12230609 0.09488711
0.45218393 0.09371391 0.16591618
0.43883952 0.08980113 0.42002273
0.38961290 0.23536373 0.93527619
0.45711823 0.12764437 0.09516071
0.45711823 0.12764437 0.09516071
0.45711823 0.12764437 0.09516071
0.45711823 0.12764437 0.09516071
0.45711823 0.12764437 0.09516071
0.45618509 0.12230609 0.09488711
0.45218393 0.09371391 0.16591618
0.43883952 0.08980113 0.42002273
0.38961290 0.23536373 0.93527619
0.45711823 0.12764437 0.09516071
0.45711823 0.12764437 0.09516071
0.45711823 0.12764437 0.09516071
0.45711823 0.12764437 0.09516071
0.45711823 0.12764437 0.09516071
0.45618509 0.12230609 0.09488711
0.45218393 0.09371391 0.16591618
0.43883952 0.08980113 0.42002273
0.38961290 0.23536373 0.93527619
0.45711823 0.12764437 0.09516071
0.45711823 0.12764437 0.09516071
0.45711823 0.12764437 0.09516071
0.45711823 0.12764437 0.09516071
0.45711823 0.12764437 0.09516071
0.45618509 0.12230609 0.09488711
0.45218393 0.09371391 0.16591618
0.43883952 0.08980113 0.42002273
0.38961290 0.23536373 0.93527619
0.45124222 0.12554872 0.09343778
0.45124222 0.12554872 0.09343778
0.45124222 0.12554872 0.09343778
0.45124222 0.12554872 0.09343778
0.45124222 0.12554872 0.09343778
0.45030103 0.12169654 0.09316182
0.44626507 0.09197842 0.16250419
0.43280099 0.08803055 0.41785193
0.38337638 0.23502444 0.93411906
0.42554224 0.14739154 0.08590216
0.42554224 0.14739154 0.08590216
0.42554224 0.14739154 0.08590216
0.42554224 0.14739154 0.08590216
0.42554224 0.14739154 0.08590216
0.42456384 0.14569752 0.08561528
0.42071214 0.11583930 0.14929323
0.40654984 0.08923733 0.40870065
0.35597371 0.23357064 0.92916091
0.33242107 0.30725998 0.05859766
0.33242107 0.30725998 0.05859766
0.33242107 0.30725998 0.05859766
0.33242107 0.30725998 0.05859766
0.33242107 0.30725998 0.05859766
0.33127248 0.30600943 0.05826088
0.32703501 0.30139849 0.11121601
0.31536020 0.29414791 0.38483728
0.31402347 0.35636908 0.91297959
0.16764782 0.70433324 0.16764782
0.16764782 0.70433324 0.16764782
0.16764782 0.70433324 0.16764782
0.16764782 0.70433324 0.16764782
0.16764782 0.70433324 0.16764782
0.16744140 0.70362926 0.16744140
0.16655781 0.70061579 0.16655781
0.16362870 0.69062616 0.31379516
0.21024921 0.69279143 0.84962394
0.97769156 0.31330417 0.24780054
0.97769156 0.31330417 0.24780054
0.97769156 0.31330417 0.24780054
0.97769156 0.31330417 0.24780054
0.97769156 0.31330417 0.24780054
0.97713765 0.31310662 0.24763812
0.97476857 0.28340610 0.24694348
0.96693882 0.24464768 0.41927079
0.94083529 0.23699374 0.92331932
0.97769156 0.31330417 0.24780054
0.97769156 0.31330417 0.24780054
0.97769156 0.31330417 0.24780054
0.97769156 0.31330417 0.24780054
0.97769156 0.31330417 0.24780054
0.97713765 0.31310662 0.24763812
0.97476857 0.28340610 0.24694348
0.96693882 0.24464768 0.41927079
0.94083529 0.23699374 0.92331932
0.97769156 0.31330417 0.24780054
0.97769156 0.31330417 0.24780054
0.97769156 0.31330417 0.24780054
0.97769156 0.31330417 0.24780054
0.97769156 0.31330417 0.24780054
0.97713765 0.31310662 0.24763812
0.97476857 0.28340610 0.24694348
0.96693882 0.24464768 0.41927079
0.94083529 0.23699374 0.92331932
0.97769156 0.31330417 0.24780054
0.97769156 0.31330417 0.24780054
0.97769156 0.31330417 0.24780054
0.97769156 0.31330417 0.24780054
0.97769156 0.31330417 0.24780054
0.97713765 0.31310662 0.24763812
0.97476857 0.28340610 0.24694348
0.96693882 0.24464768 0.41927079
0.94083529 0.23699374 0.92331932
0.97769156 0.31330417 0.24780054
0.97769156 0.31330417 0.24780054
0.97769156 0.31330417 0.24780054
0.97769156 0.31330417 0.24780054
0.97769156 0.31330417 0.24780054
0.97713765 0.31310662 0.24763812
0.97476857 0.28340610 0.24694348
0.96693882 0.24464768 0.41927079
0.94083529 0.23699374 0.92331932
0.97421241 0.31206335 0.24678040
0.97421241 0.31206335 0.24678040
0.97421241 0.31206335 0.24678040
0.97421241 0.31206335 0.24678040
0.97421241 0.31206335 0.24678040
0.97365711 0.31186530 0.24661758
0.97128206 0.28348387 0.24592118
0.96343243 0.24361955 0.41727995
0.93726064 0.23594559 0.92204509
0.95924826 0.30672646 0.24239269
0.95924826 0.30672646 0.24239269
0.95924826 0.30672646 0.24239269
0.95924826 0.30672646 0.24239269
0.95924826 0.30672646 0.24239269
0.95868688 0.30652624 0.24222808
0.95628577 0.28360030 0.24152405
0.94834924 0.23919694 0.40870553
0.92187889 0.23143544 0.91658721
0.90876690 0.36134790 0.22759080
0.90876690 0.36134790 0.22759080
0.90876690 0.36134790 0.22759080
0.90876690 0.36134790 0.22759080
0.90876690 0.36134790 0.22759080
0.90818380 0.36035567 0.22741983
0.90577561 0.35622482 0.23559791
0.89828607 0.29911581 0.38344142
0.87180905 0.25329596 0.90010350
0.72626085 0.66617357 0.17407732
0.72626085 0.66617357 0.17407732
0.72626085 0.66617357 0.17407732
0.72626085 0.66617357 0.17407732
0.72626085 0.66617357 0.17407732
0.72557926 0.66544133 0.17387747
0.72266221 0.66230632 0.17302214
0.71488072 0.65401997 0.30710110
0.69117984 0.64161925 0.84869569
