luts/S9_VLog_to_c200.cube
# Film Emulation LUT
# Generated by lutex.py
# Grid: 33³
TITLE "Panasonic S9 V-Log to Fujifilm Fujicolor C200 (Japan)"
LUT_3D_SIZE 33
DOMAIN_MIN 0.0 0.0 0.0
DOMAIN_MAX 1.0 1.0 1.0
0.00000071 0.00000060 0.00000065
0.00000071 0.00000060 0.00000065
0.00000071 0.00000060 0.00000065
0.00000071 0.00000060 0.00000065
0.00000071 0.00000060 0.00000065
0.00000000 0.00000000 0.00000000
0.00000071 0.00000060 0.00000065
0.00000071 0.00000060 0.00000065
0.00000071 0.00000060 0.00000065
0.00000071 0.00000060 0.00000065
0.00000071 0.00000060 0.00000065
0.00000071 0.00000060 0.00000065
0.00000071 0.00000060 0.00000065
0.00000071 0.00000060 0.00000065
0.00000071 0.00000060 0.00000065
0.00000071 0.00000060 0.00000065
0.00000071 0.00000060 0.00000065
0.00000071 0.00000060 0.00000065
0.00000000 0.00000000 0.00000000
0.00000000 0.00000000 0.00000000
0.00000000 0.00000000 0.00000000
0.00000000 0.00000000 0.00000000
0.00000000 0.00000000 0.00000000
0.00000000 0.00000000 0.00000000
0.00000004 0.00000000 0.10008184
0.00000006 0.00000000 0.17076412
0.00000007 0.00000000 0.23654575
0.00000008 0.00000000 0.30448001
0.00000009 0.00000000 0.37789828
0.00000009 0.00000000 0.45921649
0.00000010 0.00000000 0.55062551
0.00000010 0.00000000 0.65435852
0.00000010 0.00000000 0.77283698
0.00000071 0.00000060 0.00000065
0.00000071 0.00000060 0.00000065
0.00000071 0.00000060 0.00000065
0.00000071 0.00000060 0.00000065
0.00000071 0.00000060 0.00000065
0.00000000 0.00000000 0.00000000
0.00000071 0.00000060 0.00000065
0.00000071 0.00000060 0.00000065
0.00000071 0.00000060 0.00000065
0.00000071 0.00000060 0.00000065
0.00000071 0.00000060 0.00000065
0.00000071 0.00000060 0.00000065
0.00000071 0.00000060 0.00000065
0.00000071 0.00000060 0.00000065
0.00000071 0.00000060 0.00000065
0.00000071 0.00000060 0.00000065
0.00000071 0.00000060 0.00000065
0.00000071 0.00000060 0.00000065
0.00000000 0.00000000 0.00000000
0.00000000 0.00000000 0.00000000
0.00000000 0.00000000 0.00000000
0.00000000 0.00000000 0.00000000
0.00000000 0.00000000 0.00000000
0.00000000 0.00000000 0.00000000
0.00000004 0.00000000 0.10008184
0.00000006 0.00000000 0.17076412
0.00000007 0.00000000 0.23654575
0.00000008 0.00000000 0.30448001
0.00000009 0.00000000 0.37789828
0.00000009 0.00000000 0.45921649
0.00000010 0.00000000 0.55062551
0.00000010 0.00000000 0.65435852
0.00000010 0.00000000 0.77283698
0.00000071 0.00000060 0.00000065
0.00000071 0.00000060 0.00000065
0.00000071 0.00000060 0.00000065
0.00000071 0.00000060 0.00000065
0.00000071 0.00000060 0.00000065
0.00000000 0.00000000 0.00000000
0.00000071 0.00000060 0.00000065
0.00000071 0.00000060 0.00000065
0.00000071 0.00000060 0.00000065
0.00000071 0.00000060 0.00000065
0.00000071 0.00000060 0.00000065
0.00000071 0.00000060 0.00000065
0.00000071 0.00000060 0.00000065
0.00000071 0.00000060 0.00000065
0.00000071 0.00000060 0.00000065
0.00000071 0.00000060 0.00000065
0.00000071 0.00000060 0.00000065
0.00000071 0.00000060 0.00000065
0.00000000 0.00000000 0.00000000
0.00000000 0.00000000 0.00000000
0.00000000 0.00000000 0.00000000
0.00000000 0.00000000 0.00000000
0.00000000 0.00000000 0.00000000
0.00000000 0.00000000 0.00000000
0.00000004 0.00000000 0.10008184
0.00000006 0.00000000 0.17076412
0.00000007 0.00000000 0.23654575
0.00000008 0.00000000 0.30448001
0.00000009 0.00000000 0.37789828
0.00000009 0.00000000 0.45921649
0.00000010 0.00000000 0.55062551
0.00000010 0.00000000 0.65435852
0.00000010 0.00000000 0.77283698
0.00000071 0.00000060 0.00000065
0.00000071 0.00000060 0.00000065
0.00000071 0.00000060 0.00000065
0.00000071 0.00000060 0.00000065
0.00000071 0.00000060 0.00000065
0.00000000 0.00000000 0.00000000
0.00000071 0.00000060 0.00000065
0.00000071 0.00000060 0.00000065
0.00000071 0.00000060 0.00000065
0.00000071 0.00000060 0.00000065
0.00000071 0.00000060 0.00000065
0.00000071 0.00000060 0.00000065
0.00000071 0.00000060 0.00000065
0.00000071 0.00000060 0.00000065
0.00000071 0.00000060 0.00000065
0.00000071 0.00000060 0.00000065
0.00000071 0.00000060 0.00000065
0.00000071 0.00000060 0.00000065
0.00000000 0.00000000 0.00000000
0.00000000 0.00000000 0.00000000
0.00000000 0.00000000 0.00000000
0.00000000 0.00000000 0.00000000
0.00000000 0.00000000 0.00000000
0.00000000 0.00000000 0.00000000
0.00000004 0.00000000 0.10008184
0.00000006 0.00000000 0.17076412
0.00000007 0.00000000 0.23654575
0.00000008 0.00000000 0.30448001
0.00000009 0.00000000 0.37789828
0.00000009 0.00000000 0.45921649
0.00000010 0.00000000 0.55062551
0.00000010 0.00000000 0.65435852
0.00000010 0.00000000 0.77283698
0.00000071 0.00000060 0.00000065
0.00000071 0.00000060 0.00000065
0.00000071 0.00000060 0.00000065
0.00000071 0.00000060 0.00000065
0.00000071 0.00000060 0.00000065
0.00000000 0.00000000 0.00000000
0.00000071 0.00000060 0.00000065
0.00000071 0.00000060 0.00000065
0.00000071 0.00000060 0.00000065
0.00000071 0.00000060 0.00000065
0.00000071 0.00000060 0.00000065
0.00000071 0.00000060 0.00000065
0.00000071 0.00000060 0.00000065
0.00000071 0.00000060 0.00000065
0.00000071 0.00000060 0.00000065
0.00000071 0.00000060 0.00000065
0.00000071 0.00000060 0.00000065
0.00000071 0.00000060 0.00000065
0.00000000 0.00000000 0.00000000
0.00000000 0.00000000 0.00000000
0.00000000 0.00000000 0.00000000
0.00000000 0.00000000 0.00000000
0.00000000 0.00000000 0.00000000
0.00000000 0.00000000 0.00000000
0.00000004 0.00000000 0.10008184
0.00000006 0.00000000 0.17076412
0.00000007 0.00000000 0.23654575
0.00000008 0.00000000 0.30448001
0.00000009 0.00000000 0.37789828
0.00000009 0.00000000 0.45921649
0.00000010 0.00000000 0.55062551
0.00000010 0.00000000 0.65435852
0.00000010 0.00000000 0.77283698
0.08198174 0.19820988 0.10956857
0.08198174 0.19820988 0.10956857
0.08198174 0.19820988 0.10956857
0.08198174 0.19820988 0.10956857
0.08198174 0.19820988 0.10956857
0.00000068 0.00000218 0.00000204
0.08198174 0.19820988 0.10956857
0.08198174 0.19820988 0.10956857
0.08198174 0.19820988 0.10956857
0.08198174 0.19820988 0.10956857
0.08198174 0.19820988 0.10956857
0.08198174 0.19820988 0.10956857
0.08198174 0.19820988 0.10956857
0.08198174 0.19820988 0.10956857
0.08198174 0.19820988 0.10956857
0.08198174 0.19820988 0.10956857
0.08198174 0.19820988 0.10956857
0.08198174 0.19820988 0.10956857
0.00000000 0.00000000 0.00000000
0.00000000 0.00000000 0.00000000
0.00000000 0.00000000 0.00000000
0.00000000 0.00000000 0.00000000
0.00000000 0.00000000 0.00000000
0.00000000 0.00000000 0.00000000
0.00000004 0.00000000 0.10008145
0.00000006 0.00000000 0.17076387
0.00000007 0.00000000 0.23654557
0.00000008 0.00000000 0.30447987
0.00000009 0.00000000 0.37789816
0.00000009 0.00000000 0.45921640
0.00000010 0.00000000 0.55062542
0.00000010 0.00000000 0.65435845
0.00000010 0.00000000 0.77283692
0.00000071 0.00000060 0.00000065
0.00000071 0.00000060 0.00000065
0.00000071 0.00000060 0.00000065
0.00000071 0.00000060 0.00000065
0.00000071 0.00000060 0.00000065
0.00000000 0.00000000 0.00000000
0.00000071 0.00000060 0.00000065
0.00000071 0.00000060 0.00000065
0.00000071 0.00000060 0.00000065
0.00000071 0.00000060 0.00000065
0.00000071 0.00000060 0.00000065
0.00000071 0.00000060 0.00000065
0.00000071 0.00000060 0.00000065
0.00000071 0.00000060 0.00000065
0.00000071 0.00000060 0.00000065
0.00000071 0.00000060 0.00000065
0.00000071 0.00000060 0.00000065
0.00000071 0.00000060 0.00000065
0.00000000 0.00000000 0.00000000
0.00000000 0.00000000 0.00000000
0.00000000 0.00000000 0.00000000
0.00000000 0.00000000 0.00000000
0.00000000 0.00000000 0.00000000
0.00000000 0.00000000 0.00000000
0.00000004 0.00000000 0.10008184
0.00000006 0.00000000 0.17076412
0.00000007 0.00000000 0.23654575
0.00000008 0.00000000 0.30448001
0.00000009 0.00000000 0.37789828
0.00000009 0.00000000 0.45921649
0.00000010 0.00000000 0.55062551
0.00000010 0.00000000 0.65435852
0.00000010 0.00000000 0.77283698
0.00000071 0.00000060 0.00000065
0.00000071 0.00000060 0.00000065
0.00000071 0.00000060 0.00000065
0.00000071 0.00000060 0.00000065
0.00000071 0.00000060 0.00000065
0.00000000 0.00000000 0.00000000
0.00000071 0.00000060 0.00000065
0.00000071 0.00000060 0.00000065
0.00000071 0.00000060 0.00000065
0.00000071 0.00000060 0.00000065
0.00000071 0.00000060 0.00000065
0.00000071 0.00000060 0.00000065
0.00000071 0.00000060 0.00000065
0.00000071 0.00000060 0.00000065
0.00000071 0.00000060 0.00000065
0.00000071 0.00000060 0.00000065
0.00000071 0.00000060 0.00000065
0.00000071 0.00000060 0.00000065
0.00000000 0.00000000 0.00000000
0.00000000 0.00000000 0.00000000
0.00000000 0.00000000 0.00000000
0.00000000 0.00000000 0.00000000
0.00000000 0.00000000 0.00000000
0.00000000 0.00000000 0.00000000
0.00000004 0.00000000 0.10008184
0.00000006 0.00000000 0.17076412
0.00000007 0.00000000 0.23654575
0.00000008 0.00000000 0.30448001
0.00000009 0.00000000 0.37789828
0.00000009 0.00000000 0.45921649
0.00000010 0.00000000 0.55062551
0.00000010 0.00000000 0.65435852
0.00000010 0.00000000 0.77283698
0.00000071 0.00000060 0.00000065
0.00000071 0.00000060 0.00000065
0.00000071 0.00000060 0.00000065
0.00000071 0.00000060 0.00000065
0.00000071 0.00000060 0.00000065
0.00000000 0.00000000 0.00000000
0.00000071 0.00000060 0.00000065
0.00000071 0.00000060 0.00000065
0.00000071 0.00000060 0.00000065
0.00000071 0.00000060 0.00000065
0.00000071 0.00000060 0.00000065
0.00000071 0.00000060 0.00000065
0.00000071 0.00000060 0.00000065
0.00000071 0.00000060 0.00000065
0.00000071 0.00000060 0.00000065
0.00000071 0.00000060 0.00000065
0.00000071 0.00000060 0.00000065
0.00000071 0.00000060 0.00000065
0.00000000 0.00000000 0.00000000
0.00000000 0.00000000 0.00000000
0.00000000 0.00000000 0.00000000
0.00000000 0.00000000 0.00000000
0.00000000 0.00000000 0.00000000
0.00000000 0.00000000 0.00000000
0.00000004 0.00000000 0.10008184
0.00000006 0.00000000 0.17076412
0.00000007 0.00000000 0.23654575
0.00000008 0.00000000 0.30448001
0.00000009 0.00000000 0.37789828
0.00000009 0.00000000 0.45921649
0.00000010 0.00000000 0.55062551
0.00000010 0.00000000 0.65435852
0.00000010 0.00000000 0.77283698
0.00000071 0.00000060 0.00000065
0.00000071 0.00000060 0.00000065
0.00000071 0.00000060 0.00000065
0.00000071 0.00000060 0.00000065
0.00000071 0.00000060 0.00000065
0.00000000 0.00000000 0.00000000
0.00000071 0.00000060 0.00000065
0.00000071 0.00000060 0.00000065
0.00000071 0.00000060 0.00000065
0.00000071 0.00000060 0.00000065
0.00000071 0.00000060 0.00000065
0.00000071 0.00000060 0.00000065
0.00000071 0.00000060 0.00000065
0.00000071 0.00000060 0.00000065
0.00000071 0.00000060 0.00000065
0.00000071 0.00000060 0.00000065
0.00000071 0.00000060 0.00000065
0.00000071 0.00000060 0.00000065
0.00000000 0.00000000 0.00000000
0.00000000 0.00000000 0.00000000
0.00000000 0.00000000 0.00000000
0.00000000 0.00000000 0.00000000
0.00000000 0.00000000 0.00000000
0.00000000 0.00000000 0.00000000
0.00000004 0.00000000 0.10008184
0.00000006 0.00000000 0.17076412
0.00000007 0.00000000 0.23654575
0.00000008 0.00000000 0.30448001
0.00000009 0.00000000 0.37789828
0.00000009 0.00000000 0.45921649
0.00000010 0.00000000 0.55062551
0.00000010 0.00000000 0.65435852
0.00000010 0.00000000 0.77283698
0.00000071 0.00000060 0.00000065
0.00000071 0.00000060 0.00000065
0.00000071 0.00000060 0.00000065
0.00000071 0.00000060 0.00000065
0.00000071 0.00000060 0.00000065
0.00000000 0.00000000 0.00000000
0.00000071 0.00000060 0.00000065
0.00000071 0.00000060 0.00000065
0.00000071 0.00000060 0.00000065
0.00000071 0.00000060 0.00000065
0.00000071 0.00000060 0.00000065
0.00000071 0.00000060 0.00000065
0.00000071 0.00000060 0.00000065
0.00000071 0.00000060 0.00000065
0.00000071 0.00000060 0.00000065
0.00000071 0.00000060 0.00000065
0.00000071 0.00000060 0.00000065
0.00000071 0.00000060 0.00000065
0.00000000 0.00000000 0.00000000
0.00000000 0.00000000 0.00000000
0.00000000 0.00000000 0.00000000
0.00000000 0.00000000 0.00000000
0.00000000 0.00000000 0.00000000
0.00000000 0.00000000 0.00000000
0.00000004 0.00000000 0.10008184
0.00000006 0.00000000 0.17076412
0.00000007 0.00000000 0.23654575
0.00000008 0.00000000 0.30448001
0.00000009 0.00000000 0.37789828
0.00000009 0.00000000 0.45921649
0.00000010 0.00000000 0.55062551
0.00000010 0.00000000 0.65435852
0.00000010 0.00000000 0.77283698
0.00000071 0.00000060 0.00000065
0.00000071 0.00000060 0.00000065
0.00000071 0.00000060 0.00000065
0.00000071 0.00000060 0.00000065
0.00000071 0.00000060 0.00000065
0.00000000 0.00000000 0.00000000
0.00000071 0.00000060 0.00000065
0.00000071 0.00000060 0.00000065
0.00000071 0.00000060 0.00000065
0.00000071 0.00000060 0.00000065
0.00000071 0.00000060 0.00000065
0.00000071 0.00000060 0.00000065
0.00000071 0.00000060 0.00000065
0.00000071 0.00000060 0.00000065
0.00000071 0.00000060 0.00000065
0.00000071 0.00000060 0.00000065
0.00000071 0.00000060 0.00000065
0.00000071 0.00000060 0.00000065
0.00000000 0.00000000 0.00000000
0.00000000 0.00000000 0.00000000
0.00000000 0.00000000 0.00000000
0.00000000 0.00000000 0.00000000
0.00000000 0.00000000 0.00000000
0.00000000 0.00000000 0.00000000
0.00000004 0.00000000 0.10008184
0.00000006 0.00000000 0.17076412
0.00000007 0.00000000 0.23654575
0.00000008 0.00000000 0.30448001
0.00000009 0.00000000 0.37789828
0.00000009 0.00000000 0.45921649
0.00000010 0.00000000 0.55062551
0.00000010 0.00000000 0.65435852
0.00000010 0.00000000 0.77283698
0.00000071 0.00000060 0.00000065
0.00000071 0.00000060 0.00000065
0.00000071 0.00000060 0.00000065
0.00000071 0.00000060 0.00000065
0.00000071 0.00000060 0.00000065
0.00000000 0.00000000 0.00000000
0.00000071 0.00000060 0.00000065
0.00000071 0.00000060 0.00000065
0.00000071 0.00000060 0.00000065
0.00000071 0.00000060 0.00000065
0.00000071 0.00000060 0.00000065
0.00000071 0.00000060 0.00000065
0.00000071 0.00000060 0.00000065
0.00000071 0.00000060 0.00000065
0.00000071 0.00000060 0.00000065
0.00000071 0.00000060 0.00000065
0.00000071 0.00000060 0.00000065
0.00000071 0.00000060 0.00000065
0.00000000 0.00000000 0.00000000
0.00000000 0.00000000 0.00000000
0.00000000 0.00000000 0.00000000
0.00000000 0.00000000 0.00000000
0.00000000 0.00000000 0.00000000
0.00000000 0.00000000 0.00000000
0.00000004 0.00000000 0.10008184
0.00000006 0.00000000 0.17076412
0.00000007 0.00000000 0.23654575
0.00000008 0.00000000 0.30448001
0.00000009 0.00000000 0.37789828
0.00000009 0.00000000 0.45921649
0.00000010 0.00000000 0.55062551
0.00000010 0.00000000 0.65435852
0.00000010 0.00000000 0.77283698
0.00000071 0.00000060 0.00000065
0.00000071 0.00000060 0.00000065
0.00000071 0.00000060 0.00000065
0.00000071 0.00000060 0.00000065
0.00000071 0.00000060 0.00000065
0.00000000 0.00000000 0.00000000
0.00000071 0.00000060 0.00000065
0.00000071 0.00000060 0.00000065
0.00000071 0.00000060 0.00000065
0.00000071 0.00000060 0.00000065
0.00000071 0.00000060 0.00000065
0.00000071 0.00000060 0.00000065
0.00000071 0.00000060 0.00000065
0.00000071 0.00000060 0.00000065
0.00000071 0.00000060 0.00000065
0.00000071 0.00000060 0.00000065
0.00000071 0.00000060 0.00000065
0.00000071 0.00000060 0.00000065
0.00000000 0.00000000 0.00000000
0.00000000 0.00000000 0.00000000
0.00000000 0.00000000 0.00000000
0.00000000 0.00000000 0.00000000
0.00000000 0.00000000 0.00000000
0.00000000 0.00000000 0.00000000
0.00000004 0.00000000 0.10008184
0.00000006 0.00000000 0.17076412
0.00000007 0.00000000 0.23654575
0.00000008 0.00000000 0.30448001
0.00000009 0.00000000 0.37789828
0.00000009 0.00000000 0.45921649
0.00000010 0.00000000 0.55062551
0.00000010 0.00000000 0.65435852
0.00000010 0.00000000 0.77283698
0.00000071 0.00000060 0.00000065
0.00000071 0.00000060 0.00000065
0.00000071 0.00000060 0.00000065
0.00000071 0.00000060 0.00000065
0.00000071 0.00000060 0.00000065
0.00000000 0.00000000 0.00000000
0.00000071 0.00000060 0.00000065
0.00000071 0.00000060 0.00000065
0.00000071 0.00000060 0.00000065
0.00000071 0.00000060 0.00000065
0.00000071 0.00000060 0.00000065
0.00000071 0.00000060 0.00000065
0.00000071 0.00000060 0.00000065
0.00000071 0.00000060 0.00000065
0.00000071 0.00000060 0.00000065
0.00000071 0.00000060 0.00000065
0.00000071 0.00000060 0.00000065
0.00000071 0.00000060 0.00000065
0.00000000 0.00000000 0.00000000
0.00000000 0.00000000 0.00000000
0.00000000 0.00000000 0.00000000
0.00000000 0.00000000 0.00000000
0.00000000 0.00000000 0.00000000
0.00000000 0.00000000 0.00000000
0.00000004 0.00000000 0.10008184
0.00000006 0.00000000 0.17076412
0.00000007 0.00000000 0.23654575
0.00000008 0.00000000 0.30448001
0.00000009 0.00000000 0.37789828
0.00000009 0.00000000 0.45921649
0.00000010 0.00000000 0.55062551
0.00000010 0.00000000 0.65435852
0.00000010 0.00000000 0.77283698
0.00000071 0.00000060 0.00000065
0.00000071 0.00000060 0.00000065
0.00000071 0.00000060 0.00000065
0.00000071 0.00000060 0.00000065
0.00000071 0.00000060 0.00000065
0.00000000 0.00000000 0.00000000
0.00000071 0.00000060 0.00000065
0.00000071 0.00000060 0.00000065
0.00000071 0.00000060 0.00000065
0.00000071 0.00000060 0.00000065
0.00000071 0.00000060 0.00000065
0.00000071 0.00000060 0.00000065
0.00000071 0.00000060 0.00000065
0.00000071 0.00000060 0.00000065
0.00000071 0.00000060 0.00000065
0.00000071 0.00000060 0.00000065
0.00000071 0.00000060 0.00000065
0.00000071 0.00000060 0.00000065
0.00000000 0.00000000 0.00000000
0.00000000 0.00000000 0.00000000
0.00000000 0.00000000 0.00000000
0.00000000 0.00000000 0.00000000
0.00000000 0.00000000 0.00000000
0.00000000 0.00000000 0.00000000
0.00000004 0.00000000 0.10008184
0.00000006 0.00000000 0.17076412
0.00000007 0.00000000 0.23654575
0.00000008 0.00000000 0.30448001
0.00000009 0.00000000 0.37789828
0.00000009 0.00000000 0.45921649
0.00000010 0.00000000 0.55062551
0.00000010 0.00000000 0.65435852
0.00000010 0.00000000 0.77283698
0.00000071 0.00000060 0.00000065
0.00000071 0.00000060 0.00000065
0.00000071 0.00000060 0.00000065
0.00000071 0.00000060 0.00000065
0.00000071 0.00000060 0.00000065
0.00000000 0.00000000 0.00000000
0.00000071 0.00000060 0.00000065
0.00000071 0.00000060 0.00000065
0.00000071 0.00000060 0.00000065
0.00000071 0.00000060 0.00000065
0.00000071 0.00000060 0.00000065
0.00000071 0.00000060 0.00000065
0.00000071 0.00000060 0.00000065
0.00000071 0.00000060 0.00000065
0.00000071 0.00000060 0.00000065
0.00000071 0.00000060 0.00000065
0.00000071 0.00000060 0.00000065
0.00000071 0.00000060 0.00000065
0.00000000 0.00000000 0.00000000
0.00000000 0.00000000 0.00000000
0.00000000 0.00000000 0.00000000
0.00000000 0.00000000 0.00000000
0.00000000 0.00000000 0.00000000
0.00000000 0.00000000 0.00000000
0.00000004 0.00000000 0.10008184
0.00000006 0.00000000 0.17076412
0.00000007 0.00000000 0.23654575
0.00000008 0.00000000 0.30448001
0.00000009 0.00000000 0.37789828
0.00000009 0.00000000 0.45921649
0.00000010 0.00000000 0.55062551
0.00000010 0.00000000 0.65435852
0.00000010 0.00000000 0.77283698
0.00000071 0.00000060 0.00000065
0.00000071 0.00000060 0.00000065
0.00000071 0.00000060 0.00000065
0.00000071 0.00000060 0.00000065
0.00000071 0.00000060 0.00000065
0.00000000 0.00000000 0.00000000
0.00000071 0.00000060 0.00000065
0.00000071 0.00000060 0.00000065
0.00000071 0.00000060 0.00000065
0.00000071 0.00000060 0.00000065
0.00000071 0.00000060 0.00000065
0.00000071 0.00000060 0.00000065
0.00000071 0.00000060 0.00000065
0.00000071 0.00000060 0.00000065
0.00000071 0.00000060 0.00000065
0.00000071 0.00000060 0.00000065
0.00000071 0.00000060 0.00000065
0.00000071 0.00000060 0.00000065
0.00000000 0.00000000 0.00000000
0.00000000 0.00000000 0.00000000
0.00000000 0.00000000 0.00000000
0.00000000 0.00000000 0.00000000
0.00000000 0.00000000 0.00000000
0.00000000 0.00000000 0.00000000
0.00000004 0.00000000 0.10008184
0.00000006 0.00000000 0.17076412
0.00000007 0.00000000 0.23654575
0.00000008 0.00000000 0.30448001
0.00000009 0.00000000 0.37789828
0.00000009 0.00000000 0.45921649
0.00000010 0.00000000 0.55062551
0.00000010 0.00000000 0.65435852
0.00000010 0.00000000 0.77283698
0.00000000 0.22270497 0.08701665
0.00000000 0.22270497 0.08701665
0.00000000 0.22270497 0.08701665
0.00000000 0.22270497 0.08701665
0.00000000 0.22270497 0.08701665
0.00000000 0.22270487 0.08701660
0.00000000 0.22270497 0.08701665
0.00000000 0.22270497 0.08701665
0.00000000 0.22270497 0.08701665
0.00000000 0.22270497 0.08701665
0.00000000 0.22270497 0.08701665
0.00000000 0.22270497 0.08701665
0.00000000 0.22270497 0.08701665
0.00000000 0.22270497 0.08701665
0.00000000 0.22270497 0.08701665
0.00000000 0.22270497 0.08701665
0.00000000 0.22270497 0.08701665
0.00000000 0.22270497 0.08701665
0.00000000 0.00705728 0.00538052
0.00000000 0.00000000 0.00000000
0.00000000 0.00000000 0.00000000
0.00000000 0.00000000 0.00000000
0.00000000 0.00000000 0.00000000
0.00000000 0.00000000 0.00000000
0.00000003 0.00000000 0.09915718
0.00000006 0.00000000 0.17018602
0.00000007 0.00000000 0.23611847
0.00000008 0.00000000 0.30414340
0.00000009 0.00000000 0.37762437
0.00000009 0.00000000 0.45898941
0.00000010 0.00000000 0.55043502
0.00000010 0.00000000 0.65419749
0.00000010 0.00000000 0.77270011
0.00000000 0.22811292 0.08978398
0.00000000 0.22811292 0.08978398
0.00000000 0.22811292 0.08978398
0.00000000 0.22811292 0.08978398
0.00000000 0.22811292 0.08978398
0.00000000 0.22811280 0.08978392
0.00000000 0.22811292 0.08978398
0.00000000 0.22811292 0.08978398
0.00000000 0.22811292 0.08978398
0.00000000 0.22811292 0.08978398
0.00000000 0.22811292 0.08978398
0.00000000 0.22811292 0.08978398
0.00000000 0.22811292 0.08978398
0.00000000 0.22811292 0.08978398
0.00000000 0.22811292 0.08978398
0.00000000 0.22811292 0.08978398
0.00000000 0.22811292 0.08978398
0.00000000 0.22811292 0.08978398
0.00000000 0.22783465 0.11735940
0.00000000 0.02885212 0.02149822
0.00000000 0.00000000 0.00000000
0.00000000 0.00000000 0.00000000
0.00000000 0.00000000 0.00000000
0.00000000 0.00000000 0.00000000
0.00000003 0.00000000 0.09711618
0.00000006 0.00000000 0.16891942
0.00000007 0.00000000 0.23518441
0.00000008 0.00000000 0.30340830
0.00000009 0.00000000 0.37702657
0.00000009 0.00000000 0.45849396
0.00000010 0.00000000 0.55001950
0.00000010 0.00000000 0.65384627
0.00000010 0.00000000 0.77240163
0.00000000 0.23640777 0.09402628
0.00000000 0.23640777 0.09402628
0.00000000 0.23640777 0.09402628
0.00000000 0.23640777 0.09402628
0.00000000 0.23640777 0.09402628
0.00000000 0.23640764 0.09402621
0.00000000 0.23640777 0.09402628
0.00000000 0.23640777 0.09402628
0.00000000 0.23640777 0.09402628
0.00000000 0.23640777 0.09402628
0.00000000 0.23640777 0.09402628
0.00000000 0.23640777 0.09402628
0.00000000 0.23640777 0.09402628
0.00000000 0.23640777 0.09402628
0.00000000 0.23640777 0.09402628
0.00000000 0.23640777 0.09402628
0.00000000 0.23640777 0.09402628
0.00000000 0.23640777 0.09402628
0.00000000 0.23610326 0.09755858
0.00000000 0.23544143 0.15624703
0.00000000 0.06013829 0.04626195
0.00000000 0.00000000 0.00000000
0.00000000 0.00000000 0.00000000
0.00000000 0.00000000 0.00000000
0.00000000 0.00873116 0.09433206
0.00000000 0.00665788 0.16720789
0.00000007 0.00000000 0.23392063
0.00000008 0.00000000 0.30241538
0.00000009 0.00000000 0.37621984
0.00000009 0.00000000 0.45782573
0.00000010 0.00000000 0.54945929
0.00000010 0.00000000 0.65337287
0.00000010 0.00000000 0.77199937
0.00000000 0.24829303 0.10010454
0.00000000 0.24829303 0.10010454
0.00000000 0.24829303 0.10010454
0.00000000 0.24829303 0.10010454
0.00000000 0.24829303 0.10010454
0.00000000 0.24829289 0.10010447
0.00000000 0.24829303 0.10010454
0.00000000 0.24829303 0.10010454
0.00000000 0.24829303 0.10010454
0.00000000 0.24829303 0.10010454
0.00000000 0.24829303 0.10010454
0.00000000 0.24829303 0.10010454
0.00000000 0.24829303 0.10010454
0.00000000 0.24829303 0.10010454
0.00000000 0.24829303 0.10010454
0.00000000 0.24829303 0.10010454
0.00000000 0.24829303 0.10010454
0.00000000 0.24829303 0.10010454
0.00000000 0.24797528 0.09994204
0.00000000 0.24728322 0.12960103
0.00000000 0.24635247 0.17796184
0.00000000 0.09276941 0.07437127
0.00000000 0.08816061 0.10830509
0.00000000 0.00000000 0.00000000
0.00000000 0.02438007 0.09048416
0.00000000 0.03319306 0.16489927
0.00000000 0.02575712 0.23223437
0.00000000 0.00696414 0.30107969
