luts/S9_VLog_to_leica_classic.cube
# Film Emulation LUT
# Generated by lutex.py
# Grid: 33³
TITLE "Panasonic S9 V-Log to Leica Classic Look — Draft v1"
LUT_3D_SIZE 33
DOMAIN_MIN 0.0 0.0 0.0
DOMAIN_MAX 1.0 1.0 1.0
0.00004713 0.00005087 0.00003217
0.00004713 0.00005087 0.00003217
0.00004713 0.00005087 0.00003217
0.00004713 0.00005087 0.00003217
0.00004713 0.00005087 0.00003217
0.00020946 0.00005699 0.00002607
0.00039516 0.00006271 0.00001893
0.00061205 0.00006938 0.00001059
0.00089224 0.00007817 0.00000000
0.00124240 0.00010110 0.00000000
0.00170634 0.00013176 0.00000000
0.00244028 0.00018047 0.00000000
0.00345545 0.00024801 0.00000000
0.00485859 0.00034145 0.00000000
0.00679697 0.00047061 0.00000000
0.00947378 0.00064901 0.00000000
0.01316933 0.00089535 0.00000000
0.01793662 0.00121315 0.00000000
0.02790030 0.00187737 0.00000000
0.04465123 0.00300769 0.00000000
0.06654430 0.00483379 0.00000000
0.09276772 0.00771493 0.00000000
0.12392903 0.01220157 0.00000000
0.16086073 0.01913265 0.00000000
0.20460991 0.02978439 0.00000000
0.25645189 0.04579078 0.00000000
0.31791849 0.06567573 0.00000000
0.39083662 0.08926679 0.00000000
0.47737531 0.11726560 0.00000000
0.58009961 0.15050199 0.00000000
0.70202854 0.18995269 0.00000000
0.84669181 0.23675971 0.00000000
1.00000000 0.35867006 0.22614482
0.00004713 0.00005087 0.00003217
0.00004713 0.00005087 0.00003217
0.00004713 0.00005087 0.00003217
0.00004713 0.00005087 0.00003217
0.00004713 0.00005087 0.00003217
0.00020946 0.00005699 0.00002607
0.00039516 0.00006271 0.00001893
0.00061205 0.00006938 0.00001059
0.00089224 0.00007817 0.00000000
0.00124240 0.00010110 0.00000000
0.00170634 0.00013176 0.00000000
0.00244028 0.00018047 0.00000000
0.00345545 0.00024801 0.00000000
0.00485859 0.00034145 0.00000000
0.00679697 0.00047061 0.00000000
0.00947378 0.00064901 0.00000000
0.01316933 0.00089535 0.00000000
0.01793662 0.00121315 0.00000000
0.02790030 0.00187737 0.00000000
0.04465123 0.00300769 0.00000000
0.06654430 0.00483379 0.00000000
0.09276772 0.00771493 0.00000000
0.12392903 0.01220157 0.00000000
0.16086073 0.01913265 0.00000000
0.20460991 0.02978439 0.00000000
0.25645189 0.04579078 0.00000000
0.31791849 0.06567573 0.00000000
0.39083662 0.08926679 0.00000000
0.47737531 0.11726560 0.00000000
0.58009961 0.15050199 0.00000000
0.70202854 0.18995269 0.00000000
0.84669181 0.23675971 0.00000000
1.00000000 0.35867006 0.22614482
0.00004713 0.00005087 0.00003217
0.00004713 0.00005087 0.00003217
0.00004713 0.00005087 0.00003217
0.00004713 0.00005087 0.00003217
0.00004713 0.00005087 0.00003217
0.00020946 0.00005699 0.00002607
0.00039516 0.00006271 0.00001893
0.00061205 0.00006938 0.00001059
0.00089224 0.00007817 0.00000000
0.00124240 0.00010110 0.00000000
0.00170634 0.00013176 0.00000000
0.00244028 0.00018047 0.00000000
0.00345545 0.00024801 0.00000000
0.00485859 0.00034145 0.00000000
0.00679697 0.00047061 0.00000000
0.00947378 0.00064901 0.00000000
0.01316933 0.00089535 0.00000000
0.01793662 0.00121315 0.00000000
0.02790030 0.00187737 0.00000000
0.04465123 0.00300769 0.00000000
0.06654430 0.00483379 0.00000000
0.09276772 0.00771493 0.00000000
0.12392903 0.01220157 0.00000000
0.16086073 0.01913265 0.00000000
0.20460991 0.02978439 0.00000000
0.25645189 0.04579078 0.00000000
0.31791849 0.06567573 0.00000000
0.39083662 0.08926679 0.00000000
0.47737531 0.11726560 0.00000000
0.58009961 0.15050199 0.00000000
0.70202854 0.18995269 0.00000000
0.84669181 0.23675971 0.00000000
1.00000000 0.35867006 0.22614482
0.00004713 0.00005087 0.00003217
0.00004713 0.00005087 0.00003217
0.00004713 0.00005087 0.00003217
0.00004713 0.00005087 0.00003217
0.00004713 0.00005087 0.00003217
0.00020946 0.00005699 0.00002607
0.00039516 0.00006271 0.00001893
0.00061205 0.00006938 0.00001059
0.00089224 0.00007817 0.00000000
0.00124240 0.00010110 0.00000000
0.00170634 0.00013176 0.00000000
0.00244028 0.00018047 0.00000000
0.00345545 0.00024801 0.00000000
0.00485859 0.00034145 0.00000000
0.00679697 0.00047061 0.00000000
0.00947378 0.00064901 0.00000000
0.01316933 0.00089535 0.00000000
0.01793662 0.00121315 0.00000000
0.02790030 0.00187737 0.00000000
0.04465123 0.00300769 0.00000000
0.06654430 0.00483379 0.00000000
0.09276772 0.00771493 0.00000000
0.12392903 0.01220157 0.00000000
0.16086073 0.01913265 0.00000000
0.20460991 0.02978439 0.00000000
0.25645189 0.04579078 0.00000000
0.31791849 0.06567573 0.00000000
0.39083662 0.08926679 0.00000000
0.47737531 0.11726560 0.00000000
0.58009961 0.15050199 0.00000000
0.70202854 0.18995269 0.00000000
0.84669181 0.23675971 0.00000000
1.00000000 0.35867006 0.22614482
0.00004713 0.00005087 0.00003217
0.00004713 0.00005087 0.00003217
0.00004713 0.00005087 0.00003217
0.00004713 0.00005087 0.00003217
0.00004713 0.00005087 0.00003217
0.00020946 0.00005699 0.00002607
0.00039516 0.00006271 0.00001893
0.00061205 0.00006938 0.00001059
0.00089224 0.00007817 0.00000000
0.00124240 0.00010110 0.00000000
0.00170634 0.00013176 0.00000000
0.00244028 0.00018047 0.00000000
0.00345545 0.00024801 0.00000000
0.00485859 0.00034145 0.00000000
0.00679697 0.00047061 0.00000000
0.00947378 0.00064901 0.00000000
0.01316933 0.00089535 0.00000000
0.01793662 0.00121315 0.00000000
0.02790030 0.00187737 0.00000000
0.04465123 0.00300769 0.00000000
0.06654430 0.00483379 0.00000000
0.09276772 0.00771493 0.00000000
0.12392903 0.01220157 0.00000000
0.16086073 0.01913265 0.00000000
0.20460991 0.02978439 0.00000000
0.25645189 0.04579078 0.00000000
0.31791849 0.06567573 0.00000000
0.39083662 0.08926679 0.00000000
0.47737531 0.11726560 0.00000000
0.58009961 0.15050199 0.00000000
0.70202854 0.18995269 0.00000000
0.84669181 0.23675971 0.00000000
1.00000000 0.35867006 0.22614482
0.00004281 0.00016341 0.00002784
0.00004281 0.00016341 0.00002784
0.00004281 0.00016341 0.00002784
0.00004281 0.00016341 0.00002784
0.00004281 0.00016341 0.00002784
0.00013389 0.00014420 0.00002858
0.00032547 0.00013705 0.00002161
0.00054565 0.00011810 0.00001314
0.00082868 0.00009080 0.00000226
0.00118327 0.00009721 0.00000000
0.00164127 0.00012745 0.00000000
0.00237022 0.00017582 0.00000000
0.00338352 0.00024322 0.00000000
0.00478479 0.00033653 0.00000000
0.00672129 0.00046556 0.00000000
0.00939619 0.00064384 0.00000000
0.01308982 0.00089005 0.00000000
0.01783808 0.00120658 0.00000000
0.02776850 0.00186858 0.00000000
0.04450167 0.00299693 0.00000000
0.06641030 0.00482105 0.00000000
0.09264920 0.00770012 0.00000000
0.12382467 0.01218452 0.00000000
0.16076896 0.01911315 0.00000000
0.20452920 0.02976218 0.00000000
0.25638088 0.04576781 0.00000000
0.31785597 0.06565550 0.00000000
0.39078155 0.08924897 0.00000000
0.47732679 0.11724990 0.00000000
0.58005685 0.15048815 0.00000000
0.70199087 0.18994050 0.00000000
0.84665864 0.23674898 0.00000000
1.00000000 0.35856664 0.22595448
0.00003737 0.00030465 0.00002241
0.00003737 0.00030465 0.00002241
0.00003737 0.00030465 0.00002241
0.00003737 0.00030465 0.00002241
0.00003737 0.00030465 0.00002241
0.00004468 0.00028693 0.00002309
0.00025315 0.00026895 0.00002379
0.00047797 0.00026853 0.00001575
0.00076399 0.00024565 0.00000475
0.00112344 0.00021917 0.00000000
0.00158350 0.00018839 0.00000000
0.00229985 0.00017114 0.00000000
0.00331123 0.00023841 0.00000000
0.00471058 0.00033159 0.00000000
0.00664517 0.00046049 0.00000000
0.00931815 0.00063864 0.00000000
0.01300982 0.00088472 0.00000000
0.01773943 0.00120000 0.00000000
0.02763614 0.00185976 0.00000000
0.04435102 0.00298612 0.00000000
0.06627532 0.00480825 0.00000000
0.09252983 0.00768522 0.00000000
0.12371958 0.01216737 0.00000000
0.16067656 0.01909353 0.00000000
0.20444794 0.02973984 0.00000000
0.25630939 0.04574468 0.00000000
0.31779303 0.06563514 0.00000000
0.39072611 0.08923103 0.00000000
0.47727794 0.11723410 0.00000000
0.58001381 0.15047423 0.00000000
0.70195295 0.18992823 0.00000000
0.84662526 0.23673817 0.00000000
1.00000000 0.35846250 0.22576270
0.00003109 0.00046792 0.00001613
0.00003109 0.00046792 0.00001613
0.00003109 0.00046792 0.00001613
0.00003109 0.00046792 0.00001613
0.00003109 0.00046792 0.00001613
0.00003174 0.00045114 0.00001678
0.00015188 0.00043418 0.00001743
0.00039249 0.00041317 0.00001824
0.00068356 0.00041822 0.00000784
0.00104930 0.00039100 0.00000000
0.00151207 0.00036195 0.00000000
0.00221343 0.00033200 0.00000000
0.00322238 0.00029464 0.00000000
0.00461934 0.00032551 0.00000000
0.00655153 0.00045425 0.00000000
0.00922211 0.00063224 0.00000000
0.01291136 0.00087815 0.00000000
0.01761869 0.00119195 0.00000000
0.02747360 0.00184892 0.00000000
0.04416536 0.00297282 0.00000000
0.06610901 0.00479249 0.00000000
0.09238276 0.00766689 0.00000000
0.12359013 0.01214626 0.00000000
0.16056274 0.01906938 0.00000000
0.20434787 0.02971233 0.00000000
0.25622134 0.04571620 0.00000000
0.31771553 0.06561006 0.00000000
0.39065785 0.08920895 0.00000000
0.47721779 0.11721464 0.00000000
0.57996081 0.15045708 0.00000000
0.70190626 0.18991312 0.00000000
0.84658415 0.23672487 0.00000000
1.00000000 0.35833422 0.22552633
0.00002304 0.00067729 0.00000808
0.00002304 0.00067729 0.00000808
0.00002304 0.00067729 0.00000808
0.00002304 0.00067729 0.00000808
0.00002304 0.00067729 0.00000808
0.00002366 0.00066128 0.00000870
0.00002428 0.00064512 0.00000932
0.00026255 0.00062515 0.00001009
0.00057269 0.00059812 0.00001113
0.00094854 0.00060935 0.00000000
0.00141528 0.00057710 0.00000000
0.00209742 0.00054740 0.00000000
0.00310298 0.00051791 0.00000000
0.00449663 0.00047988 0.00000000
0.00642556 0.00044586 0.00000000
0.00909287 0.00062363 0.00000000
0.01277883 0.00086932 0.00000000
0.01745737 0.00118120 0.00000000
0.02725540 0.00183438 0.00000000
0.04391501 0.00295495 0.00000000
0.06588475 0.00477130 0.00000000
0.09218450 0.00764222 0.00000000
0.12341564 0.01211784 0.00000000
0.16040936 0.01903686 0.00000000
0.20421302 0.02967529 0.00000000
0.25610271 0.04567783 0.00000000
0.31761111 0.06557628 0.00000000
0.39056588 0.08917919 0.00000000
0.47713676 0.11718842 0.00000000
0.57988941 0.15043398 0.00000000
0.70184336 0.18989277 0.00000000
0.84652877 0.23670695 0.00000000
1.00000000 0.35816134 0.22520747
0.00001489 0.00094499 0.00000000
0.00001489 0.00094499 0.00000000
0.00001489 0.00094499 0.00000000
0.00001489 0.00094499 0.00000000
0.00001489 0.00094499 0.00000000
0.00001491 0.00093023 0.00000000
0.00001492 0.00091535 0.00000000
0.00007839 0.00089698 0.00000000
0.00040465 0.00087154 0.00000061
0.00080679 0.00083662 0.00000195
0.00128377 0.00085215 0.00000000
0.00194191 0.00081822 0.00000000
0.00294268 0.00079045 0.00000000
0.00433173 0.00076078 0.00000000
0.00625615 0.00072285 0.00000000
0.00891898 0.00065909 0.00000000
0.01260045 0.00085743 0.00000000
0.01724247 0.00116687 0.00000000
0.02696285 0.00181487 0.00000000
0.04357727 0.00293093 0.00000000
0.06558227 0.00474280 0.00000000
0.09191716 0.00760902 0.00000000
0.12318042 0.01207959 0.00000000
0.16020263 0.01899308 0.00000000
0.20403129 0.02962541 0.00000000
0.25594286 0.04562612 0.00000000
0.31747041 0.06553076 0.00000000
0.39044196 0.08913910 0.00000000
0.47702760 0.11715310 0.00000000
0.57979322 0.15040285 0.00000000
0.70175862 0.18986535 0.00000000
0.84645416 0.23668281 0.00000000
1.00000000 0.35792831 0.22477717
0.00001460 0.00128089 0.00000000
0.00001460 0.00128089 0.00000000
0.00001460 0.00128089 0.00000000
0.00001460 0.00128089 0.00000000
0.00001460 0.00128089 0.00000000
0.00001461 0.00126670 0.00000000
0.00001462 0.00125240 0.00000000
0.00001463 0.00123477 0.00000000
0.00017757 0.00121096 0.00000000
0.00058855 0.00117879 0.00000000
0.00110242 0.00113528 0.00000000
0.00173391 0.00116601 0.00000000
0.00272779 0.00113533 0.00000000
0.00411035 0.00110865 0.00000000
0.00602848 0.00108057 0.00000000
0.00868513 0.00104494 0.00000000
0.01236046 0.00098478 0.00000000
0.01695749 0.00114787 0.00000000
0.02657131 0.00178877 0.00000000
0.04312143 0.00289870 0.00000000
0.06517408 0.00470450 0.00000000
0.09155652 0.00756437 0.00000000
0.12286322 0.01202811 0.00000000
0.15992392 0.01893415 0.00000000
0.20378634 0.02955826 0.00000000
0.25572744 0.04555643 0.00000000
0.31728081 0.06546942 0.00000000
0.39027500 0.08908509 0.00000000
0.47688051 0.11710551 0.00000000
0.57966363 0.15036092 0.00000000
0.70164446 0.18982841 0.00000000
0.84635365 0.23665029 0.00000000
1.00000000 0.35761411 0.22419607
0.00001440 0.00172775 0.00000000
0.00001440 0.00172775 0.00000000
0.00001440 0.00172775 0.00000000
0.00001440 0.00172775 0.00000000
0.00001440 0.00172775 0.00000000
0.00001441 0.00171139 0.00000000
0.00001441 0.00169493 0.00000000
0.00001442 0.00167468 0.00000000
0.00001443 0.00164914 0.00000000
0.00030164 0.00161823 0.00000000
0.00082620 0.00157648 0.00000000
0.00148562 0.00152001 0.00000000
0.00244032 0.00157861 0.00000000
0.00381353 0.00155048 0.00000000
0.00572280 0.00152699 0.00000000
0.00837086 0.00150352 0.00000000
0.01203771 0.00147431 0.00000000
0.01658208 0.00138683 0.00000000
0.02604853 0.00175392 0.00000000
0.04250577 0.00285550 0.00000000
0.06462291 0.00465307 0.00000000
0.09106981 0.00750436 0.00000000
0.12243532 0.01195888 0.00000000
0.15954808 0.01885486 0.00000000
0.20345612 0.02946787 0.00000000
0.25543708 0.04546250 0.00000000
0.31702531 0.06538676 0.00000000
0.39005003 0.08901230 0.00000000
0.47668233 0.11704139 0.00000000
0.57948902 0.15030443 0.00000000
0.70149066 0.18977865 0.00000000
0.84621825 0.23660648 0.00000000
1.00000000 0.35719037 0.22341065
0.00001424 0.00242557 0.00000000
0.00001424 0.00242557 0.00000000
0.00001424 0.00242557 0.00000000
0.00001424 0.00242557 0.00000000
0.00001424 0.00242557 0.00000000
0.00001424 0.00240889 0.00000000
0.00001424 0.00239211 0.00000000
0.00001425 0.00237146 0.00000000
0.00001425 0.00234365 0.00000000
0.00001426 0.00230622 0.00000000
0.00045935 0.00225586 0.00000000
0.00113332 0.00218812 0.00000000
0.00205584 0.00209705 0.00000000
0.00341644 0.00217420 0.00000000
0.00531297 0.00212094 0.00000000
0.00794891 0.00207847 0.00000000
0.01160397 0.00206459 0.00000000
0.01609266 0.00201065 0.00000000
0.02535292 0.00212512 0.00000000
0.04167351 0.00279771 0.00000000
0.06387806 0.00458410 0.00000000
0.09041250 0.00742375 0.00000000
0.12185780 0.01186581 0.00000000
0.15904109 0.01874820 0.00000000
0.20301082 0.02934624 0.00000000
0.25504565 0.04533587 0.00000000
0.31668093 0.06527535 0.00000000
0.38974684 0.08891421 0.00000000
0.47641529 0.11695499 0.00000000
0.57925377 0.15022831 0.00000000
0.70128344 0.18971160 0.00000000
0.84603583 0.23654746 0.00000000
1.00000000 0.35661863 0.22234779
0.00001413 0.00338339 0.00000000
0.00001413 0.00338339 0.00000000
0.00001413 0.00338339 0.00000000
0.00001413 0.00338339 0.00000000
0.00001413 0.00338339 0.00000000
0.00001413 0.00336640 0.00000000
0.00001413 0.00334930 0.00000000
0.00001413 0.00332826 0.00000000
0.00001413 0.00329992 0.00000000
0.00001414 0.00326176 0.00000000
0.00001414 0.00321041 0.00000000
0.00066288 0.00314130 0.00000000
0.00153368 0.00304834 0.00000000
0.00288617 0.00292336 0.00000000
0.00476462 0.00304502 0.00000000
0.00738314 0.00297886 0.00000000
0.01102159 0.00291063 0.00000000
0.01546548 0.00279876 0.00000000
0.02443194 0.00291065 0.00000000
0.04054704 0.00333551 0.00000000
0.06287030 0.00449173 0.00000000
0.08952400 0.00731561 0.00000000
0.12107782 0.01174079 0.00000000
0.15835681 0.01860480 0.00000000
0.20241012 0.02918262 0.00000000
0.25451780 0.04516512 0.00000000
0.31621667 0.06512515 0.00000000
0.38933819 0.08878199 0.00000000
0.47605540 0.11683855 0.00000000
0.57893676 0.15012575 0.00000000
0.70100423 0.18962126 0.00000000
0.84579005 0.23646794 0.00000000
1.00000000 0.35584679 0.22090713
0.00001405 0.00469762 0.00000000
0.00001405 0.00469762 0.00000000
0.00001405 0.00469762 0.00000000
0.00001405 0.00469762 0.00000000
0.00001405 0.00469762 0.00000000
0.00001405 0.00468031 0.00000000
0.00001405 0.00466290 0.00000000
0.00001405 0.00464146 0.00000000
0.00001405 0.00461259 0.00000000
0.00001405 0.00457371 0.00000000
0.00001406 0.00452137 0.00000000
0.00001406 0.00445092 0.00000000
0.00092720 0.00435612 0.00000000
0.00215320 0.00422859 0.00000000
0.00403305 0.00405714 0.00000000
0.00662612 0.00424052 0.00000000
0.01024069 0.00415707 0.00000000
0.01468739 0.00403099 0.00000000
0.02322155 0.00404072 0.00000000
0.03901083 0.00435562 0.00000000
0.06150462 0.00523813 0.00000000
0.08832151 0.00717072 0.00000000
0.12002343 0.01157301 0.00000000
0.15743263 0.01841215 0.00000000
0.20159937 0.02896264 0.00000000
0.25380575 0.04493477 0.00000000
0.31559061 0.06492261 0.00000000
0.38878728 0.08860376 0.00000000
0.47557034 0.11668161 0.00000000
0.57850955 0.14998752 0.00000000
0.70062800 0.18949953 0.00000000
0.84545890 0.23636079 0.00000000
1.00000000 0.35480400 0.21894994
0.00001399 0.00650037 0.00000000
0.00001399 0.00650037 0.00000000
0.00001399 0.00650037 0.00000000
0.00001399 0.00650037 0.00000000
0.00001399 0.00650037 0.00000000
0.00001399 0.00648275 0.00000000
0.00001399 0.00646502 0.00000000
0.00001399 0.00644318 0.00000000
0.00001399 0.00641378 0.00000000
0.00001400 0.00637419 0.00000000
0.00001400 0.00632087 0.00000000
0.00001400 0.00624909 0.00000000
0.00003341 0.00615246 0.00000000
0.00127159 0.00602244 0.00000000
0.00303268 0.00584753 0.00000000
0.00561660 0.00561232 0.00000000
0.00919579 0.00588145 0.00000000
0.01379640 0.00574962 0.00000000
0.02164906 0.00569527 0.00000000
0.03697699 0.00595227 0.00000000
0.05965002 0.00666342 0.00000000
0.08669117 0.00817694 0.00000000
0.11859627 0.01134815 0.00000000
0.15618328 0.01815358 0.00000000
0.20050440 0.02866709 0.00000000
0.25284472 0.04462389 0.00000000
0.31474609 0.06464939 0.00000000
0.38804440 0.08836341 0.00000000
0.47491642 0.11647004 0.00000000
0.57793374 0.14980121 0.00000000
0.70012098 0.18933548 0.00000000
0.84501266 0.23621640 0.00000000
1.00000000 0.35339368 0.21628266
0.00001395 0.00897277 0.00000000
0.00001395 0.00897277 0.00000000
0.00001395 0.00897277 0.00000000
0.00001395 0.00897277 0.00000000
0.00001395 0.00897277 0.00000000
0.00001395 0.00895483 0.00000000
0.00001395 0.00893678 0.00000000
0.00001395 0.00891455 0.00000000
0.00001395 0.00888461 0.00000000
0.00001395 0.00884429 0.00000000
0.00001396 0.00879000 0.00000000
0.00001396 0.00871688 0.00000000
0.00001396 0.00861845 0.00000000
0.00011934 0.00848595 0.00000000
0.00174432 0.00830764 0.00000000
0.00424720 0.00806779 0.00000000
0.00780227 0.00774483 0.00000000
0.01274245 0.00813342 0.00000000
0.01964514 0.00799708 0.00000000
0.03430873 0.00818491 0.00000000
0.05712407 0.00882046 0.00000000
0.08447567 0.01016897 0.00000000
0.11666093 0.01268594 0.00000000
0.15449220 0.01780699 0.00000000
0.19902417 0.02827035 0.00000000
0.25154679 0.04420402 0.00000000
0.31360629 0.06428065 0.00000000
0.38704228 0.08803919 0.00000000
0.47403462 0.11618474 0.00000000
0.57715747 0.14955005 0.00000000
0.69943759 0.18911437 0.00000000
0.84441129 0.23602182 0.00000000
1.00000000 0.35148356 0.21263155
0.00001392 0.01236308 0.00000000
0.00001392 0.01236308 0.00000000
0.00001392 0.01236308 0.00000000
0.00001392 0.01236308 0.00000000
0.00001392 0.01236308 0.00000000
0.00001392 0.01234482 0.00000000
0.00001392 0.01232644 0.00000000
0.00001392 0.01230381 0.00000000
0.00001392 0.01227334 0.00000000
0.00001393 0.01223229 0.00000000
0.00001393 0.01217701 0.00000000
0.00001393 0.01210256 0.00000000
0.00001393 0.01200231 0.00000000
0.00001393 0.01186734 0.00000000
0.00022730 0.01168567 0.00000000
0.00247495 0.01144118 0.00000000
0.00592402 0.01111230 0.00000000
0.01081915 0.01066922 0.00000000
0.01718389 0.01119439 0.00000000
0.03085132 0.01128964 0.00000000
0.05366973 0.01183666 0.00000000
0.08145519 0.01308229 0.00000000
0.11403032 0.01545579 0.00000000
0.15219877 0.01966792 0.00000000
0.19702060 0.02773849 0.00000000
0.24979224 0.04363644 0.00000000
0.31206692 0.06378264 0.00000000
0.38568978 0.08760161 0.00000000
0.47284511 0.11579988 0.00000000
0.57611070 0.14921137 0.00000000
0.69851630 0.18881628 0.00000000
0.84360073 0.23575956 0.00000000
1.00000000 0.34889144 0.20760207
0.00001390 0.01661880 0.00000000
0.00001390 0.01661880 0.00000000
0.00001390 0.01661880 0.00000000
0.00001390 0.01661880 0.00000000
0.00001390 0.01661880 0.00000000
0.00001390 0.01659684 0.00000000
0.00001390 0.01657477 0.00000000
0.00001390 0.01654763 0.00000000
0.00001390 0.01651115 0.00000000
0.00001390 0.01646214 0.00000000
0.00001391 0.01639636 0.00000000
0.00001391 0.01630819 0.00000000
0.00001391 0.01619024 0.00000000
0.00001391 0.01603284 0.00000000
0.00001391 0.01582360 0.00000000
0.00036566 0.01554696 0.00000000
0.00348476 0.01518424 0.00000000
0.00824004 0.01471501 0.00000000
0.01443707 0.01412078 0.00000000
0.02646411 0.01514206 0.00000000
0.04891911 0.01596246 0.00000000
0.07731813 0.01715696 0.00000000
0.11044266 0.01938705 0.00000000
0.14908119 0.02339857 0.00000000
0.19430318 0.03029299 0.00000000
0.24741740 0.04286820 0.00000000
0.30998603 0.06310943 0.00000000
0.38386318 0.08701064 0.00000000
0.47123972 0.11528046 0.00000000
0.57469865 0.14875450 0.00000000
0.69727397 0.18841431 0.00000000
0.84250800 0.23540600 0.00000000
1.00000000 0.34536420 0.20060955
0.00001388 0.02544931 0.00000000
0.00001388 0.02544931 0.00000000
0.00001388 0.02544931 0.00000000
0.00001388 0.02544931 0.00000000
0.00001388 0.02544931 0.00000000
0.00001388 0.02541999 0.00000000
0.00001388 0.02539049 0.00000000
0.00001388 0.02535420 0.00000000
0.00001388 0.02530534 0.00000000
0.00001388 0.02523961 0.00000000
0.00001388 0.02515119 0.00000000
0.00001388 0.02503234 0.00000000
0.00001388 0.02487268 0.00000000
0.00001388 0.02465843 0.00000000
0.00001389 0.02437134 0.00000000
0.00001389 0.02398736 0.00000000
0.00054428 0.02347522 0.00000000
0.00487717 0.02279480 0.00000000
0.01143175 0.02189597 0.00000000
0.02111730 0.02071763 0.00000000
0.04233561 0.02198902 0.00000000
0.07161389 0.02254459 0.00000000
0.10552614 0.02432428 0.00000000
0.14482906 0.02856931 0.00000000
0.19060924 0.03530778 0.00000000
0.24419615 0.04608713 0.00000000
0.30716953 0.06219825 0.00000000
0.38139402 0.08621178 0.00000000
0.46907158 0.11457897 0.00000000
0.57279291 0.14813789 0.00000000
0.69559810 0.18787207 0.00000000
0.84103447 0.23492922 0.00000000
1.00000000 0.34054620 0.19075092
0.00001387 0.04041710 0.00000000
0.00001387 0.04041710 0.00000000
0.00001387 0.04041710 0.00000000
0.00001387 0.04041710 0.00000000
0.00001387 0.04041710 0.00000000
0.00001387 0.04038141 0.00000000
0.00001387 0.04034549 0.00000000
0.00001387 0.04030128 0.00000000
0.00001387 0.04024176 0.00000000
0.00001387 0.04016163 0.00000000
0.00001387 0.04005378 0.00000000
0.00001387 0.03990868 0.00000000
0.00001387 0.03971352 0.00000000
0.00001387 0.03945120 0.00000000
0.00001387 0.03909888 0.00000000
0.00001387 0.03862617 0.00000000
0.00001387 0.03799286 0.00000000
0.00077621 0.03714612 0.00000000
0.00679933 0.03601726 0.00000000
0.01523305 0.03451840 0.00000000
0.03339777 0.03253849 0.00000000
0.06367093 0.03446376 0.00000000
0.09874020 0.03503208 0.00000000
0.13900075 0.03716614 0.00000000
0.18557112 0.04213708 0.00000000
0.23981741 0.05186806 0.00000000
0.30334874 0.06557267 0.00000000
0.37805207 0.08513055 0.00000000
0.46614076 0.11363072 0.00000000
0.57021913 0.14730514 0.00000000
0.69333628 0.18714025 0.00000000
0.83904671 0.23428606 0.00000000
1.00000000 0.33392935 0.17653744
0.00001385 0.06089344 0.00000000
0.00001385 0.06089344 0.00000000
0.00001385 0.06089344 0.00000000
0.00001385 0.06089344 0.00000000
0.00001385 0.06089344 0.00000000
0.00001385 0.06086200 0.00000000
0.00001385 0.06083035 0.00000000
0.00001385 0.06079137 0.00000000
0.00001385 0.06073885 0.00000000
0.00001385 0.06066807 0.00000000
0.00001385 0.06057269 0.00000000
0.00001385 0.06044412 0.00000000
0.00001385 0.06027080 0.00000000
0.00001385 0.06003706 0.00000000
0.00001385 0.05972173 0.00000000
0.00001385 0.05929611 0.00000000
0.00001385 0.05872122 0.00000000
0.00001385 0.05794399 0.00000000
0.00107835 0.05689181 0.00000000
0.00945314 0.05546491 0.00000000
0.02279596 0.05352514 0.00000000
0.05244857 0.05087740 0.00000000
0.08927449 0.05344562 0.00000000
0.13095373 0.05399632 0.00000000
0.17866443 0.05629013 0.00000000
0.23384480 0.06154257 0.00000000
0.29815509 0.07155148 0.00000000
0.37351759 0.08864424 0.00000000
