luts/S9_VLog_to_c200.cube
# Film Emulation LUT
# Generated by lutex.py
# Grid: 33³
TITLE "Panasonic S9 V-Log to Fujifilm Fujicolor C200 (Japan)"
LUT_3D_SIZE 5
DOMAIN_MIN 0.0 0.0 0.0
DOMAIN_MAX 1.0 1.0 1.0
0.00000071 0.00000060 0.00000065
0.00000071 0.00000060 0.00000065
0.00000071 0.00000060 0.00000065
0.00000004 0.00000000 0.10008184
0.00000010 0.00000000 0.77283698
0.00000071 0.00000060 0.00000065
0.00000071 0.00000060 0.00000065
0.00000071 0.00000060 0.00000065
0.00000004 0.00000000 0.10008184
0.00000010 0.00000000 0.77283698
0.00000071 0.00000060 0.00000065
0.00000071 0.00000060 0.00000065
0.00000071 0.00000060 0.00000065
0.00000004 0.00000000 0.10008184
0.00000010 0.00000000 0.77283698
0.00000000 0.31535504 0.13440030
0.00000000 0.31535504 0.13440030
0.00000000 0.31535504 0.13440030
0.00000000 0.20911199 0.17381114
0.00000010 0.00000000 0.76841065
0.00000000 0.94567968 0.45674968
0.00000000 0.94567968 0.45674968
0.00000000 0.94567968 0.45674968
0.00000000 0.94169962 0.45471427
0.00000000 0.87425504 0.74054653
0.00000071 0.00000060 0.00000065
0.00000071 0.00000060 0.00000065
0.00000071 0.00000060 0.00000065
0.00000004 0.00000000 0.10008184
0.00000010 0.00000000 0.77283698
0.00000071 0.00000060 0.00000065
0.00000071 0.00000060 0.00000065
0.00000071 0.00000060 0.00000065
0.00000004 0.00000000 0.10008184
0.00000010 0.00000000 0.77283698
0.00000071 0.00000060 0.00000065
0.00000071 0.00000060 0.00000065
0.00000071 0.00000060 0.00000065
0.00000004 0.00000000 0.10008184
0.00000010 0.00000000 0.77283698
0.00000000 0.31535504 0.13440030
0.00000000 0.31535504 0.13440030
0.00000000 0.31535504 0.13440030
0.00000000 0.20911199 0.17381114
0.00000010 0.00000000 0.76841065
0.00000000 0.94567968 0.45674968
0.00000000 0.94567968 0.45674968
0.00000000 0.94567968 0.45674968
0.00000000 0.94169962 0.45471427
0.00000000 0.87425504 0.74054653
0.00000071 0.00000060 0.00000065
0.00000071 0.00000060 0.00000065
0.00000071 0.00000060 0.00000065
0.00000004 0.00000000 0.10008184
0.00000010 0.00000000 0.77283698
0.00000071 0.00000060 0.00000065
0.00000071 0.00000060 0.00000065
0.00000071 0.00000060 0.00000065
0.00000004 0.00000000 0.10008184
0.00000010 0.00000000 0.77283698
0.00000071 0.00000060 0.00000065
0.00000071 0.00000060 0.00000065
0.00000071 0.00000060 0.00000065
0.00000004 0.00000000 0.10008184
0.00000010 0.00000000 0.77283698
0.00000000 0.31535504 0.13440030
0.00000000 0.31535504 0.13440030
0.00000000 0.31535504 0.13440030
0.00000000 0.20911199 0.17381114
0.00000010 0.00000000 0.76841065
0.00000000 0.94567968 0.45674968
0.00000000 0.94567968 0.45674968
0.00000000 0.94567968 0.45674968
0.00000000 0.94169962 0.45471427
0.00000000 0.87425504 0.74054653
0.25803138 0.04628606 0.00000000
0.25803138 0.04628606 0.00000000
0.25803138 0.04628606 0.00000000
0.24848514 0.00000000 0.18737252
0.09701664 0.00000000 0.77216878
0.25803138 0.04628606 0.00000000
0.25803138 0.04628606 0.00000000
0.25803138 0.04628606 0.00000000
0.24848514 0.00000000 0.18737252
0.09701664 0.00000000 0.77216878
0.25803138 0.04628606 0.00000000
0.25803138 0.04628606 0.00000000
0.25803138 0.04628606 0.00000000
0.24848514 0.00000000 0.18737252
0.09701664 0.00000000 0.77216878
0.19172783 0.20523644 0.00000000
0.19172783 0.20523644 0.00000000
0.19172783 0.20523644 0.00000000
0.23440676 0.25314389 0.22795299
0.00000010 0.00000000 0.76768601
0.00000000 0.94069453 0.45420026
0.00000000 0.94069453 0.45420026
0.00000000 0.94069453 0.45420026
0.00000000 0.93669466 0.45215472
0.00000000 0.86883975 0.73973047
1.00000000 0.33939106 0.18833388
1.00000000 0.33939106 0.18833388
1.00000000 0.33939106 0.18833388
1.00000000 0.29021270 0.16656749
0.97980273 0.00000000 0.78114291
1.00000000 0.33939106 0.18833388
1.00000000 0.33939106 0.18833388
1.00000000 0.33939106 0.18833388
1.00000000 0.29021270 0.16656749
0.97980273 0.00000000 0.78114291
1.00000000 0.33939106 0.18833388
1.00000000 0.33939106 0.18833388
1.00000000 0.33939106 0.18833388
1.00000000 0.29021270 0.16656749
0.97980273 0.00000000 0.78114291
0.99681614 0.28533122 0.00000000
0.99681614 0.28533122 0.00000000
0.99681614 0.28533122 0.00000000
0.99420146 0.24515557 0.00000000
0.96319354 0.00000000 0.77654555
0.78228501 0.86062286 0.00000000
0.78228501 0.86062286 0.00000000
0.78228501 0.86062286 0.00000000
0.77900324 0.85623455 0.00000000
0.74212463 0.81775942 0.74848606
