luts/S9_VLog_to_ricoh_positive_film.cube
# Film Emulation LUT
# Generated by lutex.py
# Grid: 33³
TITLE "Panasonic S9 V-Log to Ricoh Positive Film (ポジフィルム調)"
LUT_3D_SIZE 5
DOMAIN_MIN 0.0 0.0 0.0
DOMAIN_MAX 1.0 1.0 1.0
0.00000000 0.00000000 0.00000000
0.00000000 0.00000000 0.00000000
0.00000000 0.00000000 0.00000000
0.00000000 0.00407451 0.14698587
0.00000000 0.09693709 0.78168148
0.00000000 0.00000000 0.00000000
0.00000000 0.00000000 0.00000000
0.00000000 0.00000000 0.00000000
0.00000000 0.00407451 0.14698587
0.00000000 0.09693709 0.78168148
0.00000000 0.00000000 0.00000000
0.00000000 0.00000000 0.00000000
0.00000000 0.00000000 0.00000000
0.00000000 0.00407451 0.14698587
0.00000000 0.09693709 0.78168148
0.00000000 0.15714835 0.00000000
0.00000000 0.15714835 0.00000000
0.00000000 0.15714835 0.00000000
0.00000000 0.14440684 0.13161706
0.00000000 0.09603508 0.77671432
0.00000000 0.82373665 0.00000000
0.00000000 0.82373665 0.00000000
0.00000000 0.82373665 0.00000000
0.00000000 0.81959380 0.00000000
0.00000000 0.77100165 0.71807531
0.00000000 0.00000000 0.00000000
0.00000000 0.00000000 0.00000000
0.00000000 0.00000000 0.00000000
0.00000000 0.00407451 0.14698587
0.00000000 0.09693709 0.78168148
0.00000000 0.00000000 0.00000000
0.00000000 0.00000000 0.00000000
0.00000000 0.00000000 0.00000000
0.00000000 0.00407451 0.14698587
0.00000000 0.09693709 0.78168148
0.00000000 0.00000000 0.00000000
0.00000000 0.00000000 0.00000000
0.00000000 0.00000000 0.00000000
0.00000000 0.00407451 0.14698587
0.00000000 0.09693709 0.78168148
0.00000000 0.15714835 0.00000000
0.00000000 0.15714835 0.00000000
0.00000000 0.15714835 0.00000000
0.00000000 0.14440684 0.13161706
0.00000000 0.09603508 0.77671432
0.00000000 0.82373665 0.00000000
0.00000000 0.82373665 0.00000000
0.00000000 0.82373665 0.00000000
0.00000000 0.81959380 0.00000000
0.00000000 0.77100165 0.71807531
0.00000000 0.00000000 0.00000000
0.00000000 0.00000000 0.00000000
0.00000000 0.00000000 0.00000000
0.00000000 0.00407451 0.14698587
0.00000000 0.09693709 0.78168148
0.00000000 0.00000000 0.00000000
0.00000000 0.00000000 0.00000000
0.00000000 0.00000000 0.00000000
0.00000000 0.00407451 0.14698587
0.00000000 0.09693709 0.78168148
0.00000000 0.00000000 0.00000000
0.00000000 0.00000000 0.00000000
0.00000000 0.00000000 0.00000000
0.00000000 0.00407451 0.14698587
0.00000000 0.09693709 0.78168148
0.00000000 0.15714835 0.00000000
0.00000000 0.15714835 0.00000000
0.00000000 0.15714835 0.00000000
0.00000000 0.14440684 0.13161706
0.00000000 0.09603508 0.77671432
0.00000000 0.82373665 0.00000000
0.00000000 0.82373665 0.00000000
0.00000000 0.82373665 0.00000000
0.00000000 0.81959380 0.00000000
0.00000000 0.77100165 0.71807531
0.19759777 0.04177492 0.00000000
0.19759777 0.04177492 0.00000000
0.19759777 0.04177492 0.00000000
0.18873832 0.00000000 0.14454093
0.00000000 0.06062314 0.78087251
0.19759777 0.04177492 0.00000000
0.19759777 0.04177492 0.00000000
0.19759777 0.04177492 0.00000000
0.18873832 0.00000000 0.14454093
0.00000000 0.06062314 0.78087251
0.19759777 0.04177492 0.00000000
0.19759777 0.04177492 0.00000000
0.19759777 0.04177492 0.00000000
0.18873832 0.00000000 0.14454093
0.00000000 0.06062314 0.78087251
0.13702926 0.14109671 0.00000000
0.13702926 0.14109671 0.00000000
0.13702926 0.14109671 0.00000000
0.12569636 0.12756330 0.12928591
0.00000000 0.09588749 0.77590160
0.00000000 0.81854779 0.00000000
0.00000000 0.81854779 0.00000000
0.00000000 0.81854779 0.00000000
0.00000000 0.81438579 0.00000000
0.00000000 0.76555633 0.71721516
0.99115650 0.34580210 0.00000000
0.99115650 0.34580210 0.00000000
0.99115650 0.34580210 0.00000000
0.98824903 0.32254014 0.00000000
0.95448487 0.00000000 0.77156250
0.99115650 0.34580210 0.00000000
0.99115650 0.34580210 0.00000000
0.99115650 0.34580210 0.00000000
0.98824903 0.32254014 0.00000000
0.95448487 0.00000000 0.77156250
0.99115650 0.34580210 0.00000000
0.99115650 0.34580210 0.00000000
0.99115650 0.34580210 0.00000000
0.98824903 0.32254014 0.00000000
0.95448487 0.00000000 0.77156250
0.97280862 0.33877269 0.00000000
0.97280862 0.33877269 0.00000000
0.97280862 0.33877269 0.00000000
0.96986090 0.32038361 0.00000000
0.93561388 0.00000000 0.76654801
0.74046200 0.75730193 0.00000000
0.74046200 0.75730193 0.00000000
0.74046200 0.75730193 0.00000000
0.73686422 0.75289756 0.00000000
0.69355878 0.70129280 0.70842894
