luts/S9_VLog_to_ricoh_negative_film.cube
# Film Emulation LUT
# Generated by lutex.py
# Grid: 33³
TITLE "Panasonic S9 V-Log to Ricoh Negative Film (ネガフィルム調)"
LUT_3D_SIZE 33
DOMAIN_MIN 0.0 0.0 0.0
DOMAIN_MAX 1.0 1.0 1.0
0.00000011 0.00000011 0.00000011
0.00000011 0.00000011 0.00000011
0.00000011 0.00000011 0.00000011
0.00000011 0.00000011 0.00000011
0.00000011 0.00000011 0.00000011
0.00000015 0.00000015 0.00000073
0.00000011 0.00000011 0.00000011
0.00000011 0.00000011 0.00000011
0.00000011 0.00000011 0.00000011
0.00000011 0.00000011 0.00000011
0.00000011 0.00000011 0.00000011
0.00000011 0.00000011 0.00000011
0.00000011 0.00000011 0.00000011
0.00000011 0.00000011 0.00000011
0.00000011 0.00000011 0.00000011
0.00000011 0.00000011 0.00000011
0.00000011 0.00000011 0.00000011
0.00000011 0.00000011 0.00000011
0.00016198 0.00016198 0.00239946
0.00076822 0.00076822 0.01138554
0.00183258 0.00183258 0.02716232
0.00354675 0.00354675 0.05146448
0.00621551 0.00621551 0.07950114
0.01029747 0.01029747 0.11099043
0.01647554 0.01647554 0.14689668
0.02576312 0.02576312 0.18823669
0.03966204 0.03966204 0.23614073
0.05780135 0.05780135 0.29189767
0.07896956 0.07896956 0.35699634
0.10373840 0.10373840 0.43316798
0.13276465 0.13276465 0.52243240
0.16681553 0.16681553 0.62714909
0.20678716 0.20678716 0.75007385
0.00000011 0.00000011 0.00000011
0.00000011 0.00000011 0.00000011
0.00000011 0.00000011 0.00000011
0.00000011 0.00000011 0.00000011
0.00000011 0.00000011 0.00000011
0.00000015 0.00000015 0.00000073
0.00000011 0.00000011 0.00000011
0.00000011 0.00000011 0.00000011
0.00000011 0.00000011 0.00000011
0.00000011 0.00000011 0.00000011
0.00000011 0.00000011 0.00000011
0.00000011 0.00000011 0.00000011
0.00000011 0.00000011 0.00000011
0.00000011 0.00000011 0.00000011
0.00000011 0.00000011 0.00000011
0.00000011 0.00000011 0.00000011
0.00000011 0.00000011 0.00000011
0.00000011 0.00000011 0.00000011
0.00016198 0.00016198 0.00239946
0.00076822 0.00076822 0.01138554
0.00183258 0.00183258 0.02716232
0.00354675 0.00354675 0.05146448
0.00621551 0.00621551 0.07950114
0.01029747 0.01029747 0.11099043
0.01647554 0.01647554 0.14689668
0.02576312 0.02576312 0.18823669
0.03966204 0.03966204 0.23614073
0.05780135 0.05780135 0.29189767
0.07896956 0.07896956 0.35699634
0.10373840 0.10373840 0.43316798
0.13276465 0.13276465 0.52243240
0.16681553 0.16681553 0.62714909
0.20678716 0.20678716 0.75007385
0.00000011 0.00000011 0.00000011
0.00000011 0.00000011 0.00000011
0.00000011 0.00000011 0.00000011
0.00000011 0.00000011 0.00000011
0.00000011 0.00000011 0.00000011
0.00000015 0.00000015 0.00000073
0.00000011 0.00000011 0.00000011
0.00000011 0.00000011 0.00000011
0.00000011 0.00000011 0.00000011
0.00000011 0.00000011 0.00000011
0.00000011 0.00000011 0.00000011
0.00000011 0.00000011 0.00000011
0.00000011 0.00000011 0.00000011
0.00000011 0.00000011 0.00000011
0.00000011 0.00000011 0.00000011
0.00000011 0.00000011 0.00000011
0.00000011 0.00000011 0.00000011
0.00000011 0.00000011 0.00000011
0.00016198 0.00016198 0.00239946
0.00076822 0.00076822 0.01138554
0.00183258 0.00183258 0.02716232
0.00354675 0.00354675 0.05146448
0.00621551 0.00621551 0.07950114
0.01029747 0.01029747 0.11099043
0.01647554 0.01647554 0.14689668
0.02576312 0.02576312 0.18823669
0.03966204 0.03966204 0.23614073
0.05780135 0.05780135 0.29189767
0.07896956 0.07896956 0.35699634
0.10373840 0.10373840 0.43316798
0.13276465 0.13276465 0.52243240
0.16681553 0.16681553 0.62714909
0.20678716 0.20678716 0.75007385
0.00000011 0.00000011 0.00000011
0.00000011 0.00000011 0.00000011
0.00000011 0.00000011 0.00000011
0.00000011 0.00000011 0.00000011
0.00000011 0.00000011 0.00000011
0.00000015 0.00000015 0.00000073
0.00000011 0.00000011 0.00000011
0.00000011 0.00000011 0.00000011
0.00000011 0.00000011 0.00000011
0.00000011 0.00000011 0.00000011
0.00000011 0.00000011 0.00000011
0.00000011 0.00000011 0.00000011
0.00000011 0.00000011 0.00000011
0.00000011 0.00000011 0.00000011
0.00000011 0.00000011 0.00000011
0.00000011 0.00000011 0.00000011
0.00000011 0.00000011 0.00000011
0.00000011 0.00000011 0.00000011
0.00016198 0.00016198 0.00239946
0.00076822 0.00076822 0.01138554
0.00183258 0.00183258 0.02716232
0.00354675 0.00354675 0.05146448
0.00621551 0.00621551 0.07950114
0.01029747 0.01029747 0.11099043
0.01647554 0.01647554 0.14689668
0.02576312 0.02576312 0.18823669
0.03966204 0.03966204 0.23614073
0.05780135 0.05780135 0.29189767
0.07896956 0.07896956 0.35699634
0.10373840 0.10373840 0.43316798
0.13276465 0.13276465 0.52243240
0.16681553 0.16681553 0.62714909
0.20678716 0.20678716 0.75007385
0.00000011 0.00000011 0.00000011
0.00000011 0.00000011 0.00000011
0.00000011 0.00000011 0.00000011
0.00000011 0.00000011 0.00000011
0.00000011 0.00000011 0.00000011
0.00000015 0.00000015 0.00000073
0.00000011 0.00000011 0.00000011
0.00000011 0.00000011 0.00000011
0.00000011 0.00000011 0.00000011
0.00000011 0.00000011 0.00000011
0.00000011 0.00000011 0.00000011
0.00000011 0.00000011 0.00000011
0.00000011 0.00000011 0.00000011
0.00000011 0.00000011 0.00000011
0.00000011 0.00000011 0.00000011
0.00000011 0.00000011 0.00000011
0.00000011 0.00000011 0.00000011
0.00000011 0.00000011 0.00000011
0.00016198 0.00016198 0.00239946
0.00076822 0.00076822 0.01138554
0.00183258 0.00183258 0.02716232
0.00354675 0.00354675 0.05146448
0.00621551 0.00621551 0.07950114
0.01029747 0.01029747 0.11099043
0.01647554 0.01647554 0.14689668
0.02576312 0.02576312 0.18823669
0.03966204 0.03966204 0.23614073
0.05780135 0.05780135 0.29189767
0.07896956 0.07896956 0.35699634
0.10373840 0.10373840 0.43316798
0.13276465 0.13276465 0.52243240
0.16681553 0.16681553 0.62714909
0.20678716 0.20678716 0.75007385
0.00000019 0.00000076 0.00000019
0.00000019 0.00000076 0.00000019
0.00000019 0.00000076 0.00000019
0.00000019 0.00000076 0.00000019
0.00000019 0.00000076 0.00000019
0.00000019 0.00000071 0.00000064
0.00000019 0.00000076 0.00000019
0.00000019 0.00000076 0.00000019
0.00000019 0.00000076 0.00000019
0.00000019 0.00000076 0.00000019
0.00000019 0.00000076 0.00000019
0.00000019 0.00000076 0.00000019
0.00000019 0.00000076 0.00000019
0.00000019 0.00000076 0.00000019
0.00000019 0.00000076 0.00000019
0.00000019 0.00000076 0.00000019
0.00000019 0.00000076 0.00000019
0.00000019 0.00000076 0.00000019
0.00016197 0.00016197 0.00239927
0.00076820 0.00076820 0.01138527
0.00183255 0.00183255 0.02716199
0.00354673 0.00354673 0.05146415
0.00621548 0.00621548 0.07950087
0.01029744 0.01029744 0.11099020
0.01647550 0.01647550 0.14689649
0.02576307 0.02576307 0.18823653
0.03966200 0.03966200 0.23614059
0.05780131 0.05780131 0.29189755
0.07896953 0.07896953 0.35699623
0.10373837 0.10373837 0.43316789
0.13276462 0.13276462 0.52243232
0.16681551 0.16681551 0.62714902
0.20678714 0.20678714 0.75007378
0.00000011 0.00000011 0.00000011
0.00000011 0.00000011 0.00000011
0.00000011 0.00000011 0.00000011
0.00000011 0.00000011 0.00000011
0.00000011 0.00000011 0.00000011
0.00000015 0.00000015 0.00000073
0.00000011 0.00000011 0.00000011
0.00000011 0.00000011 0.00000011
0.00000011 0.00000011 0.00000011
0.00000011 0.00000011 0.00000011
0.00000011 0.00000011 0.00000011
0.00000011 0.00000011 0.00000011
0.00000011 0.00000011 0.00000011
0.00000011 0.00000011 0.00000011
0.00000011 0.00000011 0.00000011
0.00000011 0.00000011 0.00000011
0.00000011 0.00000011 0.00000011
0.00000011 0.00000011 0.00000011
0.00016198 0.00016198 0.00239946
0.00076822 0.00076822 0.01138554
0.00183258 0.00183258 0.02716232
0.00354675 0.00354675 0.05146448
0.00621551 0.00621551 0.07950114
0.01029747 0.01029747 0.11099043
0.01647554 0.01647554 0.14689668
0.02576312 0.02576312 0.18823669
0.03966204 0.03966204 0.23614073
0.05780135 0.05780135 0.29189767
0.07896956 0.07896956 0.35699634
0.10373840 0.10373840 0.43316798
0.13276465 0.13276465 0.52243240
0.16681553 0.16681553 0.62714909
0.20678716 0.20678716 0.75007385
0.00000011 0.00000011 0.00000011
0.00000011 0.00000011 0.00000011
0.00000011 0.00000011 0.00000011
0.00000011 0.00000011 0.00000011
0.00000011 0.00000011 0.00000011
0.00000015 0.00000015 0.00000073
0.00000011 0.00000011 0.00000011
0.00000011 0.00000011 0.00000011
0.00000011 0.00000011 0.00000011
0.00000011 0.00000011 0.00000011
0.00000011 0.00000011 0.00000011
0.00000011 0.00000011 0.00000011
0.00000011 0.00000011 0.00000011
0.00000011 0.00000011 0.00000011
0.00000011 0.00000011 0.00000011
0.00000011 0.00000011 0.00000011
0.00000011 0.00000011 0.00000011
0.00000011 0.00000011 0.00000011
0.00016198 0.00016198 0.00239946
0.00076822 0.00076822 0.01138554
0.00183258 0.00183258 0.02716232
0.00354675 0.00354675 0.05146448
0.00621551 0.00621551 0.07950114
0.01029747 0.01029747 0.11099043
0.01647554 0.01647554 0.14689668
0.02576312 0.02576312 0.18823669
0.03966204 0.03966204 0.23614073
0.05780135 0.05780135 0.29189767
0.07896956 0.07896956 0.35699634
0.10373840 0.10373840 0.43316798
0.13276465 0.13276465 0.52243240
0.16681553 0.16681553 0.62714909
0.20678716 0.20678716 0.75007385
0.00000011 0.00000011 0.00000011
0.00000011 0.00000011 0.00000011
0.00000011 0.00000011 0.00000011
0.00000011 0.00000011 0.00000011
0.00000011 0.00000011 0.00000011
0.00000015 0.00000015 0.00000073
0.00000011 0.00000011 0.00000011
0.00000011 0.00000011 0.00000011
0.00000011 0.00000011 0.00000011
0.00000011 0.00000011 0.00000011
0.00000011 0.00000011 0.00000011
0.00000011 0.00000011 0.00000011
0.00000011 0.00000011 0.00000011
0.00000011 0.00000011 0.00000011
0.00000011 0.00000011 0.00000011
0.00000011 0.00000011 0.00000011
0.00000011 0.00000011 0.00000011
0.00000011 0.00000011 0.00000011
0.00016198 0.00016198 0.00239946
0.00076822 0.00076822 0.01138554
0.00183258 0.00183258 0.02716232
0.00354675 0.00354675 0.05146448
0.00621551 0.00621551 0.07950114
0.01029747 0.01029747 0.11099043
0.01647554 0.01647554 0.14689668
0.02576312 0.02576312 0.18823669
0.03966204 0.03966204 0.23614073
0.05780135 0.05780135 0.29189767
0.07896956 0.07896956 0.35699634
0.10373840 0.10373840 0.43316798
0.13276465 0.13276465 0.52243240
0.16681553 0.16681553 0.62714909
0.20678716 0.20678716 0.75007385
0.00000011 0.00000011 0.00000011
0.00000011 0.00000011 0.00000011
0.00000011 0.00000011 0.00000011
0.00000011 0.00000011 0.00000011
0.00000011 0.00000011 0.00000011
0.00000015 0.00000015 0.00000073
0.00000011 0.00000011 0.00000011
0.00000011 0.00000011 0.00000011
0.00000011 0.00000011 0.00000011
0.00000011 0.00000011 0.00000011
0.00000011 0.00000011 0.00000011
0.00000011 0.00000011 0.00000011
0.00000011 0.00000011 0.00000011
0.00000011 0.00000011 0.00000011
0.00000011 0.00000011 0.00000011
0.00000011 0.00000011 0.00000011
0.00000011 0.00000011 0.00000011
0.00000011 0.00000011 0.00000011
0.00016198 0.00016198 0.00239946
0.00076822 0.00076822 0.01138554
0.00183258 0.00183258 0.02716232
0.00354675 0.00354675 0.05146448
0.00621551 0.00621551 0.07950114
0.01029747 0.01029747 0.11099043
0.01647554 0.01647554 0.14689668
0.02576312 0.02576312 0.18823669
0.03966204 0.03966204 0.23614073
0.05780135 0.05780135 0.29189767
0.07896956 0.07896956 0.35699634
0.10373840 0.10373840 0.43316798
0.13276465 0.13276465 0.52243240
0.16681553 0.16681553 0.62714909
0.20678716 0.20678716 0.75007385
0.00000011 0.00000011 0.00000011
0.00000011 0.00000011 0.00000011
0.00000011 0.00000011 0.00000011
0.00000011 0.00000011 0.00000011
0.00000011 0.00000011 0.00000011
0.00000015 0.00000015 0.00000073
0.00000011 0.00000011 0.00000011
0.00000011 0.00000011 0.00000011
0.00000011 0.00000011 0.00000011
0.00000011 0.00000011 0.00000011
0.00000011 0.00000011 0.00000011
0.00000011 0.00000011 0.00000011
0.00000011 0.00000011 0.00000011
0.00000011 0.00000011 0.00000011
0.00000011 0.00000011 0.00000011
0.00000011 0.00000011 0.00000011
0.00000011 0.00000011 0.00000011
0.00000011 0.00000011 0.00000011
0.00016198 0.00016198 0.00239946
0.00076822 0.00076822 0.01138554
0.00183258 0.00183258 0.02716232
0.00354675 0.00354675 0.05146448
0.00621551 0.00621551 0.07950114
0.01029747 0.01029747 0.11099043
0.01647554 0.01647554 0.14689668
0.02576312 0.02576312 0.18823669
0.03966204 0.03966204 0.23614073
0.05780135 0.05780135 0.29189767
0.07896956 0.07896956 0.35699634
0.10373840 0.10373840 0.43316798
0.13276465 0.13276465 0.52243240
0.16681553 0.16681553 0.62714909
0.20678716 0.20678716 0.75007385
0.00000011 0.00000011 0.00000011
0.00000011 0.00000011 0.00000011
0.00000011 0.00000011 0.00000011
0.00000011 0.00000011 0.00000011
0.00000011 0.00000011 0.00000011
0.00000015 0.00000015 0.00000073
0.00000011 0.00000011 0.00000011
0.00000011 0.00000011 0.00000011
0.00000011 0.00000011 0.00000011
0.00000011 0.00000011 0.00000011
0.00000011 0.00000011 0.00000011
0.00000011 0.00000011 0.00000011
0.00000011 0.00000011 0.00000011
0.00000011 0.00000011 0.00000011
0.00000011 0.00000011 0.00000011
0.00000011 0.00000011 0.00000011
0.00000011 0.00000011 0.00000011
0.00000011 0.00000011 0.00000011
0.00016198 0.00016198 0.00239946
0.00076822 0.00076822 0.01138554
0.00183258 0.00183258 0.02716232
0.00354675 0.00354675 0.05146448
0.00621551 0.00621551 0.07950114
0.01029747 0.01029747 0.11099043
0.01647554 0.01647554 0.14689668
0.02576312 0.02576312 0.18823669
0.03966204 0.03966204 0.23614073
0.05780135 0.05780135 0.29189767
0.07896956 0.07896956 0.35699634
0.10373840 0.10373840 0.43316798
0.13276465 0.13276465 0.52243240
0.16681553 0.16681553 0.62714909
0.20678716 0.20678716 0.75007385
0.00000011 0.00000011 0.00000011
0.00000011 0.00000011 0.00000011
0.00000011 0.00000011 0.00000011
0.00000011 0.00000011 0.00000011
0.00000011 0.00000011 0.00000011
0.00000015 0.00000015 0.00000073
0.00000011 0.00000011 0.00000011
0.00000011 0.00000011 0.00000011
0.00000011 0.00000011 0.00000011
0.00000011 0.00000011 0.00000011
0.00000011 0.00000011 0.00000011
0.00000011 0.00000011 0.00000011
0.00000011 0.00000011 0.00000011
0.00000011 0.00000011 0.00000011
0.00000011 0.00000011 0.00000011
0.00000011 0.00000011 0.00000011
0.00000011 0.00000011 0.00000011
0.00000011 0.00000011 0.00000011
0.00016198 0.00016198 0.00239946
0.00076822 0.00076822 0.01138554
0.00183258 0.00183258 0.02716232
0.00354675 0.00354675 0.05146448
0.00621551 0.00621551 0.07950114
0.01029747 0.01029747 0.11099043
0.01647554 0.01647554 0.14689668
0.02576312 0.02576312 0.18823669
0.03966204 0.03966204 0.23614073
0.05780135 0.05780135 0.29189767
0.07896956 0.07896956 0.35699634
0.10373840 0.10373840 0.43316798
0.13276465 0.13276465 0.52243240
0.16681553 0.16681553 0.62714909
0.20678716 0.20678716 0.75007385
0.00000011 0.00000011 0.00000011
0.00000011 0.00000011 0.00000011
0.00000011 0.00000011 0.00000011
0.00000011 0.00000011 0.00000011
0.00000011 0.00000011 0.00000011
0.00000015 0.00000015 0.00000073
0.00000011 0.00000011 0.00000011
0.00000011 0.00000011 0.00000011
0.00000011 0.00000011 0.00000011
0.00000011 0.00000011 0.00000011
0.00000011 0.00000011 0.00000011
0.00000011 0.00000011 0.00000011
0.00000011 0.00000011 0.00000011
0.00000011 0.00000011 0.00000011
0.00000011 0.00000011 0.00000011
0.00000011 0.00000011 0.00000011
0.00000011 0.00000011 0.00000011
0.00000011 0.00000011 0.00000011
0.00016198 0.00016198 0.00239946
0.00076822 0.00076822 0.01138554
0.00183258 0.00183258 0.02716232
0.00354675 0.00354675 0.05146448
0.00621551 0.00621551 0.07950114
0.01029747 0.01029747 0.11099043
0.01647554 0.01647554 0.14689668
0.02576312 0.02576312 0.18823669
0.03966204 0.03966204 0.23614073
0.05780135 0.05780135 0.29189767
0.07896956 0.07896956 0.35699634
0.10373840 0.10373840 0.43316798
0.13276465 0.13276465 0.52243240
0.16681553 0.16681553 0.62714909
0.20678716 0.20678716 0.75007385
0.00000011 0.00000011 0.00000011
0.00000011 0.00000011 0.00000011
0.00000011 0.00000011 0.00000011
0.00000011 0.00000011 0.00000011
0.00000011 0.00000011 0.00000011
0.00000015 0.00000015 0.00000073
0.00000011 0.00000011 0.00000011
0.00000011 0.00000011 0.00000011
0.00000011 0.00000011 0.00000011
0.00000011 0.00000011 0.00000011
0.00000011 0.00000011 0.00000011
0.00000011 0.00000011 0.00000011
0.00000011 0.00000011 0.00000011
0.00000011 0.00000011 0.00000011
0.00000011 0.00000011 0.00000011
0.00000011 0.00000011 0.00000011
0.00000011 0.00000011 0.00000011
0.00000011 0.00000011 0.00000011
0.00016198 0.00016198 0.00239946
0.00076822 0.00076822 0.01138554
0.00183258 0.00183258 0.02716232
0.00354675 0.00354675 0.05146448
0.00621551 0.00621551 0.07950114
0.01029747 0.01029747 0.11099043
0.01647554 0.01647554 0.14689668
0.02576312 0.02576312 0.18823669
0.03966204 0.03966204 0.23614073
0.05780135 0.05780135 0.29189767
0.07896956 0.07896956 0.35699634
0.10373840 0.10373840 0.43316798
0.13276465 0.13276465 0.52243240
0.16681553 0.16681553 0.62714909
0.20678716 0.20678716 0.75007385
0.00000011 0.00000011 0.00000011
0.00000011 0.00000011 0.00000011
0.00000011 0.00000011 0.00000011
0.00000011 0.00000011 0.00000011
0.00000011 0.00000011 0.00000011
0.00000015 0.00000015 0.00000073
0.00000011 0.00000011 0.00000011
0.00000011 0.00000011 0.00000011
0.00000011 0.00000011 0.00000011
0.00000011 0.00000011 0.00000011
0.00000011 0.00000011 0.00000011
0.00000011 0.00000011 0.00000011
0.00000011 0.00000011 0.00000011
0.00000011 0.00000011 0.00000011
0.00000011 0.00000011 0.00000011
0.00000011 0.00000011 0.00000011
0.00000011 0.00000011 0.00000011
0.00000011 0.00000011 0.00000011
0.00016198 0.00016198 0.00239946
0.00076822 0.00076822 0.01138554
0.00183258 0.00183258 0.02716232
0.00354675 0.00354675 0.05146448
0.00621551 0.00621551 0.07950114
0.01029747 0.01029747 0.11099043
0.01647554 0.01647554 0.14689668
0.02576312 0.02576312 0.18823669
0.03966204 0.03966204 0.23614073
0.05780135 0.05780135 0.29189767
0.07896956 0.07896956 0.35699634
0.10373840 0.10373840 0.43316798
0.13276465 0.13276465 0.52243240
0.16681553 0.16681553 0.62714909
0.20678716 0.20678716 0.75007385
0.00000011 0.00000011 0.00000011
0.00000011 0.00000011 0.00000011
0.00000011 0.00000011 0.00000011
0.00000011 0.00000011 0.00000011
0.00000011 0.00000011 0.00000011
0.00000015 0.00000015 0.00000073
0.00000011 0.00000011 0.00000011
0.00000011 0.00000011 0.00000011
0.00000011 0.00000011 0.00000011
0.00000011 0.00000011 0.00000011
0.00000011 0.00000011 0.00000011
0.00000011 0.00000011 0.00000011
0.00000011 0.00000011 0.00000011
0.00000011 0.00000011 0.00000011
0.00000011 0.00000011 0.00000011
0.00000011 0.00000011 0.00000011
0.00000011 0.00000011 0.00000011
0.00000011 0.00000011 0.00000011
0.00016198 0.00016198 0.00239946
0.00076822 0.00076822 0.01138554
0.00183258 0.00183258 0.02716232
0.00354675 0.00354675 0.05146448
0.00621551 0.00621551 0.07950114
0.01029747 0.01029747 0.11099043
0.01647554 0.01647554 0.14689668
0.02576312 0.02576312 0.18823669
0.03966204 0.03966204 0.23614073
0.05780135 0.05780135 0.29189767
0.07896956 0.07896956 0.35699634
0.10373840 0.10373840 0.43316798
0.13276465 0.13276465 0.52243240
0.16681553 0.16681553 0.62714909
0.20678716 0.20678716 0.75007385
0.00000011 0.00000011 0.00000011
0.00000011 0.00000011 0.00000011
0.00000011 0.00000011 0.00000011
0.00000011 0.00000011 0.00000011
0.00000011 0.00000011 0.00000011
0.00000015 0.00000015 0.00000073
0.00000011 0.00000011 0.00000011
0.00000011 0.00000011 0.00000011
0.00000011 0.00000011 0.00000011
0.00000011 0.00000011 0.00000011
0.00000011 0.00000011 0.00000011
0.00000011 0.00000011 0.00000011
0.00000011 0.00000011 0.00000011
0.00000011 0.00000011 0.00000011
0.00000011 0.00000011 0.00000011
0.00000011 0.00000011 0.00000011
0.00000011 0.00000011 0.00000011
0.00000011 0.00000011 0.00000011
0.00016198 0.00016198 0.00239946
0.00076822 0.00076822 0.01138554
0.00183258 0.00183258 0.02716232
0.00354675 0.00354675 0.05146448
0.00621551 0.00621551 0.07950114
0.01029747 0.01029747 0.11099043
0.01647554 0.01647554 0.14689668
0.02576312 0.02576312 0.18823669
0.03966204 0.03966204 0.23614073
0.05780135 0.05780135 0.29189767
0.07896956 0.07896956 0.35699634
0.10373840 0.10373840 0.43316798
0.13276465 0.13276465 0.52243240
0.16681553 0.16681553 0.62714909
0.20678716 0.20678716 0.75007385
0.00033054 0.00267361 0.00033054
0.00033054 0.00267361 0.00033054
0.00033054 0.00267361 0.00033054
0.00033054 0.00267361 0.00033054
0.00033054 0.00267361 0.00033054
0.00033052 0.00267345 0.00033052
0.00033054 0.00267361 0.00033054
0.00033054 0.00267361 0.00033054
0.00033054 0.00267361 0.00033054
0.00033054 0.00267361 0.00033054
0.00033054 0.00267361 0.00033054
0.00033054 0.00267361 0.00033054
0.00033054 0.00267361 0.00033054
0.00033054 0.00267361 0.00033054
0.00033054 0.00267361 0.00033054
0.00033054 0.00267361 0.00033054
0.00033054 0.00267361 0.00033054
0.00033054 0.00267361 0.00033054
0.00028465 0.00230227 0.00193389
0.00072632 0.00224142 0.01076460
0.00178075 0.00242833 0.02639407
0.00348592 0.00348592 0.05069976
0.00614584 0.00614584 0.07887092
0.01021879 0.01021879 0.11046076
0.01638743 0.01638743 0.14644608
0.02566500 0.02566500 0.18785030
0.03955321 0.03955321 0.23580760
0.05770760 0.05770760 0.29160938
0.07888823 0.07888823 0.35674620
0.10366770 0.10366770 0.43295054
0.13270310 0.13270310 0.52224313
0.16676191 0.16676191 0.62698421
0.20674043 0.20674043 0.74993014
0.00156356 0.01264982 0.00156356
0.00156356 0.01264982 0.00156356
0.00156356 0.01264982 0.00156356
0.00156356 0.01264982 0.00156356
0.00156356 0.01264982 0.00156356
0.00156353 0.01264958 0.00156353
0.00156356 0.01264982 0.00156356
0.00156356 0.01264982 0.00156356
0.00156356 0.01264982 0.00156356
0.00156356 0.01264982 0.00156356
0.00156356 0.01264982 0.00156356
0.00156356 0.01264982 0.00156356
0.00156356 0.01264982 0.00156356
0.00156356 0.01264982 0.00156356
0.00156356 0.01264982 0.00156356
0.00156356 0.01264982 0.00156356
0.00156356 0.01264982 0.00156356
0.00156356 0.01264982 0.00156356
0.00149580 0.01210156 0.00244831
0.00135063 0.01092705 0.00921105
0.00166898 0.01088803 0.02473742
0.00335412 0.01063542 0.04901580
0.00599454 0.01085553 0.07748774
0.01004770 0.01208654 0.10930079
0.01619573 0.01619573 0.14546082
0.02545142 0.02545142 0.18700615
0.03931620 0.03931620 0.23508023
0.05750300 0.05750301 0.29098018
0.07871075 0.07871075 0.35620042
0.10351346 0.10351346 0.43247620
0.13256887 0.13256887 0.52183033
0.16664499 0.16664499 0.62662463
0.20663853 0.20663853 0.74961676
0.00372726 0.03015614 0.00372726
0.00372726 0.03015614 0.00372726
0.00372726 0.03015614 0.00372726
0.00372726 0.03015614 0.00372726
0.00372726 0.03015614 0.00372726
0.00372723 0.03015585 0.00372722
0.00372726 0.03015614 0.00372726
0.00372726 0.03015614 0.00372726
0.00372726 0.03015614 0.00372726
0.00372726 0.03015614 0.00372726
0.00372726 0.03015614 0.00372726
0.00372726 0.03015614 0.00372726
0.00372726 0.03015614 0.00372726
0.00372726 0.03015614 0.00372726
0.00372726 0.03015614 0.00372726
0.00372726 0.03015614 0.00372726
0.00372726 0.03015614 0.00372726
0.00372726 0.03015614 0.00372726
0.00364350 0.02947847 0.00384859
0.00346251 0.02801404 0.00989574
0.00322226 0.02607022 0.02199557
0.00317849 0.02625144 0.04671069
0.00579206 0.02557741 0.07560438
0.00981807 0.02537752 0.10772567
0.01593794 0.02622590 0.14412514
0.02516412 0.02932790 0.18586412
0.03899746 0.03899746 0.23409804
0.05722691 0.05722691 0.29013111
0.07847138 0.07847138 0.35546426
0.10330548 0.10330548 0.43183662
0.13238792 0.13238792 0.52127386
0.16648740 0.16648740 0.62614001
0.20650121 0.20650121 0.74919446
0.00721140 0.05618965 0.00721140
0.00721140 0.05618965 0.00721140
0.00721140 0.05618965 0.00721140
0.00721140 0.05618965 0.00721140
0.00721140 0.05618965 0.00721140
0.00721136 0.05618937 0.00721136
0.00721140 0.05618965 0.00721140
0.00721140 0.05618965 0.00721140
0.00721140 0.05618965 0.00721140
0.00721140 0.05618965 0.00721140
0.00721140 0.05618965 0.00721140
0.00721140 0.05618965 0.00721140
0.00721140 0.05618965 0.00721140
0.00721140 0.05618965 0.00721140
0.00721140 0.05618965 0.00721140
0.00721140 0.05618965 0.00721140
0.00721140 0.05618965 0.00721140
0.00721140 0.05618965 0.00721140
0.00711313 0.05555575 0.00711312
0.00690000 0.05416328 0.01152798
0.00661540 0.05226407 0.02299864
0.00623664 0.04966106 0.04252092
0.00552192 0.05018523 0.07303085
0.00951064 0.04910765 0.10558284
0.01559192 0.04847997 0.14231229
0.02477742 0.04894877 0.18431492
0.03856771 0.05171824 0.23276631
0.05685377 0.05910931 0.28898358
