luts/S9_VLog_to_gold200.cube
# Film Emulation LUT
# Generated by lutex.py
# Grid: 33³
TITLE "Panasonic S9 V-Log to Kodak Gold 200 (Warm Golden) v2"
LUT_3D_SIZE 5
DOMAIN_MIN 0.0 0.0 0.0
DOMAIN_MAX 1.0 1.0 1.0
0.00000125 0.00000117 0.00000092
0.00000125 0.00000117 0.00000092
0.00000125 0.00000117 0.00000092
0.00000000 0.00000000 0.00000000
0.00000000 0.35095039 0.80145128
0.00000125 0.00000117 0.00000092
0.00000125 0.00000117 0.00000092
0.00000125 0.00000117 0.00000092
0.00000000 0.00000000 0.00000000
0.00000000 0.35095039 0.80145128
0.00000125 0.00000117 0.00000092
0.00000125 0.00000117 0.00000092
0.00000125 0.00000117 0.00000092
0.00000000 0.00000000 0.00000000
0.00000000 0.35095039 0.80145128
0.00000029 0.21494717 0.00000000
0.00000029 0.21494717 0.00000000
0.00000029 0.21494717 0.00000000
0.00000000 0.20106503 0.18944541
0.00000000 0.34856394 0.79641648
0.00000021 0.84787597 0.00000000
0.00000021 0.84787597 0.00000000
0.00000021 0.84787597 0.00000000
0.00000021 0.84428295 0.00000000
0.00000000 0.77101751 0.80236944
0.00000125 0.00000117 0.00000092
0.00000125 0.00000117 0.00000092
0.00000125 0.00000117 0.00000092
0.00000000 0.00000000 0.00000000
0.00000000 0.35095039 0.80145128
0.00000125 0.00000117 0.00000092
0.00000125 0.00000117 0.00000092
0.00000125 0.00000117 0.00000092
0.00000000 0.00000000 0.00000000
0.00000000 0.35095039 0.80145128
0.00000125 0.00000117 0.00000092
0.00000125 0.00000117 0.00000092
0.00000125 0.00000117 0.00000092
0.00000000 0.00000000 0.00000000
0.00000000 0.35095039 0.80145128
0.00000029 0.21494717 0.00000000
0.00000029 0.21494717 0.00000000
0.00000029 0.21494717 0.00000000
0.00000000 0.20106503 0.18944541
0.00000000 0.34856394 0.79641648
0.00000021 0.84787597 0.00000000
0.00000021 0.84787597 0.00000000
0.00000021 0.84787597 0.00000000
0.00000021 0.84428295 0.00000000
0.00000000 0.77101751 0.80236944
0.00000125 0.00000117 0.00000092
0.00000125 0.00000117 0.00000092
0.00000125 0.00000117 0.00000092
0.00000000 0.00000000 0.00000000
0.00000000 0.35095039 0.80145128
0.00000125 0.00000117 0.00000092
0.00000125 0.00000117 0.00000092
0.00000125 0.00000117 0.00000092
0.00000000 0.00000000 0.00000000
0.00000000 0.35095039 0.80145128
0.00000125 0.00000117 0.00000092
0.00000125 0.00000117 0.00000092
0.00000125 0.00000117 0.00000092
0.00000000 0.00000000 0.00000000
0.00000000 0.35095039 0.80145128
0.00000029 0.21494717 0.00000000
0.00000029 0.21494717 0.00000000
0.00000029 0.21494717 0.00000000
0.00000000 0.20106503 0.18944541
0.00000000 0.34856394 0.79641648
0.00000021 0.84787597 0.00000000
0.00000021 0.84787597 0.00000000
0.00000021 0.84787597 0.00000000
0.00000021 0.84428295 0.00000000
0.00000000 0.77101751 0.80236944
0.26831057 0.09824649 0.00000000
0.26831057 0.09824649 0.00000000
0.26831057 0.09824649 0.00000000
0.25860498 0.00000000 0.20395679
0.00000000 0.33383871 0.80072441
0.26831057 0.09824649 0.00000000
0.26831057 0.09824649 0.00000000
0.26831057 0.09824649 0.00000000
0.25860498 0.00000000 0.20395679
0.00000000 0.33383871 0.80072441
0.26831057 0.09824649 0.00000000
0.26831057 0.09824649 0.00000000
0.26831057 0.09824649 0.00000000
0.25860498 0.00000000 0.20395679
0.00000000 0.33383871 0.80072441
0.20082101 0.19742952 0.00000000
0.20082101 0.19742952 0.00000000
0.20082101 0.19742952 0.00000000
0.18856015 0.18208296 0.18663669
0.00000000 0.34817310 0.79559191
0.00000021 0.84337529 0.00000000
0.00000021 0.84337529 0.00000000
0.00000021 0.84337529 0.00000000
0.00000021 0.83976188 0.00000000
0.00000000 0.76608658 0.80132807
1.00000000 0.50097519 0.26696418
1.00000000 0.50097519 0.26696418
1.00000000 0.50097519 0.26696418
1.00000000 0.47006605 0.25250433
0.99173200 0.00000000 0.84494850
1.00000000 0.50097519 0.26696418
1.00000000 0.50097519 0.26696418
1.00000000 0.50097519 0.26696418
1.00000000 0.47006605 0.25250433
0.99173200 0.00000000 0.84494850
1.00000000 0.50097519 0.26696418
1.00000000 0.50097519 0.26696418
1.00000000 0.50097519 0.26696418
1.00000000 0.47006605 0.25250433
0.99173200 0.00000000 0.84494850
1.00000000 0.46609776 0.15507161
1.00000000 0.46609776 0.15507161
1.00000000 0.46609776 0.15507161
1.00000000 0.43631266 0.12729453
0.97524184 0.00000000 0.83988957
0.79582894 0.78988802 0.00000000
0.79582894 0.78988802 0.00000000
0.79582894 0.78988802 0.00000000
0.79230596 0.78590227 0.00000000
0.71354670 0.70806425 0.77142697
