luts/S9_VLog_to_m9_ccd_day.cube
# Film Emulation LUT
# Generated by lutex.py
# Grid: 33³
TITLE "Panasonic S9 V-Log to Leica M9 CCD Day — S9 V-Log v1"
LUT_3D_SIZE 5
DOMAIN_MIN 0.0 0.0 0.0
DOMAIN_MAX 1.0 1.0 1.0
0.01034684 0.01114307 0.00888298
0.00000000 0.00000000 0.00000000
0.00000000 0.03466150 0.59838928
0.00000000 0.08322439 0.96081475
0.00000000 0.08319111 0.96078731
0.00000000 0.00000000 0.00000000
0.00000000 0.17611438 0.15316689
0.00000000 0.03419288 0.59464522
0.00000000 0.08322443 0.96081478
0.00000000 0.08319111 0.96078731
0.20514494 0.67661722 0.00000000
0.20414640 0.67380214 0.00000000
0.00000000 0.67428695 0.61836265
0.00000000 0.08322502 0.96081526
0.00000000 0.08319111 0.96078731
0.31207499 0.97868832 0.00000000
0.31207502 0.97868834 0.00000000
0.31207539 0.97868864 0.00000000
0.03692031 1.00000000 0.93039128
0.00000000 0.08319113 0.96078733
0.31204755 0.97866638 0.00000000
0.31204756 0.97866638 0.00000000
0.31204756 0.97866639 0.00000000
0.31204757 0.97866640 0.00000000
0.03694827 1.00000000 0.97532719
0.21588490 0.02689823 0.00000000
0.20955010 0.00000000 0.16270831
0.01279671 0.00000000 0.59780819
0.00000000 0.08322440 0.96081475
0.00000000 0.08319111 0.96078731
0.16756505 0.17302343 0.00000000
0.15597796 0.15939556 0.14869953
0.00000000 0.03411647 0.59403187
0.00000000 0.08322444 0.96081479
0.00000000 0.08319111 0.96078731
0.20389412 0.67309093 0.00000000
0.20288975 0.67025939 0.00000000
0.00000000 0.67078587 0.61786683
0.00000000 0.08322502 0.96081527
0.00000000 0.08319111 0.96078731
0.31207503 0.97868835 0.00000000
0.31207505 0.97868837 0.00000000
0.31207542 0.97868867 0.00000000
0.03693103 1.00000000 0.93086107
0.00000000 0.08319113 0.96078733
0.31204756 0.97866638 0.00000000
0.31204756 0.97866639 0.00000000
0.31204756 0.97866639 0.00000000
0.31204757 0.97866640 0.00000000
0.03694919 1.00000000 0.97537010
0.83709386 0.20157556 0.00000000
0.83634377 0.14399621 0.00000000
0.81237056 0.00000000 0.66004365
0.07112570 0.00000000 0.96073049
0.00000000 0.08319111 0.96078731
0.82646154 0.19853253 0.00000000
0.82469819 0.15261491 0.00000000
0.80034816 0.00000000 0.65687552
0.05911835 0.00000000 0.96073874
0.00000000 0.08319111 0.96078731
0.65880966 0.66412521 0.00000000
0.65639929 0.66128690 0.00000000
0.62449440 0.62301704 0.60900739
0.00000000 0.08322512 0.96081535
0.00000000 0.08319112 0.96078731
0.31207549 0.97868872 0.00000000
0.31207552 0.97868874 0.00000000
0.31207590 0.97868905 0.00000000
0.03707248 1.00000000 0.93702710
0.00000000 0.08319113 0.96078733
0.31204756 0.97866639 0.00000000
0.31204756 0.97866639 0.00000000
0.31204756 0.97866639 0.00000000
0.31204757 0.97866640 0.00000000
0.03696114 1.00000000 0.97592743
1.00000000 0.27745148 0.11895375
1.00000000 0.27745153 0.11895385
1.00000000 0.24674485 0.11916013
1.00000000 0.12600380 0.78908923
0.02305880 0.00000000 0.96072823
1.00000000 0.27745179 0.11895438
1.00000000 0.27745184 0.11895449
1.00000000 0.24708790 0.11915923
1.00000000 0.12602233 0.78997648
0.02166910 0.00000000 0.96072891
1.00000000 0.27745593 0.11896306
1.00000000 0.27745599 0.11896318
1.00000000 0.25165670 0.11914729
1.00000000 0.12627354 0.80188740
0.00410017 0.00000000 0.96073747
1.00000000 0.98964601 0.18669722
1.00000000 0.98957139 0.18734371
1.00000000 0.98859619 0.19561905
0.99825257 0.97397337 0.98443308
0.00000000 0.08319113 0.96078733
0.31204757 0.97866640 0.00000000
0.31204757 0.97866640 0.00000000
0.31204757 0.97866640 0.00000000
0.31204758 0.97866641 0.00000000
0.03709282 1.00000000 0.98203801
1.00000000 0.27737091 0.11878499
1.00000000 0.27737091 0.11878499
1.00000000 0.27737091 0.11878499
1.00000000 0.24955710 0.11893505
1.00000000 0.12642531 0.82038323
1.00000000 0.27737091 0.11878499
1.00000000 0.27737091 0.11878499
1.00000000 0.27737091 0.11878499
1.00000000 0.24959783 0.11893485
1.00000000 0.12642703 0.82046528
1.00000000 0.27737092 0.11878501
1.00000000 0.27737092 0.11878501
1.00000000 0.27737093 0.11878502
1.00000000 0.25012566 0.11893223
1.00000000 0.12644937 0.82153316
1.00000000 0.27737105 0.11878529
1.00000000 0.27737105 0.11878529
1.00000000 0.27737106 0.11878529
1.00000000 0.25575708 0.11890387
1.00000000 0.12670222 0.83350295
1.00000000 0.97578566 0.21742131
1.00000000 0.97577929 0.21741999
1.00000000 0.97569656 0.21740290
1.00000000 0.97479057 0.21721582
0.96922333 0.93239557 0.98572365
