luts/S9_VLog_to_5219.cube
# Film Emulation LUT
# Generated by lutex.py
# Grid: 17³
TITLE "Panasonic S9 V-Log to Kodak Vision3 5219 (500T)"
LUT_3D_SIZE 17
DOMAIN_MIN 0.0 0.0 0.0
DOMAIN_MAX 1.0 1.0 1.0
0.00000007 0.00000008 0.00000006
0.00000007 0.00000008 0.00000006
0.00000007 0.00000008 0.00000006
0.00000007 0.00000008 0.00000006
0.00000007 0.00000008 0.00000006
0.00000007 0.00000008 0.00000006
0.00000007 0.00000008 0.00000006
0.00000007 0.00000008 0.00000006
0.00000007 0.00000008 0.00000006
0.00010819 0.00020551 0.00205436
0.00148040 0.00281271 0.02812639
0.00556439 0.01057229 0.08743900
0.01603454 0.03046558 0.16638417
0.04161318 0.07123610 0.27449596
0.08589240 0.12909197 0.42550892
0.14831667 0.21065641 0.63840496
0.23665820 0.32608471 0.93969098
0.00000007 0.00000008 0.00000006
0.00000007 0.00000008 0.00000006
0.00000007 0.00000008 0.00000006
0.00000007 0.00000008 0.00000006
0.00000007 0.00000008 0.00000006
0.00000007 0.00000008 0.00000006
0.00000007 0.00000008 0.00000006
0.00000007 0.00000008 0.00000006
0.00000007 0.00000008 0.00000006
0.00010819 0.00020551 0.00205436
0.00148040 0.00281271 0.02812639
0.00556439 0.01057229 0.08743900
0.01603454 0.03046558 0.16638417
0.04161318 0.07123610 0.27449596
0.08589240 0.12909197 0.42550892
0.14831667 0.21065641 0.63840496
0.23665820 0.32608471 0.93969098
0.00000007 0.00000008 0.00000006
0.00000007 0.00000008 0.00000006
0.00000007 0.00000008 0.00000006
0.00000007 0.00000008 0.00000006
0.00000007 0.00000008 0.00000006
0.00000007 0.00000008 0.00000006
0.00000007 0.00000008 0.00000006
0.00000007 0.00000008 0.00000006
0.00000007 0.00000008 0.00000006
0.00010819 0.00020551 0.00205436
0.00148040 0.00281271 0.02812639
0.00556439 0.01057229 0.08743900
0.01603454 0.03046558 0.16638417
0.04161318 0.07123610 0.27449596
0.08589240 0.12909197 0.42550892
0.14831667 0.21065641 0.63840496
0.23665820 0.32608471 0.93969098
0.00000007 0.00000008 0.00000006
0.00000007 0.00000008 0.00000006
0.00000007 0.00000008 0.00000006
0.00000007 0.00000008 0.00000006
0.00000007 0.00000008 0.00000006
0.00000007 0.00000008 0.00000006
0.00000007 0.00000008 0.00000006
0.00000007 0.00000008 0.00000006
0.00000007 0.00000008 0.00000006
0.00010819 0.00020551 0.00205436
0.00148040 0.00281271 0.02812639
0.00556439 0.01057229 0.08743900
0.01603454 0.03046558 0.16638417
0.04161318 0.07123610 0.27449596
0.08589240 0.12909197 0.42550892
0.14831667 0.21065641 0.63840496
0.23665820 0.32608471 0.93969098
0.00000007 0.00000008 0.00000006
0.00000007 0.00000008 0.00000006
0.00000007 0.00000008 0.00000006
0.00000007 0.00000008 0.00000006
0.00000007 0.00000008 0.00000006
0.00000007 0.00000008 0.00000006
0.00000007 0.00000008 0.00000006
0.00000007 0.00000008 0.00000006
0.00000007 0.00000008 0.00000006
0.00010819 0.00020551 0.00205436
0.00148040 0.00281271 0.02812639
0.00556439 0.01057229 0.08743900
0.01603454 0.03046558 0.16638417
0.04161318 0.07123610 0.27449596
0.08589240 0.12909197 0.42550892
0.14831667 0.21065641 0.63840496
0.23665820 0.32608471 0.93969098
0.00000007 0.00000008 0.00000006
0.00000007 0.00000008 0.00000006
0.00000007 0.00000008 0.00000006
0.00000007 0.00000008 0.00000006
0.00000007 0.00000008 0.00000006
0.00000007 0.00000008 0.00000006
0.00000007 0.00000008 0.00000006
0.00000007 0.00000008 0.00000006
0.00000007 0.00000008 0.00000006
0.00010819 0.00020551 0.00205436
0.00148040 0.00281271 0.02812639
0.00556439 0.01057229 0.08743900
0.01603454 0.03046558 0.16638417
0.04161318 0.07123610 0.27449596
0.08589240 0.12909197 0.42550892
0.14831667 0.21065641 0.63840496
0.23665820 0.32608471 0.93969098
0.00000007 0.00000008 0.00000006
0.00000007 0.00000008 0.00000006
0.00000007 0.00000008 0.00000006
0.00000007 0.00000008 0.00000006
0.00000007 0.00000008 0.00000006
0.00000007 0.00000008 0.00000006
0.00000007 0.00000008 0.00000006
0.00000007 0.00000008 0.00000006
0.00000007 0.00000008 0.00000006
0.00010819 0.00020551 0.00205436
0.00148040 0.00281271 0.02812639
0.00556439 0.01057229 0.08743900
0.01603454 0.03046558 0.16638417
0.04161318 0.07123610 0.27449596
0.08589240 0.12909197 0.42550892
0.14831667 0.21065641 0.63840496
0.23665820 0.32608471 0.93969098
0.00000007 0.00000008 0.00000006
0.00000007 0.00000008 0.00000006
0.00000007 0.00000008 0.00000006
0.00000007 0.00000008 0.00000006
0.00000007 0.00000008 0.00000006
0.00000007 0.00000008 0.00000006
0.00000007 0.00000008 0.00000006
0.00000007 0.00000008 0.00000006
0.00000007 0.00000008 0.00000006
0.00010819 0.00020551 0.00205436
0.00148040 0.00281271 0.02812639
0.00556439 0.01057229 0.08743900
0.01603454 0.03046558 0.16638417
0.04161318 0.07123610 0.27449596
0.08589240 0.12909197 0.42550892
0.14831667 0.21065641 0.63840496
0.23665820 0.32608471 0.93969098
0.00000007 0.00000008 0.00000006
0.00000007 0.00000008 0.00000006
0.00000007 0.00000008 0.00000006
0.00000007 0.00000008 0.00000006
0.00000007 0.00000008 0.00000006
0.00000007 0.00000008 0.00000006
0.00000007 0.00000008 0.00000006
0.00000007 0.00000008 0.00000006
0.00000007 0.00000008 0.00000006
0.00010819 0.00020551 0.00205436
0.00148040 0.00281271 0.02812639
0.00556439 0.01057229 0.08743900
0.01603454 0.03046558 0.16638417
0.04161318 0.07123610 0.27449596
0.08589240 0.12909197 0.42550892
0.14831667 0.21065641 0.63840496
0.23665820 0.32608471 0.93969098
0.00009643 0.00183099 0.00009642
0.00009643 0.00183099 0.00009642
0.00009643 0.00183099 0.00009642
0.00009643 0.00183099 0.00009642
0.00009643 0.00183099 0.00009642
0.00009643 0.00183099 0.00009642
0.00009643 0.00183099 0.00009642
0.00009643 0.00183099 0.00009642
0.00009643 0.00183099 0.00009642
0.00008811 0.00149902 0.00167278
0.00143512 0.00314691 0.02726602
0.00549674 0.01044376 0.08671491
0.01594143 0.03028865 0.16584758
0.04149307 0.07107917 0.27408633
0.08579945 0.12897052 0.42519191
0.14824429 0.21056183 0.63815809
0.23660172 0.32601091 0.93949834
0.00114063 0.02167072 0.00114062
0.00114063 0.02167072 0.00114062
0.00114063 0.02167072 0.00114062
0.00114063 0.02167072 0.00114062
0.00114063 0.02167072 0.00114062
0.00114063 0.02167072 0.00114062
0.00114063 0.02167072 0.00114062
0.00114063 0.02167072 0.00114062
0.00114063 0.02167072 0.00114062
0.00111442 0.02117275 0.00128575
0.00121014 0.01781092 0.02299136
0.00515429 0.02339209 0.08296693
0.01546713 0.03636062 0.16308565
0.04087688 0.07027405 0.27198483
0.08532318 0.12834822 0.42356760
0.14787361 0.21007750 0.63689391
0.23631259 0.32563312 0.93851226
0.00397997 0.06887605 0.00397996
0.00397997 0.06887605 0.00397996
0.00397997 0.06887605 0.00397996
0.00397997 0.06887605 0.00397996
0.00397997 0.06887605 0.00397996
0.00397997 0.06887605 0.00397996
0.00397997 0.06887605 0.00397996
0.00397997 0.06887605 0.00397996
0.00397997 0.06887605 0.00397996
0.00394367 0.06840400 0.00394366
0.00375927 0.06596616 0.01875331
0.00454981 0.05919671 0.07597905
0.01461597 0.07125916 0.15800239
0.03973872 0.08950651 0.26813146
0.08445441 0.13041055 0.42060470
0.14719979 0.20919708 0.63459588
0.23578741 0.32494692 0.93672116
0.01080508 0.13280957 0.01080507
0.01080508 0.13280957 0.01080507
0.01080508 0.13280957 0.01080507
0.01080508 0.13280957 0.01080507
0.01080508 0.13280957 0.01080507
0.01080508 0.13280957 0.01080507
0.01080508 0.13280957 0.01080507
0.01080508 0.13280957 0.01080507
0.01080508 0.13280957 0.01080507
0.01075803 0.13246832 0.01075801
0.01051806 0.13071452 0.01543902
0.01008624 0.12749869 0.06729533
0.01310792 0.11817582 0.14855353
0.03767698 0.13638812 0.26103739
0.08285235 0.16103371 0.41514091
0.14596199 0.21622579 0.63037438
0.23483274 0.32369953 0.93346528
0.02659319 0.21833440 0.02659317
0.02659319 0.21833440 0.02659317
0.02659319 0.21833440 0.02659317
0.02659319 0.21833440 0.02659317
0.02659319 0.21833440 0.02659317
0.02659319 0.21833440 0.02659317
0.02659319 0.21833440 0.02659317
0.02659319 0.21833440 0.02659317
0.02659319 0.21833440 0.02659317
0.02653373 0.21807962 0.02653372
0.02623006 0.21677303 0.02623005
0.02568134 0.21438951 0.05681171
0.02469337 0.21002189 0.13598432
0.03401557 0.19708668 0.24785806
0.07989709 0.22445804 0.40506210
0.14365662 0.25937632 0.62251200
0.23304765 0.33665778 0.92737729
0.05942867 0.33525516 0.05942866
0.05942867 0.33525516 0.05942866
0.05942867 0.33525516 0.05942866
0.05942867 0.33525516 0.05942866
0.05942867 0.33525516 0.05942866
0.05942867 0.33525516 0.05942866
0.05942867 0.33525516 0.05942866
0.05942867 0.33525516 0.05942866
0.05942867 0.33525516 0.05942866
0.05937205 0.33506206 0.05937204
0.05908197 0.33407277 0.05908196
0.05855413 0.33227259 0.05855412
0.05759140 0.32898922 0.11976950
0.05582785 0.32297468 0.22942606
0.07439927 0.32718625 0.38631195
0.13938082 0.34585123 0.60792953
0.22965556 0.39625400 0.91580868
0.10679598 0.49679994 0.10679598
0.10679598 0.49679994 0.10679598
0.10679598 0.49679994 0.10679598
0.10679598 0.49679994 0.10679598
0.10679598 0.49679994 0.10679598
0.10679598 0.49679994 0.10679598
0.10679598 0.49679994 0.10679598
0.10679598 0.49679994 0.10679598
0.10679598 0.49679994 0.10679598
0.10675274 0.49665245 0.10675273
0.10653131 0.49589729 0.10653130
0.10612891 0.49452490 0.10612890
0.10539669 0.49202770 0.11106201
0.10406132 0.48747347 0.20503890
0.10161559 0.47913239 0.35898288
0.13139251 0.48683989 0.58068563
0.22328914 0.51463092 0.89409620
0.17260123 0.72122670 0.17260123
0.17260123 0.72122670 0.17260123
0.17260123 0.72122670 0.17260123
0.17260123 0.72122670 0.17260123
0.17260123 0.72122670 0.17260123
0.17260123 0.72122670 0.17260123
0.17260123 0.72122670 0.17260123
0.17260123 0.72122670 0.17260123
0.17260123 0.72122670 0.17260123
0.17256807 0.72111360 0.17256807
0.17239832 0.72053467 0.17239832
0.17209004 0.71948329 0.17209004
0.17152980 0.71757259 0.17152979
0.17051041 0.71409600 0.18587435
0.16865140 0.70775590 0.32232738
0.16524693 0.69614508 0.53947325
0.21127991 0.70897318 0.85313911
0.00000007 0.00000008 0.00000006
0.00000007 0.00000008 0.00000006
0.00000007 0.00000008 0.00000006
0.00000007 0.00000008 0.00000006
0.00000007 0.00000008 0.00000006
0.00000007 0.00000008 0.00000006
0.00000007 0.00000008 0.00000006
0.00000007 0.00000008 0.00000006
0.00000007 0.00000008 0.00000006
0.00010819 0.00020551 0.00205436
0.00148040 0.00281271 0.02812639
0.00556439 0.01057229 0.08743900
0.01603454 0.03046558 0.16638417
0.04161318 0.07123610 0.27449596
0.08589240 0.12909197 0.42550892
0.14831667 0.21065641 0.63840496
0.23665820 0.32608471 0.93969098
0.00000007 0.00000008 0.00000006
0.00000007 0.00000008 0.00000006
0.00000007 0.00000008 0.00000006
0.00000007 0.00000008 0.00000006
0.00000007 0.00000008 0.00000006
0.00000007 0.00000008 0.00000006
0.00000007 0.00000008 0.00000006
0.00000007 0.00000008 0.00000006
0.00000007 0.00000008 0.00000006
0.00010819 0.00020551 0.00205436
0.00148040 0.00281271 0.02812639
0.00556439 0.01057229 0.08743900
0.01603454 0.03046558 0.16638417
0.04161318 0.07123610 0.27449596
0.08589240 0.12909197 0.42550892
0.14831667 0.21065641 0.63840496
0.23665820 0.32608471 0.93969098
0.00000007 0.00000008 0.00000006
0.00000007 0.00000008 0.00000006
0.00000007 0.00000008 0.00000006
0.00000007 0.00000008 0.00000006
0.00000007 0.00000008 0.00000006
0.00000007 0.00000008 0.00000006
0.00000007 0.00000008 0.00000006
0.00000007 0.00000008 0.00000006
0.00000007 0.00000008 0.00000006
0.00010819 0.00020551 0.00205436
0.00148040 0.00281271 0.02812639
0.00556439 0.01057229 0.08743900
0.01603454 0.03046558 0.16638417
0.04161318 0.07123610 0.27449596
0.08589240 0.12909197 0.42550892
0.14831667 0.21065641 0.63840496
0.23665820 0.32608471 0.93969098
0.00000007 0.00000008 0.00000006
0.00000007 0.00000008 0.00000006
0.00000007 0.00000008 0.00000006
0.00000007 0.00000008 0.00000006
0.00000007 0.00000008 0.00000006
0.00000007 0.00000008 0.00000006
0.00000007 0.00000008 0.00000006
0.00000007 0.00000008 0.00000006
0.00000007 0.00000008 0.00000006
0.00010819 0.00020551 0.00205436
0.00148040 0.00281271 0.02812639
0.00556439 0.01057229 0.08743900
0.01603454 0.03046558 0.16638417
0.04161318 0.07123610 0.27449596
0.08589240 0.12909197 0.42550892
0.14831667 0.21065641 0.63840496
0.23665820 0.32608471 0.93969098
0.00000007 0.00000008 0.00000006
0.00000007 0.00000008 0.00000006
0.00000007 0.00000008 0.00000006
0.00000007 0.00000008 0.00000006
0.00000007 0.00000008 0.00000006
0.00000007 0.00000008 0.00000006
0.00000007 0.00000008 0.00000006
0.00000007 0.00000008 0.00000006
0.00000007 0.00000008 0.00000006
0.00010819 0.00020551 0.00205436
0.00148040 0.00281271 0.02812639
0.00556439 0.01057229 0.08743900
0.01603454 0.03046558 0.16638417
0.04161318 0.07123610 0.27449596
0.08589240 0.12909197 0.42550892
0.14831667 0.21065641 0.63840496
0.23665820 0.32608471 0.93969098
0.00000007 0.00000008 0.00000006
0.00000007 0.00000008 0.00000006
0.00000007 0.00000008 0.00000006
0.00000007 0.00000008 0.00000006
0.00000007 0.00000008 0.00000006
0.00000007 0.00000008 0.00000006
0.00000007 0.00000008 0.00000006
0.00000007 0.00000008 0.00000006
0.00000007 0.00000008 0.00000006
0.00010819 0.00020551 0.00205436
0.00148040 0.00281271 0.02812639
0.00556439 0.01057229 0.08743900
0.01603454 0.03046558 0.16638417
0.04161318 0.07123610 0.27449596
0.08589240 0.12909197 0.42550892
0.14831667 0.21065641 0.63840496
0.23665820 0.32608471 0.93969098
0.00000007 0.00000008 0.00000006
0.00000007 0.00000008 0.00000006
0.00000007 0.00000008 0.00000006
0.00000007 0.00000008 0.00000006
0.00000007 0.00000008 0.00000006
0.00000007 0.00000008 0.00000006
0.00000007 0.00000008 0.00000006
0.00000007 0.00000008 0.00000006
0.00000007 0.00000008 0.00000006
0.00010819 0.00020551 0.00205436
0.00148040 0.00281271 0.02812639
0.00556439 0.01057229 0.08743900
0.01603454 0.03046558 0.16638417
0.04161318 0.07123610 0.27449596
0.08589240 0.12909197 0.42550892
0.14831667 0.21065641 0.63840496
0.23665820 0.32608471 0.93969098
0.00000007 0.00000008 0.00000006
0.00000007 0.00000008 0.00000006
0.00000007 0.00000008 0.00000006
0.00000007 0.00000008 0.00000006
0.00000007 0.00000008 0.00000006
0.00000007 0.00000008 0.00000006
0.00000007 0.00000008 0.00000006
0.00000007 0.00000008 0.00000006
0.00000007 0.00000008 0.00000006
0.00010819 0.00020551 0.00205436
0.00148040 0.00281271 0.02812639
0.00556439 0.01057229 0.08743900
0.01603454 0.03046558 0.16638417
0.04161318 0.07123610 0.27449596
0.08589240 0.12909197 0.42550892
0.14831667 0.21065641 0.63840496
0.23665820 0.32608471 0.93969098
0.00000007 0.00000008 0.00000006
0.00000007 0.00000008 0.00000006
0.00000007 0.00000008 0.00000006
0.00000007 0.00000008 0.00000006
0.00000007 0.00000008 0.00000006
0.00000007 0.00000008 0.00000006
0.00000007 0.00000008 0.00000006
0.00000007 0.00000008 0.00000006
0.00000007 0.00000008 0.00000006
0.00010819 0.00020551 0.00205436
0.00148040 0.00281271 0.02812639
0.00556439 0.01057229 0.08743900
0.01603454 0.03046558 0.16638417
0.04161318 0.07123610 0.27449596
0.08589240 0.12909197 0.42550892
0.14831667 0.21065641 0.63840496
0.23665820 0.32608471 0.93969098
0.00009643 0.00183099 0.00009642
0.00009643 0.00183099 0.00009642
0.00009643 0.00183099 0.00009642
0.00009643 0.00183099 0.00009642
0.00009643 0.00183099 0.00009642
0.00009643 0.00183099 0.00009642
0.00009643 0.00183099 0.00009642
0.00009643 0.00183099 0.00009642
0.00009643 0.00183099 0.00009642
0.00008811 0.00149902 0.00167278
0.00143512 0.00314691 0.02726602
0.00549674 0.01044376 0.08671491
0.01594143 0.03028865 0.16584758
0.04149307 0.07107917 0.27408633
0.08579945 0.12897052 0.42519191
0.14824429 0.21056183 0.63815809
0.23660172 0.32601091 0.93949834
0.00114063 0.02167072 0.00114062
0.00114063 0.02167072 0.00114062
0.00114063 0.02167072 0.00114062
0.00114063 0.02167072 0.00114062
0.00114063 0.02167072 0.00114062
0.00114063 0.02167072 0.00114062
0.00114063 0.02167072 0.00114062
0.00114063 0.02167072 0.00114062
0.00114063 0.02167072 0.00114062
0.00111442 0.02117275 0.00128575
0.00121014 0.01781092 0.02299136
0.00515429 0.02339209 0.08296693
0.01546713 0.03636062 0.16308565
0.04087688 0.07027405 0.27198483
0.08532318 0.12834822 0.42356760
0.14787361 0.21007750 0.63689391
0.23631259 0.32563312 0.93851226
0.00397997 0.06887605 0.00397996
0.00397997 0.06887605 0.00397996
0.00397997 0.06887605 0.00397996
0.00397997 0.06887605 0.00397996
0.00397997 0.06887605 0.00397996
0.00397997 0.06887605 0.00397996
0.00397997 0.06887605 0.00397996
0.00397997 0.06887605 0.00397996
0.00397997 0.06887605 0.00397996
0.00394367 0.06840400 0.00394366
0.00375927 0.06596616 0.01875331
0.00454981 0.05919671 0.07597905
0.01461597 0.07125916 0.15800239
0.03973872 0.08950651 0.26813146
0.08445441 0.13041055 0.42060470
0.14719979 0.20919708 0.63459588
0.23578741 0.32494692 0.93672116
0.01080508 0.13280957 0.01080507
0.01080508 0.13280957 0.01080507
0.01080508 0.13280957 0.01080507
0.01080508 0.13280957 0.01080507
0.01080508 0.13280957 0.01080507
0.01080508 0.13280957 0.01080507
0.01080508 0.13280957 0.01080507
0.01080508 0.13280957 0.01080507
0.01080508 0.13280957 0.01080507
0.01075803 0.13246832 0.01075801
0.01051806 0.13071452 0.01543902
0.01008624 0.12749869 0.06729533
0.01310792 0.11817582 0.14855353
0.03767698 0.13638812 0.26103739
0.08285235 0.16103371 0.41514091
0.14596199 0.21622579 0.63037438
0.23483274 0.32369953 0.93346528
0.02659319 0.21833440 0.02659317
0.02659319 0.21833440 0.02659317
0.02659319 0.21833440 0.02659317
0.02659319 0.21833440 0.02659317
0.02659319 0.21833440 0.02659317
0.02659319 0.21833440 0.02659317
0.02659319 0.21833440 0.02659317
0.02659319 0.21833440 0.02659317
0.02659319 0.21833440 0.02659317
0.02653373 0.21807962 0.02653372
0.02623006 0.21677303 0.02623005
0.02568134 0.21438951 0.05681171
0.02469337 0.21002189 0.13598432
0.03401557 0.19708668 0.24785806
0.07989709 0.22445804 0.40506210
0.14365662 0.25937632 0.62251200
0.23304765 0.33665778 0.92737729
0.05942867 0.33525516 0.05942866
0.05942867 0.33525516 0.05942866
0.05942867 0.33525516 0.05942866
0.05942867 0.33525516 0.05942866
0.05942867 0.33525516 0.05942866
0.05942867 0.33525516 0.05942866
0.05942867 0.33525516 0.05942866
0.05942867 0.33525516 0.05942866
0.05942867 0.33525516 0.05942866
0.05937205 0.33506206 0.05937204
0.05908197 0.33407277 0.05908196
0.05855413 0.33227259 0.05855412
0.05759140 0.32898922 0.11976950
0.05582785 0.32297468 0.22942606
0.07439927 0.32718625 0.38631195
0.13938082 0.34585123 0.60792953
0.22965556 0.39625400 0.91580868
0.10679598 0.49679994 0.10679598
0.10679598 0.49679994 0.10679598
0.10679598 0.49679994 0.10679598
0.10679598 0.49679994 0.10679598
0.10679598 0.49679994 0.10679598
0.10679598 0.49679994 0.10679598
0.10679598 0.49679994 0.10679598
0.10679598 0.49679994 0.10679598
0.10679598 0.49679994 0.10679598
0.10675274 0.49665245 0.10675273
0.10653131 0.49589729 0.10653130
0.10612891 0.49452490 0.10612890
0.10539669 0.49202770 0.11106201
0.10406132 0.48747347 0.20503890
0.10161559 0.47913239 0.35898288
0.13139251 0.48683989 0.58068563
0.22328914 0.51463092 0.89409620
0.17260123 0.72122670 0.17260123
0.17260123 0.72122670 0.17260123
0.17260123 0.72122670 0.17260123
0.17260123 0.72122670 0.17260123
0.17260123 0.72122670 0.17260123
0.17260123 0.72122670 0.17260123
0.17260123 0.72122670 0.17260123
0.17260123 0.72122670 0.17260123
0.17260123 0.72122670 0.17260123
0.17256807 0.72111360 0.17256807
0.17239832 0.72053467 0.17239832
0.17209004 0.71948329 0.17209004
0.17152980 0.71757259 0.17152979
0.17051041 0.71409600 0.18587435
0.16865140 0.70775590 0.32232738
0.16524693 0.69614508 0.53947325
0.21127991 0.70897318 0.85313911
0.00000007 0.00000008 0.00000006
0.00000007 0.00000008 0.00000006
0.00000007 0.00000008 0.00000006
0.00000007 0.00000008 0.00000006
0.00000007 0.00000008 0.00000006
0.00000007 0.00000008 0.00000006
0.00000007 0.00000008 0.00000006
0.00000007 0.00000008 0.00000006
0.00000007 0.00000008 0.00000006
0.00010819 0.00020551 0.00205436
0.00148040 0.00281271 0.02812639
0.00556439 0.01057229 0.08743900
0.01603454 0.03046558 0.16638417
0.04161318 0.07123610 0.27449596
0.08589240 0.12909197 0.42550892
0.14831667 0.21065641 0.63840496
0.23665820 0.32608471 0.93969098
0.00000007 0.00000008 0.00000006
0.00000007 0.00000008 0.00000006
0.00000007 0.00000008 0.00000006
0.00000007 0.00000008 0.00000006
0.00000007 0.00000008 0.00000006
0.00000007 0.00000008 0.00000006
0.00000007 0.00000008 0.00000006
0.00000007 0.00000008 0.00000006
0.00000007 0.00000008 0.00000006
0.00010819 0.00020551 0.00205436
0.00148040 0.00281271 0.02812639
0.00556439 0.01057229 0.08743900
0.01603454 0.03046558 0.16638417
0.04161318 0.07123610 0.27449596
0.08589240 0.12909197 0.42550892
0.14831667 0.21065641 0.63840496
0.23665820 0.32608471 0.93969098
0.00000007 0.00000008 0.00000006
0.00000007 0.00000008 0.00000006
0.00000007 0.00000008 0.00000006
0.00000007 0.00000008 0.00000006
0.00000007 0.00000008 0.00000006
0.00000007 0.00000008 0.00000006
0.00000007 0.00000008 0.00000006
0.00000007 0.00000008 0.00000006
0.00000007 0.00000008 0.00000006
0.00010819 0.00020551 0.00205436
0.00148040 0.00281271 0.02812639
0.00556439 0.01057229 0.08743900
0.01603454 0.03046558 0.16638417
0.04161318 0.07123610 0.27449596
0.08589240 0.12909197 0.42550892
0.14831667 0.21065641 0.63840496
0.23665820 0.32608471 0.93969098
0.00000007 0.00000008 0.00000006
0.00000007 0.00000008 0.00000006
0.00000007 0.00000008 0.00000006
0.00000007 0.00000008 0.00000006
0.00000007 0.00000008 0.00000006
0.00000007 0.00000008 0.00000006
0.00000007 0.00000008 0.00000006
0.00000007 0.00000008 0.00000006
0.00000007 0.00000008 0.00000006
0.00010819 0.00020551 0.00205436
0.00148040 0.00281271 0.02812639
0.00556439 0.01057229 0.08743900
0.01603454 0.03046558 0.16638417
0.04161318 0.07123610 0.27449596
0.08589240 0.12909197 0.42550892
0.14831667 0.21065641 0.63840496
0.23665820 0.32608471 0.93969098
0.00000007 0.00000008 0.00000006
0.00000007 0.00000008 0.00000006
0.00000007 0.00000008 0.00000006
0.00000007 0.00000008 0.00000006
0.00000007 0.00000008 0.00000006
0.00000007 0.00000008 0.00000006
0.00000007 0.00000008 0.00000006
0.00000007 0.00000008 0.00000006
0.00000007 0.00000008 0.00000006
0.00010819 0.00020551 0.00205436
0.00148040 0.00281271 0.02812639
0.00556439 0.01057229 0.08743900
0.01603454 0.03046558 0.16638417
0.04161318 0.07123610 0.27449596
0.08589240 0.12909197 0.42550892
0.14831667 0.21065641 0.63840496
0.23665820 0.32608471 0.93969098
0.00000007 0.00000008 0.00000006
0.00000007 0.00000008 0.00000006
0.00000007 0.00000008 0.00000006
0.00000007 0.00000008 0.00000006
0.00000007 0.00000008 0.00000006
0.00000007 0.00000008 0.00000006
0.00000007 0.00000008 0.00000006
0.00000007 0.00000008 0.00000006
0.00000007 0.00000008 0.00000006
0.00010819 0.00020551 0.00205436
0.00148040 0.00281271 0.02812639
0.00556439 0.01057229 0.08743900
0.01603454 0.03046558 0.16638417
0.04161318 0.07123610 0.27449596
0.08589240 0.12909197 0.42550892
0.14831667 0.21065641 0.63840496
0.23665820 0.32608471 0.93969098
0.00000007 0.00000008 0.00000006
0.00000007 0.00000008 0.00000006
0.00000007 0.00000008 0.00000006
0.00000007 0.00000008 0.00000006
0.00000007 0.00000008 0.00000006
0.00000007 0.00000008 0.00000006
0.00000007 0.00000008 0.00000006
0.00000007 0.00000008 0.00000006
0.00000007 0.00000008 0.00000006
0.00010819 0.00020551 0.00205436
0.00148040 0.00281271 0.02812639
0.00556439 0.01057229 0.08743900
0.01603454 0.03046558 0.16638417
0.04161318 0.07123610 0.27449596
0.08589240 0.12909197 0.42550892
0.14831667 0.21065641 0.63840496
0.23665820 0.32608471 0.93969098
0.00000007 0.00000008 0.00000006
0.00000007 0.00000008 0.00000006
0.00000007 0.00000008 0.00000006
0.00000007 0.00000008 0.00000006
0.00000007 0.00000008 0.00000006
0.00000007 0.00000008 0.00000006
0.00000007 0.00000008 0.00000006
0.00000007 0.00000008 0.00000006
0.00000007 0.00000008 0.00000006
0.00010819 0.00020551 0.00205436
0.00148040 0.00281271 0.02812639
0.00556439 0.01057229 0.08743900
0.01603454 0.03046558 0.16638417
0.04161318 0.07123610 0.27449596
0.08589240 0.12909197 0.42550892
0.14831667 0.21065641 0.63840496
0.23665820 0.32608471 0.93969098
0.00000007 0.00000008 0.00000006
0.00000007 0.00000008 0.00000006
0.00000007 0.00000008 0.00000006
0.00000007 0.00000008 0.00000006
0.00000007 0.00000008 0.00000006
0.00000007 0.00000008 0.00000006
0.00000007 0.00000008 0.00000006
0.00000007 0.00000008 0.00000006
