luts/S9_VLog_to_ricoh_positive_film.cube
# Film Emulation LUT
# Generated by lutex.py
# Grid: 33³
TITLE "Panasonic S9 V-Log to Ricoh Positive Film (ポジフィルム調)"
LUT_3D_SIZE 9
DOMAIN_MIN 0.0 0.0 0.0
DOMAIN_MAX 1.0 1.0 1.0
0.00000000 0.00000000 0.00000000
0.00000000 0.00000000 0.00000000
0.00000000 0.00000000 0.00000000
0.00000000 0.00000000 0.00000000
0.00000000 0.00000000 0.00000000
0.00000000 0.00042817 0.02569017
0.00000000 0.00407451 0.14698587
0.00000000 0.02363862 0.36520897
0.00000000 0.09693709 0.78168148
0.00000000 0.00000000 0.00000000
0.00000000 0.00000000 0.00000000
0.00000000 0.00000000 0.00000000
0.00000000 0.00000000 0.00000000
0.00000000 0.00000000 0.00000000
0.00000000 0.00042817 0.02569017
0.00000000 0.00407451 0.14698587
0.00000000 0.02363862 0.36520897
0.00000000 0.09693709 0.78168148
0.00000000 0.00000000 0.00000000
0.00000000 0.00000000 0.00000000
0.00000000 0.00000000 0.00000000
0.00000000 0.00000000 0.00000000
0.00000000 0.00000000 0.00000000
0.00000000 0.00042817 0.02569017
0.00000000 0.00407451 0.14698587
0.00000000 0.02363862 0.36520897
0.00000000 0.09693709 0.78168148
0.00000000 0.00000000 0.00000000
0.00000000 0.00000000 0.00000000
0.00000000 0.00000000 0.00000000
0.00000000 0.00000000 0.00000000
0.00000000 0.00000000 0.00000000
0.00000000 0.00042817 0.02569017
0.00000000 0.00407451 0.14698587
0.00000000 0.02363862 0.36520897
0.00000000 0.09693709 0.78168148
0.00000000 0.00000000 0.00000000
0.00000000 0.00000000 0.00000000
0.00000000 0.00000000 0.00000000
0.00000000 0.00000000 0.00000000
0.00000000 0.00000000 0.00000000
0.00000000 0.00042817 0.02569017
0.00000000 0.00407451 0.14698587
0.00000000 0.02363862 0.36520897
0.00000000 0.09693709 0.78168148
0.00000000 0.02891689 0.00000000
0.00000000 0.02891689 0.00000000
0.00000000 0.02891689 0.00000000
0.00000000 0.02891689 0.00000000
0.00000000 0.02891689 0.00000000
0.00000000 0.02490888 0.02122944
0.00000000 0.01373688 0.14414188
0.00000000 0.02342245 0.36360357
0.00000000 0.09676633 0.78074115
0.00000000 0.15714835 0.00000000
0.00000000 0.15714835 0.00000000
0.00000000 0.15714835 0.00000000
0.00000000 0.15714835 0.00000000
0.00000000 0.15714835 0.00000000
0.00000000 0.15477797 0.00519083
0.00000000 0.14440684 0.13161706
0.00000000 0.11690120 0.35669008
0.00000000 0.09603508 0.77671432
0.00000000 0.38633469 0.00000000
0.00000000 0.38633469 0.00000000
0.00000000 0.38633469 0.00000000
0.00000000 0.38633469 0.00000000
0.00000000 0.38633469 0.00000000
0.00000000 0.38499550 0.00000000
0.00000000 0.37923787 0.08462782
0.00000000 0.35984486 0.33325804
0.00000000 0.30858626 0.76334644
0.00000000 0.82373665 0.00000000
0.00000000 0.82373665 0.00000000
0.00000000 0.82373665 0.00000000
0.00000000 0.82373665 0.00000000
0.00000000 0.82373665 0.00000000
0.00000000 0.82295207 0.00000000
0.00000000 0.81959380 0.00000000
0.00000000 0.80846424 0.24668794
0.00000000 0.77100165 0.71807531
0.00000000 0.00000000 0.00000000
0.00000000 0.00000000 0.00000000
0.00000000 0.00000000 0.00000000
0.00000000 0.00000000 0.00000000
0.00000000 0.00000000 0.00000000
0.00000000 0.00042817 0.02569017
0.00000000 0.00407451 0.14698587
0.00000000 0.02363862 0.36520897
0.00000000 0.09693709 0.78168148
0.00000000 0.00000000 0.00000000
0.00000000 0.00000000 0.00000000
0.00000000 0.00000000 0.00000000
0.00000000 0.00000000 0.00000000
0.00000000 0.00000000 0.00000000
0.00000000 0.00042817 0.02569017
0.00000000 0.00407451 0.14698587
0.00000000 0.02363862 0.36520897
0.00000000 0.09693709 0.78168148
0.00000000 0.00000000 0.00000000
0.00000000 0.00000000 0.00000000
0.00000000 0.00000000 0.00000000
0.00000000 0.00000000 0.00000000
0.00000000 0.00000000 0.00000000
0.00000000 0.00042817 0.02569017
0.00000000 0.00407451 0.14698587
0.00000000 0.02363862 0.36520897
0.00000000 0.09693709 0.78168148
0.00000000 0.00000000 0.00000000
0.00000000 0.00000000 0.00000000
0.00000000 0.00000000 0.00000000
0.00000000 0.00000000 0.00000000
0.00000000 0.00000000 0.00000000
0.00000000 0.00042817 0.02569017
0.00000000 0.00407451 0.14698587
0.00000000 0.02363862 0.36520897
0.00000000 0.09693709 0.78168148
0.00000000 0.00000000 0.00000000
0.00000000 0.00000000 0.00000000
0.00000000 0.00000000 0.00000000
0.00000000 0.00000000 0.00000000
0.00000000 0.00000000 0.00000000
0.00000000 0.00042817 0.02569017
0.00000000 0.00407451 0.14698587
0.00000000 0.02363862 0.36520897
0.00000000 0.09693709 0.78168148
0.00000000 0.02891689 0.00000000
0.00000000 0.02891689 0.00000000
0.00000000 0.02891689 0.00000000
0.00000000 0.02891689 0.00000000
0.00000000 0.02891689 0.00000000
0.00000000 0.02490888 0.02122944
0.00000000 0.01373688 0.14414188
0.00000000 0.02342245 0.36360357
0.00000000 0.09676633 0.78074115
0.00000000 0.15714835 0.00000000
0.00000000 0.15714835 0.00000000
0.00000000 0.15714835 0.00000000
0.00000000 0.15714835 0.00000000
0.00000000 0.15714835 0.00000000
0.00000000 0.15477797 0.00519083
0.00000000 0.14440684 0.13161706
0.00000000 0.11690120 0.35669008
0.00000000 0.09603508 0.77671432
0.00000000 0.38633469 0.00000000
0.00000000 0.38633469 0.00000000
0.00000000 0.38633469 0.00000000
0.00000000 0.38633469 0.00000000
0.00000000 0.38633469 0.00000000
0.00000000 0.38499550 0.00000000
0.00000000 0.37923787 0.08462782
0.00000000 0.35984486 0.33325804
0.00000000 0.30858626 0.76334644
0.00000000 0.82373665 0.00000000
0.00000000 0.82373665 0.00000000
0.00000000 0.82373665 0.00000000
0.00000000 0.82373665 0.00000000
0.00000000 0.82373665 0.00000000
0.00000000 0.82295207 0.00000000
0.00000000 0.81959380 0.00000000
0.00000000 0.80846424 0.24668794
0.00000000 0.77100165 0.71807531
0.00000000 0.00000000 0.00000000
0.00000000 0.00000000 0.00000000
0.00000000 0.00000000 0.00000000
0.00000000 0.00000000 0.00000000
0.00000000 0.00000000 0.00000000
0.00000000 0.00042817 0.02569017
0.00000000 0.00407451 0.14698587
0.00000000 0.02363862 0.36520897
0.00000000 0.09693709 0.78168148
0.00000000 0.00000000 0.00000000
0.00000000 0.00000000 0.00000000
0.00000000 0.00000000 0.00000000
0.00000000 0.00000000 0.00000000
0.00000000 0.00000000 0.00000000
0.00000000 0.00042817 0.02569017
0.00000000 0.00407451 0.14698587
0.00000000 0.02363862 0.36520897
0.00000000 0.09693709 0.78168148
0.00000000 0.00000000 0.00000000
0.00000000 0.00000000 0.00000000
0.00000000 0.00000000 0.00000000
0.00000000 0.00000000 0.00000000
0.00000000 0.00000000 0.00000000
0.00000000 0.00042817 0.02569017
0.00000000 0.00407451 0.14698587
0.00000000 0.02363862 0.36520897
0.00000000 0.09693709 0.78168148
0.00000000 0.00000000 0.00000000
0.00000000 0.00000000 0.00000000
0.00000000 0.00000000 0.00000000
0.00000000 0.00000000 0.00000000
0.00000000 0.00000000 0.00000000
0.00000000 0.00042817 0.02569017
0.00000000 0.00407451 0.14698587
0.00000000 0.02363862 0.36520897
0.00000000 0.09693709 0.78168148
0.00000000 0.00000000 0.00000000
0.00000000 0.00000000 0.00000000
0.00000000 0.00000000 0.00000000
0.00000000 0.00000000 0.00000000
0.00000000 0.00000000 0.00000000
0.00000000 0.00042817 0.02569017
0.00000000 0.00407451 0.14698587
0.00000000 0.02363862 0.36520897
0.00000000 0.09693709 0.78168148
0.00000000 0.02891689 0.00000000
0.00000000 0.02891689 0.00000000
0.00000000 0.02891689 0.00000000
0.00000000 0.02891689 0.00000000
0.00000000 0.02891689 0.00000000
0.00000000 0.02490888 0.02122944
0.00000000 0.01373688 0.14414188
0.00000000 0.02342245 0.36360357
0.00000000 0.09676633 0.78074115
0.00000000 0.15714835 0.00000000
0.00000000 0.15714835 0.00000000
0.00000000 0.15714835 0.00000000
0.00000000 0.15714835 0.00000000
0.00000000 0.15714835 0.00000000
0.00000000 0.15477797 0.00519083
0.00000000 0.14440684 0.13161706
0.00000000 0.11690120 0.35669008
0.00000000 0.09603508 0.77671432
0.00000000 0.38633469 0.00000000
0.00000000 0.38633469 0.00000000
0.00000000 0.38633469 0.00000000
0.00000000 0.38633469 0.00000000
0.00000000 0.38633469 0.00000000
0.00000000 0.38499550 0.00000000
0.00000000 0.37923787 0.08462782
0.00000000 0.35984486 0.33325804
0.00000000 0.30858626 0.76334644
0.00000000 0.82373665 0.00000000
0.00000000 0.82373665 0.00000000
0.00000000 0.82373665 0.00000000
0.00000000 0.82373665 0.00000000
0.00000000 0.82373665 0.00000000
0.00000000 0.82295207 0.00000000
0.00000000 0.81959380 0.00000000
0.00000000 0.80846424 0.24668794
0.00000000 0.77100165 0.71807531
0.00000000 0.00000000 0.00000000
0.00000000 0.00000000 0.00000000
0.00000000 0.00000000 0.00000000
0.00000000 0.00000000 0.00000000
0.00000000 0.00000000 0.00000000
0.00000000 0.00042817 0.02569017
0.00000000 0.00407451 0.14698587
0.00000000 0.02363862 0.36520897
0.00000000 0.09693709 0.78168148
0.00000000 0.00000000 0.00000000
0.00000000 0.00000000 0.00000000
0.00000000 0.00000000 0.00000000
0.00000000 0.00000000 0.00000000
0.00000000 0.00000000 0.00000000
0.00000000 0.00042817 0.02569017
0.00000000 0.00407451 0.14698587
0.00000000 0.02363862 0.36520897
0.00000000 0.09693709 0.78168148
0.00000000 0.00000000 0.00000000
0.00000000 0.00000000 0.00000000
0.00000000 0.00000000 0.00000000
0.00000000 0.00000000 0.00000000
0.00000000 0.00000000 0.00000000
0.00000000 0.00042817 0.02569017
0.00000000 0.00407451 0.14698587
0.00000000 0.02363862 0.36520897
0.00000000 0.09693709 0.78168148
0.00000000 0.00000000 0.00000000
0.00000000 0.00000000 0.00000000
0.00000000 0.00000000 0.00000000
0.00000000 0.00000000 0.00000000
0.00000000 0.00000000 0.00000000
0.00000000 0.00042817 0.02569017
0.00000000 0.00407451 0.14698587
0.00000000 0.02363862 0.36520897
0.00000000 0.09693709 0.78168148
0.00000000 0.00000000 0.00000000
0.00000000 0.00000000 0.00000000
0.00000000 0.00000000 0.00000000
0.00000000 0.00000000 0.00000000
0.00000000 0.00000000 0.00000000
0.00000000 0.00042817 0.02569017
0.00000000 0.00407451 0.14698587
0.00000000 0.02363862 0.36520897
0.00000000 0.09693709 0.78168148
0.00000000 0.02891689 0.00000000
0.00000000 0.02891689 0.00000000
0.00000000 0.02891689 0.00000000
0.00000000 0.02891689 0.00000000
0.00000000 0.02891689 0.00000000
0.00000000 0.02490888 0.02122944
0.00000000 0.01373688 0.14414188
0.00000000 0.02342245 0.36360357
0.00000000 0.09676633 0.78074115
0.00000000 0.15714835 0.00000000
0.00000000 0.15714835 0.00000000
0.00000000 0.15714835 0.00000000
0.00000000 0.15714835 0.00000000
0.00000000 0.15714835 0.00000000
0.00000000 0.15477797 0.00519083
0.00000000 0.14440684 0.13161706
0.00000000 0.11690120 0.35669008
0.00000000 0.09603508 0.77671432
0.00000000 0.38633469 0.00000000
0.00000000 0.38633469 0.00000000
0.00000000 0.38633469 0.00000000
0.00000000 0.38633469 0.00000000
0.00000000 0.38633469 0.00000000
0.00000000 0.38499550 0.00000000
0.00000000 0.37923787 0.08462782
0.00000000 0.35984486 0.33325804
0.00000000 0.30858626 0.76334644
0.00000000 0.82373665 0.00000000
0.00000000 0.82373665 0.00000000
0.00000000 0.82373665 0.00000000
0.00000000 0.82373665 0.00000000
0.00000000 0.82373665 0.00000000
0.00000000 0.82295207 0.00000000
0.00000000 0.81959380 0.00000000
0.00000000 0.80846424 0.24668794
0.00000000 0.77100165 0.71807531
0.00000000 0.00000000 0.00000000
0.00000000 0.00000000 0.00000000
0.00000000 0.00000000 0.00000000
0.00000000 0.00000000 0.00000000
0.00000000 0.00000000 0.00000000
0.00000000 0.00042817 0.02569017
0.00000000 0.00407451 0.14698587
0.00000000 0.02363862 0.36520897
0.00000000 0.09693709 0.78168148
0.00000000 0.00000000 0.00000000
0.00000000 0.00000000 0.00000000
0.00000000 0.00000000 0.00000000
0.00000000 0.00000000 0.00000000
0.00000000 0.00000000 0.00000000
0.00000000 0.00042817 0.02569017
0.00000000 0.00407451 0.14698587
0.00000000 0.02363862 0.36520897
0.00000000 0.09693709 0.78168148
0.00000000 0.00000000 0.00000000
0.00000000 0.00000000 0.00000000
0.00000000 0.00000000 0.00000000
0.00000000 0.00000000 0.00000000
0.00000000 0.00000000 0.00000000
0.00000000 0.00042817 0.02569017
0.00000000 0.00407451 0.14698587
0.00000000 0.02363862 0.36520897
0.00000000 0.09693709 0.78168148
0.00000000 0.00000000 0.00000000
0.00000000 0.00000000 0.00000000
0.00000000 0.00000000 0.00000000
0.00000000 0.00000000 0.00000000
0.00000000 0.00000000 0.00000000
0.00000000 0.00042817 0.02569017
0.00000000 0.00407451 0.14698587
0.00000000 0.02363862 0.36520897
0.00000000 0.09693709 0.78168148
0.00000000 0.00000000 0.00000000
0.00000000 0.00000000 0.00000000
0.00000000 0.00000000 0.00000000
0.00000000 0.00000000 0.00000000
0.00000000 0.00000000 0.00000000
0.00000000 0.00042817 0.02569017
0.00000000 0.00407451 0.14698587
0.00000000 0.02363862 0.36520897
0.00000000 0.09693709 0.78168148
0.00000000 0.02891689 0.00000000
0.00000000 0.02891689 0.00000000
0.00000000 0.02891689 0.00000000
0.00000000 0.02891689 0.00000000
0.00000000 0.02891689 0.00000000
0.00000000 0.02490888 0.02122944
0.00000000 0.01373688 0.14414188
0.00000000 0.02342245 0.36360357
0.00000000 0.09676633 0.78074115
0.00000000 0.15714835 0.00000000
0.00000000 0.15714835 0.00000000
0.00000000 0.15714835 0.00000000
0.00000000 0.15714835 0.00000000
0.00000000 0.15714835 0.00000000
0.00000000 0.15477797 0.00519083
0.00000000 0.14440684 0.13161706
0.00000000 0.11690120 0.35669008
0.00000000 0.09603508 0.77671432
0.00000000 0.38633469 0.00000000
0.00000000 0.38633469 0.00000000
0.00000000 0.38633469 0.00000000
0.00000000 0.38633469 0.00000000
0.00000000 0.38633469 0.00000000
0.00000000 0.38499550 0.00000000
0.00000000 0.37923787 0.08462782
0.00000000 0.35984486 0.33325804
0.00000000 0.30858626 0.76334644
0.00000000 0.82373665 0.00000000
0.00000000 0.82373665 0.00000000
0.00000000 0.82373665 0.00000000
0.00000000 0.82373665 0.00000000
0.00000000 0.82373665 0.00000000
0.00000000 0.82295207 0.00000000
0.00000000 0.81959380 0.00000000
0.00000000 0.80846424 0.24668794
0.00000000 0.77100165 0.71807531
0.04387074 0.00440169 0.00000000
0.04387074 0.00440169 0.00000000
0.04387074 0.00440169 0.00000000
0.04387074 0.00440169 0.00000000
0.04387074 0.00440169 0.00000000
0.04039315 0.00000000 0.02494732
0.02184035 0.00000000 0.14652392
0.00000000 0.02360331 0.36494733
0.00000000 0.09690924 0.78152809
0.04387074 0.00440169 0.00000000
0.04387074 0.00440169 0.00000000
0.04387074 0.00440169 0.00000000
0.04387074 0.00440169 0.00000000
0.04387074 0.00440169 0.00000000
0.04039315 0.00000000 0.02494732
0.02184035 0.00000000 0.14652392
0.00000000 0.02360331 0.36494733
0.00000000 0.09690924 0.78152809
0.04387074 0.00440169 0.00000000
0.04387074 0.00440169 0.00000000
0.04387074 0.00440169 0.00000000
0.04387074 0.00440169 0.00000000
0.04387074 0.00440169 0.00000000
0.04039315 0.00000000 0.02494732
0.02184035 0.00000000 0.14652392
0.00000000 0.02360331 0.36494733
0.00000000 0.09690924 0.78152809
0.04387074 0.00440169 0.00000000
0.04387074 0.00440169 0.00000000
0.04387074 0.00440169 0.00000000
0.04387074 0.00440169 0.00000000
0.04387074 0.00440169 0.00000000
0.04039315 0.00000000 0.02494732
0.02184035 0.00000000 0.14652392
0.00000000 0.02360331 0.36494733
0.00000000 0.09690924 0.78152809
0.04387074 0.00440169 0.00000000
0.04387074 0.00440169 0.00000000
0.04387074 0.00440169 0.00000000
0.04387074 0.00440169 0.00000000
0.04387074 0.00440169 0.00000000
0.04039315 0.00000000 0.02494732
0.02184035 0.00000000 0.14652392
0.00000000 0.02360331 0.36494733
0.00000000 0.09690924 0.78152809
0.02274773 0.02392423 0.00000000
0.02274773 0.02392423 0.00000000
0.02274773 0.02392423 0.00000000
0.02274773 0.02392423 0.00000000
0.02274773 0.02392423 0.00000000
0.01964574 0.02013642 0.02059544
0.00000000 0.00183812 0.14582641
0.00000000 0.02338723 0.36334116
0.00000000 0.09673845 0.78058763
0.00000000 0.15417758 0.00000000
0.00000000 0.15417758 0.00000000
0.00000000 0.15417758 0.00000000
0.00000000 0.15417758 0.00000000
0.00000000 0.15417758 0.00000000
0.00000000 0.15178089 0.00470552
0.00000000 0.14128796 0.13112582
0.00000000 0.11351487 0.35642425
0.00000000 0.09600709 0.77656022
0.00000000 0.38465765 0.00000000
0.00000000 0.38465765 0.00000000
0.00000000 0.38465765 0.00000000
0.00000000 0.38465765 0.00000000
0.00000000 0.38465765 0.00000000
0.00000000 0.38331449 0.00000000
0.00000000 0.37753955 0.08401230
0.00000000 0.35808509 0.33297985
0.00000000 0.30669064 0.76319040
0.00000000 0.82275434 0.00000000
0.00000000 0.82275434 0.00000000
0.00000000 0.82275434 0.00000000
0.00000000 0.82275434 0.00000000
0.00000000 0.82275434 0.00000000
0.00000000 0.82196907 0.00000000
0.00000000 0.81860788 0.00000000
0.00000000 0.80746847 0.24634961
0.00000000 0.76997101 0.71791223
0.19759777 0.04177492 0.00000000
0.19759777 0.04177492 0.00000000
0.19759777 0.04177492 0.00000000
0.19759777 0.04177492 0.00000000
0.19759777 0.04177492 0.00000000
0.19593611 0.01931469 0.00000000
0.18873832 0.00000000 0.14454093
0.15637285 0.00000000 0.36382805
0.00000000 0.06062314 0.78087251
0.19759777 0.04177492 0.00000000
0.19759777 0.04177492 0.00000000
0.19759777 0.04177492 0.00000000
0.19759777 0.04177492 0.00000000
0.19759777 0.04177492 0.00000000
0.19593611 0.01931469 0.00000000
0.18873832 0.00000000 0.14454093
0.15637285 0.00000000 0.36382805
0.00000000 0.06062314 0.78087251
0.19759777 0.04177492 0.00000000
0.19759777 0.04177492 0.00000000
0.19759777 0.04177492 0.00000000
0.19759777 0.04177492 0.00000000
0.19759777 0.04177492 0.00000000
0.19593611 0.01931469 0.00000000
0.18873832 0.00000000 0.14454093
0.15637285 0.00000000 0.36382805
0.00000000 0.06062314 0.78087251
0.19759777 0.04177492 0.00000000
0.19759777 0.04177492 0.00000000
0.19759777 0.04177492 0.00000000
0.19759777 0.04177492 0.00000000
0.19759777 0.04177492 0.00000000
0.19593611 0.01931469 0.00000000
0.18873832 0.00000000 0.14454093
0.15637285 0.00000000 0.36382805
0.00000000 0.06062314 0.78087251
0.19759777 0.04177492 0.00000000
0.19759777 0.04177492 0.00000000
0.19759777 0.04177492 0.00000000
0.19759777 0.04177492 0.00000000
0.19759777 0.04177492 0.00000000
0.19593611 0.01931469 0.00000000
0.18873832 0.00000000 0.14454093
0.15637285 0.00000000 0.36382805
0.00000000 0.06062314 0.78087251
0.18702643 0.04355443 0.00000000
0.18702643 0.04355443 0.00000000
0.18702643 0.04355443 0.00000000
0.18702643 0.04355443 0.00000000
0.18702643 0.04355443 0.00000000
0.18622793 0.02301092 0.00000000
0.17785830 0.00000000 0.14166962
0.14394293 0.00000000 0.36221855
0.00000000 0.07639752 0.77993147
0.13702926 0.14109671 0.00000000
0.13702926 0.14109671 0.00000000
0.13702926 0.14109671 0.00000000
0.13702926 0.14109671 0.00000000
0.13702926 0.14109671 0.00000000
0.13591873 0.13958930 0.00000000
0.12569636 0.12756330 0.12928591
0.00000000 0.00928735 0.36829510
0.00000000 0.09588749 0.77590160
0.00000000 0.37743591 0.00000000
0.00000000 0.37743591 0.00000000
0.00000000 0.37743591 0.00000000
0.00000000 0.37743591 0.00000000
0.00000000 0.37743591 0.00000000
0.00000000 0.37607535 0.00000000
0.00000000 0.37022447 0.08135831
0.00000000 0.35050005 0.33178954
0.00000000 0.29851237 0.76252345
0.00000000 0.81854779 0.00000000
0.00000000 0.81854779 0.00000000
0.00000000 0.81854779 0.00000000
0.00000000 0.81854779 0.00000000
0.00000000 0.81854779 0.00000000
0.00000000 0.81775959 0.00000000
0.00000000 0.81438579 0.00000000
0.00000000 0.80320399 0.24490078
0.00000000 0.76555633 0.71721516
0.47043227 0.14630292 0.00000000
0.47043227 0.14630292 0.00000000
0.47043227 0.14630292 0.00000000
0.47043227 0.14630292 0.00000000
0.47043227 0.14630292 0.00000000
0.46949218 0.14156313 0.00000000
0.46546089 0.01811673 0.00000000
0.45201180 0.00000000 0.36012598
0.39204994 0.00000000 0.77871098
0.47043227 0.14630292 0.00000000
0.47043227 0.14630292 0.00000000
0.47043227 0.14630292 0.00000000
0.47043227 0.14630292 0.00000000
0.47043227 0.14630292 0.00000000
0.46949218 0.14156313 0.00000000
0.46546089 0.01811673 0.00000000
0.45201180 0.00000000 0.36012598
0.39204994 0.00000000 0.77871098
0.47043227 0.14630292 0.00000000
0.47043227 0.14630292 0.00000000
0.47043227 0.14630292 0.00000000
0.47043227 0.14630292 0.00000000
0.47043227 0.14630292 0.00000000
0.46949218 0.14156313 0.00000000
0.46546089 0.01811673 0.00000000
0.45201180 0.00000000 0.36012598
0.39204994 0.00000000 0.77871098
0.47043227 0.14630292 0.00000000
0.47043227 0.14630292 0.00000000
0.47043227 0.14630292 0.00000000
0.47043227 0.14630292 0.00000000
0.47043227 0.14630292 0.00000000
0.46949218 0.14156313 0.00000000
0.46546089 0.01811673 0.00000000
0.45201180 0.00000000 0.36012598
0.39204994 0.00000000 0.77871098
0.47043227 0.14630292 0.00000000
0.47043227 0.14630292 0.00000000
0.47043227 0.14630292 0.00000000
0.47043227 0.14630292 0.00000000
0.47043227 0.14630292 0.00000000
0.46949218 0.14156313 0.00000000
0.46546089 0.01811673 0.00000000
0.45201180 0.00000000 0.36012598
0.39204994 0.00000000 0.77871098
0.46451201 0.14403476 0.00000000
0.46451201 0.14403476 0.00000000
0.46451201 0.14403476 0.00000000
0.46451201 0.14403476 0.00000000
0.46451201 0.14403476 0.00000000
0.46356362 0.14053171 0.00000000
0.45949641 0.01959497 0.00000000
0.44592373 0.00000000 0.35850532
0.38523865 0.00000000 0.77776804
0.43860361 0.17180788 0.00000000
0.43860361 0.17180788 0.00000000
0.43860361 0.17180788 0.00000000
0.43860361 0.17180788 0.00000000
0.43860361 0.17180788 0.00000000
0.43761679 0.16980476 0.00000000
0.44173372 0.09003645 0.00000000
0.42123765 0.00000000 0.35245813
0.35511017 0.00000000 0.77373003
0.34450473 0.35296319 0.00000000
0.34450473 0.35296319 0.00000000
0.34450473 0.35296319 0.00000000
0.34450473 0.35296319 0.00000000
0.34450473 0.35296319 0.00000000
0.34334169 0.35153959 0.00000000
0.34812968 0.35588743 0.00000000
0.32094413 0.32482834 0.32841228
0.07524125 0.10160841 0.78739868
0.00000000 0.80458390 0.00000000
0.00000000 0.80458390 0.00000000
0.00000000 0.80458390 0.00000000
0.00000000 0.80458390 0.00000000
0.00000000 0.80458390 0.00000000
0.00000000 0.80378579 0.00000000
0.00000000 0.80036937 0.00000000
0.00000000 0.78904412 0.24009120
0.00000000 0.75088752 0.71491639
0.99115650 0.34580210 0.00000000
0.99115650 0.34580210 0.00000000
0.99115650 0.34580210 0.00000000
0.99115650 0.34580210 0.00000000
0.99115650 0.34580210 0.00000000
0.99060554 0.34559102 0.00000000
0.98824903 0.32254014 0.00000000
0.98046012 0.00000000 0.04540013
0.95448487 0.00000000 0.77156250
0.99115650 0.34580210 0.00000000
0.99115650 0.34580210 0.00000000
0.99115650 0.34580210 0.00000000
0.99115650 0.34580210 0.00000000
0.99115650 0.34580210 0.00000000
0.99060554 0.34559102 0.00000000
0.98824903 0.32254014 0.00000000
0.98046012 0.00000000 0.04540013
0.95448487 0.00000000 0.77156250
0.99115650 0.34580210 0.00000000
0.99115650 0.34580210 0.00000000
0.99115650 0.34580210 0.00000000
0.99115650 0.34580210 0.00000000
0.99115650 0.34580210 0.00000000
0.99060554 0.34559102 0.00000000
0.98824903 0.32254014 0.00000000
0.98046012 0.00000000 0.04540013
0.95448487 0.00000000 0.77156250
0.99115650 0.34580210 0.00000000
0.99115650 0.34580210 0.00000000
0.99115650 0.34580210 0.00000000
0.99115650 0.34580210 0.00000000
0.99115650 0.34580210 0.00000000
0.99060554 0.34559102 0.00000000
0.98824903 0.32254014 0.00000000
0.98046012 0.00000000 0.04540013
0.95448487 0.00000000 0.77156250
0.99115650 0.34580210 0.00000000
0.99115650 0.34580210 0.00000000
0.99115650 0.34580210 0.00000000
0.99115650 0.34580210 0.00000000
0.99115650 0.34580210 0.00000000
0.99060554 0.34559102 0.00000000
0.98824903 0.32254014 0.00000000
0.98046012 0.00000000 0.04540013
0.95448487 0.00000000 0.77156250
0.98769581 0.34447625 0.00000000
0.98769581 0.34447625 0.00000000
0.98769581 0.34447625 0.00000000
0.98769581 0.34447625 0.00000000
0.98769581 0.34447625 0.00000000
0.98714343 0.34426462 0.00000000
0.98478084 0.32215432 0.00000000
0.97697167 0.00000000 0.04291633
0.95092682 0.00000000 0.77061324
0.97280862 0.33877269 0.00000000
0.97280862 0.33877269 0.00000000
0.97280862 0.33877269 0.00000000
0.97280862 0.33877269 0.00000000
0.97280862 0.33877269 0.00000000
0.97225005 0.33855869 0.00000000
0.96986090 0.32038361 0.00000000
0.96196314 0.00000000 0.03175069
0.93561388 0.00000000 0.76654801
0.92255709 0.40912699 0.00000000
0.92255709 0.40912699 0.00000000
0.92255709 0.40912699 0.00000000
0.92255709 0.40912699 0.00000000
0.92255709 0.40912699 0.00000000
0.92197637 0.40794695 0.00000000
0.92093949 0.39962740 0.00000000
0.93204907 0.22856637 0.00000000
0.89126645 0.00000000 0.75657454
0.74046200 0.75730193 0.00000000
0.74046200 0.75730193 0.00000000
0.74046200 0.75730193 0.00000000
0.74046200 0.75730193 0.00000000
0.74046200 0.75730193 0.00000000
0.73978060 0.75646800 0.00000000
0.73686422 0.75289756 0.00000000
0.75161356 0.76719152 0.00000000
0.69355878 0.70129280 0.70842894
