luts/S9_VLog_to_m9_ccd_soft.cube
TITLE "Panasonic S9 V-Log to Leica M9 CCD Soft — S9 V-Log v1"
#LUMIXPHOTOSTYLE VLOG
# Film Emulation LUT
# Generated by lutex.py
# Grid: 33^3
LUT_3D_SIZE 9
DOMAIN_MIN 0.0 0.0 0.0
DOMAIN_MAX 1.0 1.0 1.0
0.03399313 0.03375161 0.03170326
0.03399313 0.03375161 0.03170326
0.24368846 0.04486536 0.02295799
0.47087672 0.07382246 0.00000000
0.84858246 0.16467854 0.00000000
1.00000000 0.23437795 0.11123355
1.00000000 0.23264871 0.10755454
1.00000000 0.23231645 0.10683780
1.00000000 0.23224768 0.10668902
0.03399313 0.03375161 0.03170326
0.03399313 0.03375161 0.03170326
0.24368846 0.04486536 0.02295799
0.47087672 0.07382246 0.00000000
0.84858246 0.16467854 0.00000000
1.00000000 0.23437795 0.11123355
1.00000000 0.23264871 0.10755454
1.00000000 0.23231645 0.10683780
1.00000000 0.23224768 0.10668902
0.01422688 0.07877289 0.00973622
0.01422688 0.07877289 0.00973622
0.19370163 0.19505168 0.02615009
0.44854549 0.15901427 0.00000000
0.83762758 0.16203332 0.00000000
1.00000000 0.23440292 0.11128607
1.00000000 0.23265010 0.10755755
1.00000000 0.23231654 0.10683799
1.00000000 0.23224768 0.10668904
0.10168388 0.34566954 0.06604304
0.10168388 0.34566954 0.06604304
0.09920809 0.33829730 0.06438937
0.37042419 0.37313157 0.01018733
0.80359608 0.33271328 0.00000000
1.00000000 0.23448153 0.11145130
1.00000000 0.23265438 0.10756675
1.00000000 0.23231680 0.10683855
1.00000000 0.23224770 0.10668907
0.22060176 0.69263417 0.14631482
0.22060176 0.69263417 0.14631482
0.21946682 0.68938237 0.14553651
0.21599849 0.67943979 0.14315930
0.67681230 0.68021043 0.00000000
1.00000000 0.41140642 0.11609828
1.00000000 0.23266902 0.10759826
1.00000000 0.23231767 0.10684043
1.00000000 0.23224775 0.10668919
0.33159414 0.96709619 0.23668939
0.33159414 0.96709619 0.23668939
0.33159599 0.96709815 0.23669051
0.33160165 0.96710417 0.23669395
0.33162115 0.96712487 0.23670577
0.98230060 0.98633058 0.20532140
1.00000000 0.36647451 0.11061925
1.00000000 0.23232064 0.10684685
1.00000000 0.23224794 0.10668959
0.33121374 0.96669210 0.23645865
0.33121374 0.96669210 0.23645865
0.33121384 0.96669221 0.23645871
0.33121415 0.96669254 0.23645890
0.33121518 0.96669364 0.23645953
0.33121873 0.96669741 0.23646168
0.98262366 0.98630681 0.20180481
1.00000000 0.37564536 0.11005680
1.00000000 0.23224857 0.10669095
0.33114268 0.96661656 0.23641553
0.33114268 0.96661656 0.23641553
0.33114268 0.96661657 0.23641553
0.33114270 0.96661659 0.23641554
0.33114276 0.96661665 0.23641558
0.33114297 0.96661687 0.23641570
0.33114367 0.96661762 0.23641613
0.98307178 0.98628762 0.20125363
1.00000000 0.38373396 0.11011963
0.33112820 0.96660117 0.23640674
0.33112820 0.96660117 0.23640674
0.33112820 0.96660117 0.23640674
0.33112820 0.96660118 0.23640674
0.33112821 0.96660118 0.23640674
0.33112822 0.96660119 0.23640675
0.33112826 0.96660124 0.23640678
0.33112841 0.96660140 0.23640687
0.98324488 0.98628060 0.20116521
0.03399313 0.03375161 0.03170326
0.03399313 0.03375161 0.03170326
0.24368846 0.04486536 0.02295799
0.47087672 0.07382246 0.00000000
0.84858246 0.16467854 0.00000000
1.00000000 0.23437795 0.11123355
1.00000000 0.23264871 0.10755454
1.00000000 0.23231645 0.10683780
1.00000000 0.23224768 0.10668902
0.03399313 0.03375161 0.03170326
0.03399313 0.03375161 0.03170326
0.24368846 0.04486536 0.02295799
0.47087672 0.07382246 0.00000000
0.84858246 0.16467854 0.00000000
1.00000000 0.23437795 0.11123355
1.00000000 0.23264871 0.10755454
1.00000000 0.23231645 0.10683780
1.00000000 0.23224768 0.10668902
0.01422688 0.07877289 0.00973622
0.01422688 0.07877289 0.00973622
0.19370163 0.19505168 0.02615009
0.44854549 0.15901427 0.00000000
0.83762758 0.16203332 0.00000000
1.00000000 0.23440292 0.11128607
1.00000000 0.23265010 0.10755755
1.00000000 0.23231654 0.10683799
1.00000000 0.23224768 0.10668904
0.10168388 0.34566954 0.06604304
0.10168388 0.34566954 0.06604304
0.09920809 0.33829730 0.06438937
0.37042419 0.37313157 0.01018733
0.80359608 0.33271328 0.00000000
1.00000000 0.23448153 0.11145130
1.00000000 0.23265438 0.10756675
1.00000000 0.23231680 0.10683855
1.00000000 0.23224770 0.10668907
0.22060176 0.69263417 0.14631482
0.22060176 0.69263417 0.14631482
0.21946682 0.68938237 0.14553651
0.21599849 0.67943979 0.14315930
0.67681230 0.68021043 0.00000000
1.00000000 0.41140642 0.11609828
1.00000000 0.23266902 0.10759826
1.00000000 0.23231767 0.10684043
1.00000000 0.23224775 0.10668919
0.33159414 0.96709619 0.23668939
0.33159414 0.96709619 0.23668939
0.33159599 0.96709815 0.23669051
0.33160165 0.96710417 0.23669395
0.33162115 0.96712487 0.23670577
0.98230060 0.98633058 0.20532140
1.00000000 0.36647451 0.11061925
1.00000000 0.23232064 0.10684685
1.00000000 0.23224794 0.10668959
0.33121374 0.96669210 0.23645865
0.33121374 0.96669210 0.23645865
0.33121384 0.96669221 0.23645871
0.33121415 0.96669254 0.23645890
0.33121518 0.96669364 0.23645953
0.33121873 0.96669741 0.23646168
0.98262366 0.98630681 0.20180481
1.00000000 0.37564536 0.11005680
1.00000000 0.23224857 0.10669095
0.33114268 0.96661656 0.23641553
0.33114268 0.96661656 0.23641553
0.33114268 0.96661657 0.23641553
0.33114270 0.96661659 0.23641554
0.33114276 0.96661665 0.23641558
0.33114297 0.96661687 0.23641570
0.33114367 0.96661762 0.23641613
0.98307178 0.98628762 0.20125363
1.00000000 0.38373396 0.11011963
0.33112820 0.96660117 0.23640674
0.33112820 0.96660117 0.23640674
0.33112820 0.96660117 0.23640674
0.33112820 0.96660118 0.23640674
0.33112821 0.96660118 0.23640674
0.33112822 0.96660119 0.23640675
0.33112826 0.96660124 0.23640678
0.33112841 0.96660140 0.23640687
0.98324488 0.98628060 0.20116521
0.00000000 0.00000000 0.00000000
0.00000000 0.00000000 0.00000000
0.23664463 0.02549789 0.19209204
0.46758386 0.00000000 0.15425838
0.84694246 0.03776725 0.00000000
1.00000000 0.23438189 0.11124186
1.00000000 0.23264893 0.10755502
1.00000000 0.23231647 0.10683783
1.00000000 0.23224768 0.10668903
0.00000000 0.00000000 0.00000000
0.00000000 0.00000000 0.00000000
0.23664463 0.02549789 0.19209204
0.46758386 0.00000000 0.15425838
0.84694246 0.03776725 0.00000000
1.00000000 0.23438189 0.11124186
1.00000000 0.23264893 0.10755502
1.00000000 0.23231647 0.10683783
1.00000000 0.23224768 0.10668903
0.02827542 0.19785653 0.18159062
0.02827542 0.19785653 0.18159062
0.18277579 0.18203442 0.17822241
0.44459970 0.11337938 0.14187355
0.83596056 0.07132171 0.00000000
1.00000000 0.23440694 0.11129454
1.00000000 0.23265033 0.10755803
1.00000000 0.23231655 0.10683802
1.00000000 0.23224768 0.10668904
0.06597744 0.33987183 0.10232790
0.06597744 0.33987183 0.10232790
0.06430104 0.33235813 0.09891652
0.36552792 0.36726230 0.10980284
0.80400300 0.32149478 0.00000000
1.00000000 0.23448582 0.11146029
1.00000000 0.23265461 0.10756724
1.00000000 0.23231681 0.10683858
1.00000000 0.23224770 0.10668907
0.21969569 0.69003817 0.14569344
0.21969569 0.69003817 0.14569344
0.21855582 0.68677159 0.14491192
0.21507213 0.67678287 0.14252470
0.67452941 0.67747094 0.00000000
1.00000000 0.40983078 0.11606181
1.00000000 0.23266926 0.10759878
1.00000000 0.23231768 0.10684046
1.00000000 0.23224776 0.10668919
0.33159561 0.96709775 0.23669028
0.33159561 0.96709775 0.23669028
0.33159747 0.96709973 0.23669141
0.33160317 0.96710578 0.23669487
0.33162278 0.96712659 0.23670675
0.98254254 0.98632144 0.20540348
1.00000000 0.36602345 0.11060760
1.00000000 0.23232065 0.10684688
1.00000000 0.23224794 0.10668959
0.33121382 0.96669219 0.23645870
0.33121382 0.96669219 0.23645870
0.33121392 0.96669230 0.23645876
0.33121423 0.96669263 0.23645895
0.33121527 0.96669373 0.23645958
0.33121882 0.96669751 0.23646173
0.98269363 0.98630415 0.20182527
1.00000000 0.37548303 0.11005226
1.00000000 0.23224857 0.10669096
0.33114268 0.96661657 0.23641553
0.33114268 0.96661657 0.23641553
0.33114269 0.96661657 0.23641553
0.33114271 0.96661659 0.23641554
0.33114277 0.96661666 0.23641558
0.33114297 0.96661688 0.23641571
0.33114368 0.96661763 0.23641613
0.98309227 0.98628684 0.20125943
1.00000000 0.38368511 0.11011821
0.33112820 0.96660117 0.23640674
0.33112820 0.96660117 0.23640674
0.33112820 0.96660117 0.23640674
0.33112820 0.96660118 0.23640674
0.33112821 0.96660118 0.23640675
0.33112822 0.96660119 0.23640675
0.33112826 0.96660124 0.23640678
0.33112841 0.96660140 0.23640687
0.98325101 0.98628037 0.20116694
0.00699908 0.00685784 0.28748400
0.00699908 0.00685784 0.28748400
0.15504896 0.00690286 0.28604368
0.45684299 0.00056576 0.37048808
0.84169667 0.00000000 0.31570853
1.00000000 0.14973178 0.11168519
1.00000000 0.22935311 0.10762332
1.00000000 0.23231651 0.10683792
1.00000000 0.23224768 0.10668903
0.00699908 0.00685784 0.28748400
0.00699908 0.00685784 0.28748400
0.15504896 0.00690286 0.28604368
0.45684299 0.00056576 0.37048808
0.84169667 0.00000000 0.31570853
1.00000000 0.14973178 0.11168519
1.00000000 0.22935311 0.10762332
1.00000000 0.23231651 0.10683792
1.00000000 0.23224768 0.10668903
0.00725403 0.10940556 0.27878048
0.00725403 0.10940556 0.27878048
0.10587463 0.09743743 0.28929478
0.43329568 0.00514916 0.36449148
0.83063074 0.00000000 0.30942649
1.00000000 0.15300088 0.11173850
1.00000000 0.22997393 0.10762553
1.00000000 0.23231659 0.10683811
1.00000000 0.23224769 0.10668904
0.01187597 0.37873563 0.34942272
0.01187597 0.37873563 0.34942272
0.01273225 0.37180706 0.34843732
0.34895343 0.34752155 0.34290436
0.79940969 0.25163332 0.28125813
1.00000000 0.16304762 0.11190609
1.00000000 0.23196141 0.10763209
1.00000000 0.23231686 0.10683867
1.00000000 0.23224770 0.10668908
0.14464004 0.68212781 0.24928071
0.14464004 0.68212781 0.24928071
0.14385134 0.67881561 0.24809495
0.14144178 0.66868448 0.24446107
0.66963574 0.67117486 0.24748172
1.00000000 0.40478544 0.17318547
1.00000000 0.23267000 0.10760036
1.00000000 0.23231773 0.10684055
1.00000000 0.23224776 0.10668920
0.33160012 0.96710254 0.23669302
0.33160012 0.96710254 0.23669302
0.33160201 0.96710455 0.23669416
0.33160781 0.96711070 0.23669768
0.33162774 0.96713186 0.23670976
0.98328063 0.98629355 0.20565395
1.00000000 0.36466339 0.11057256
1.00000000 0.23232070 0.10684698
1.00000000 0.23224794 0.10668960
0.33121407 0.96669245 0.23645885
0.33121407 0.96669245 0.23645885
0.33121417 0.96669256 0.23645891
0.33121448 0.96669289 0.23645910
0.33121552 0.96669400 0.23645973
0.33121909 0.96669779 0.23646190
0.98290577 0.98629609 0.20188732
1.00000000 0.37499196 0.11003853
1.00000000 0.23224857 0.10669096
0.33114270 0.96661658 0.23641554
0.33114270 0.96661658 0.23641554
0.33114270 0.96661659 0.23641554
0.33114272 0.96661661 0.23641555
0.33114278 0.96661668 0.23641559
0.33114299 0.96661689 0.23641571
0.33114369 0.96661764 0.23641614
0.98315427 0.98628448 0.20127701
1.00000000 0.38353742 0.11011395
0.33112820 0.96660118 0.23640674
0.33112820 0.96660118 0.23640674
0.33112820 0.96660118 0.23640674
0.33112821 0.96660118 0.23640674
0.33112821 0.96660118 0.23640675
0.33112822 0.96660119 0.23640675
0.33112827 0.96660124 0.23640678
0.33112841 0.96660140 0.23640687
0.98326957 0.98627966 0.20117217
0.00022316 0.00000000 0.65269367
0.00022316 0.00000000 0.65269367
0.06107581 0.00000000 0.65214521
0.41477182 0.00000000 0.68747953
0.82414539 0.00000000 0.68019487
1.00000000 0.11220451 0.35349081
1.00000000 0.17214767 0.10770973
1.00000000 0.22947910 0.10685583
1.00000000 0.23224769 0.10668905
0.00022316 0.00000000 0.65269367
0.00022316 0.00000000 0.65269367
0.06107581 0.00000000 0.65214521
0.41477182 0.00000000 0.68747953
0.82414539 0.00000000 0.68019487
1.00000000 0.11220451 0.35349081
1.00000000 0.17214767 0.10770973
1.00000000 0.22947910 0.10685583
1.00000000 0.23224769 0.10668905
0.00022277 0.00000000 0.64939485
0.00022277 0.00000000 0.64939485
0.00022270 0.00000000 0.64885468
0.36589911 0.00000000 0.64696537
0.81278945 0.00000000 0.67717624
1.00000000 0.11226325 0.35371505
1.00000000 0.17285575 0.10771213
1.00000000 0.22959099 0.10685584
1.00000000 0.23224769 0.10668906
0.00000000 0.29633871 0.63876413
0.00000000 0.29633871 0.63876413
0.00000000 0.28927360 0.63824038
0.27506182 0.26181365 0.64362875
0.78063278 0.14796600 0.66938095
1.00000000 0.11244811 0.35438459
1.00000000 0.17500287 0.10771948
1.00000000 0.22993297 0.10685588
1.00000000 0.23224771 0.10668910
0.00000000 0.68997765 0.64207823
0.00000000 0.68997765 0.64207823
0.00000000 0.68660235 0.64160105
0.00000000 0.67627778 0.64016002
0.64232269 0.63906042 0.63261019
1.00000000 0.33845774 0.36413380
1.00000000 0.18214967 0.10774463
1.00000000 0.23110995 0.10685593
1.00000000 0.23224777 0.10668922
0.24003257 0.96662018 0.35927622
0.24003257 0.96662018 0.35927622
0.24003756 0.96662189 0.35946962
0.24005280 0.96662715 0.36005814
0.24010454 0.96664540 0.36203887
0.98712540 0.98746898 0.43170024
1.00000000 0.36006081 0.15585492
1.00000000 0.23232085 0.10684730
1.00000000 0.23224795 0.10668962
0.33121489 0.96669332 0.23645935
0.33121489 0.96669332 0.23645935
0.33121499 0.96669344 0.23645941
0.33121531 0.96669377 0.23645960
0.33121636 0.96669489 0.23646024
0.33122000 0.96669876 0.23646245
0.98361135 0.98626925 0.20209371
1.00000000 0.37337032 0.10999335
1.00000000 0.23224858 0.10669098
0.33114275 0.96661664 0.23641557
0.33114275 0.96661664 0.23641557
0.33114275 0.96661664 0.23641557
0.33114277 0.96661666 0.23641558
0.33114283 0.96661673 0.23641562
0.33114304 0.96661695 0.23641575
0.33114375 0.96661770 0.23641618
0.98335902 0.98627669 0.20133504
1.00000000 0.38305065 0.11009989
0.33112821 0.96660118 0.23640674
0.33112821 0.96660118 0.23640674
0.33112821 0.96660118 0.23640674
0.33112821 0.96660118 0.23640675
0.33112821 0.96660118 0.23640675
0.33112823 0.96660120 0.23640676
0.33112827 0.96660124 0.23640678
0.33112842 0.96660140 0.23640687
0.98333074 0.98627733 0.20118939
0.00014476 0.00000000 0.97773310
0.00014476 0.00000000 0.97773310
0.00014485 0.00000000 0.97773352
0.18270138 0.00000000 0.97765201
0.57707327 0.00000000 0.97687310
1.00000000 0.11444119 0.78555277
1.00000000 0.10807643 0.30300506
1.00000000 0.18628775 0.10692105
1.00000000 0.22988529 0.10669583
0.00014476 0.00000000 0.97773310
0.00014476 0.00000000 0.97773310
0.00014485 0.00000000 0.97773352
0.18270138 0.00000000 0.97765201
0.57707327 0.00000000 0.97687310
1.00000000 0.11444119 0.78555277
1.00000000 0.10807643 0.30300506
1.00000000 0.18628775 0.10692105
1.00000000 0.22988529 0.10669583
0.00014534 0.00000000 0.97773569
0.00014534 0.00000000 0.97773569
0.00014543 0.00000000 0.97773612
0.14742736 0.00000000 0.97768111
0.56837785 0.00000000 0.97690407
1.00000000 0.11452528 0.78841807
1.00000000 0.10807940 0.30283972
1.00000000 0.18649742 0.10692097
1.00000000 0.22991524 0.10669579
0.00014711 0.00000000 0.97774363
0.00014711 0.00000000 0.97774363
0.00014721 0.00000000 0.97774406
0.00014750 0.00000000 0.97774538
0.54065208 0.00000000 0.97699881
1.00000000 0.11479028 0.79735921
1.00000000 0.10808849 0.30233703
1.00000000 0.18712860 0.10692075
1.00000000 0.23000572 0.10669568
0.00000000 0.45525010 0.97601834
0.00000000 0.45525010 0.97601834
0.00000000 0.45216337 0.97604427
0.00000000 0.44265784 0.97612276
0.36316714 0.33616227 1.00000000
1.00000000 0.25209194 0.82997912
1.00000000 0.10811972 0.30065097
1.00000000 0.18917861 0.10692005
1.00000000 0.23030296 0.10669531
0.09885068 0.99706734 0.91345539
0.09885068 0.99706734 0.91345539
0.09914025 0.99705123 0.91489256
0.10002337 0.99700185 0.91927873
0.10301761 0.99683148 0.93418479
1.00000000 1.00000000 1.00000000
1.00000000 0.28662481 0.30144591
1.00000000 0.19557643 0.10691828
1.00000000 0.23126969 0.10669412
0.23871659 0.96633163 0.29822900
0.23871659 0.96633163 0.29822900
0.23871720 0.96633167 0.29826396
0.23871908 0.96633179 0.29837061
0.23872544 0.96633215 0.29873281
0.23874857 0.96633320 0.30005522
0.98690173 0.98701917 0.37497919
1.00000000 0.36785274 0.14648968
1.00000000 0.23224861 0.10669105
0.33114291 0.96661681 0.23641567
0.33114291 0.96661681 0.23641567
0.33114292 0.96661682 0.23641567
0.33114293 0.96661684 0.23641568
0.33114300 0.96661690 0.23641572
0.33114321 0.96661713 0.23641585
0.33114393 0.96661789 0.23641628
0.98403983 0.98625075 0.20152803
1.00000000 0.38144280 0.11005361
0.33112822 0.96660119 0.23640675
0.33112822 0.96660119 0.23640675
0.33112822 0.96660119 0.23640675
0.33112822 0.96660119 0.23640675
0.33112822 0.96660120 0.23640675
0.33112824 0.96660121 0.23640676
0.33112828 0.96660126 0.23640679
0.33112843 0.96660141 0.23640688
0.98353273 0.98626963 0.20124628
0.00002687 0.00000000 0.97720328
0.00002687 0.00000000 0.97720328
0.00002687 0.00000000 0.97720330
0.00002689 0.00000000 0.97720337
0.15457127 0.00000000 0.97714221
0.52447125 0.00000000 0.97649924
1.00000000 0.11035223 0.79904900
1.00000000 0.10734839 0.32526285
1.00000000 0.17767049 0.10677207
0.00002687 0.00000000 0.97720328
0.00002687 0.00000000 0.97720328
0.00002687 0.00000000 0.97720330
0.00002689 0.00000000 0.97720337
0.15457127 0.00000000 0.97714221
0.52447125 0.00000000 0.97649924
1.00000000 0.11035223 0.79904900
1.00000000 0.10734839 0.32526285
1.00000000 0.17767049 0.10677207
0.00002690 0.00000000 0.97720342
0.00002690 0.00000000 0.97720342
0.00002691 0.00000000 0.97720344
0.00002692 0.00000000 0.97720351
0.14648756 0.00000000 0.97714788
0.52122071 0.00000000 0.97650884
1.00000000 0.11036209 0.79987452
1.00000000 0.10734847 0.32521293
1.00000000 0.17774911 0.10677199
0.00002700 0.00000000 0.97720385
0.00002700 0.00000000 0.97720385
0.00002700 0.00000000 0.97720387
0.00002702 0.00000000 0.97720394
0.11891227 0.00000000 0.97716493
0.51128419 0.00000000 0.97653772
1.00000000 0.11039225 0.80239338
1.00000000 0.10734872 0.32506156
1.00000000 0.17798659 0.10677173
0.00002731 0.00000000 0.97720527
0.00002731 0.00000000 0.97720527
0.00002732 0.00000000 0.97720530
0.00002733 0.00000000 0.97720537
0.00002738 0.00000000 0.97720561
0.47732911 0.00000000 0.97663120
1.00000000 0.11049564 0.81094785
1.00000000 0.10734956 0.32455802
1.00000000 0.17876692 0.10677087
0.00000000 0.38073046 0.97600370
0.00000000 0.38073046 0.97600370
0.00000000 0.37973826 0.97601032
0.00000000 0.37673521 0.97603024
0.00000000 0.36681039 0.97609469
0.25745689 0.22745072 1.00000000
1.00000000 0.22141818 0.84215345
1.00000000 0.10735247 0.32284229
1.00000000 0.18131836 0.10676806
0.09171054 0.99699020 0.92161904
0.09171054 0.99699020 0.92161904
0.09179106 0.99698543 0.92204096
0.09203516 0.99697094 0.92332020
0.09284654 0.99692253 0.92757549
0.09560392 0.99675521 0.94207132
1.00000000 0.99446192 0.99296241
1.00000000 0.29070659 0.32277677
1.00000000 0.18952330 0.10675877
0.23883889 0.96621601 0.30883594
0.23883889 0.96621601 0.30883594
0.23883890 0.96621602 0.30883633
0.23883893 0.96621604 0.30883753
0.23883904 0.96621610 0.30884152
0.23883940 0.96621633 0.30885526
0.23884073 0.96621708 0.30890744
0.98727071 0.98703098 0.37717958
1.00000000 0.37597977 0.14362285
0.33112825 0.96660123 0.23640677
0.33112825 0.96660123 0.23640677
0.33112825 0.96660123 0.23640677
0.33112825 0.96660123 0.23640677
0.33112826 0.96660123 0.23640677
0.33112827 0.96660125 0.23640678
0.33112831 0.96660129 0.23640681
0.33112847 0.96660145 0.23640690
0.98420430 0.98624403 0.20143542
0.00000541 0.00000000 0.97710631
0.00000541 0.00000000 0.97710631
0.00000541 0.00000000 0.97710631
0.00000542 0.00000000 0.97710631
0.00000542 0.00000000 0.97710632
0.12832357 0.00000000 0.97706181
0.53732511 0.00000000 0.97636285
1.00000000 0.10962296 0.81005531
1.00000000 0.10721898 0.33808398
0.00000541 0.00000000 0.97710631
0.00000541 0.00000000 0.97710631
0.00000541 0.00000000 0.97710631
0.00000542 0.00000000 0.97710631
0.00000542 0.00000000 0.97710632
0.12832357 0.00000000 0.97706181
0.53732511 0.00000000 0.97636285
1.00000000 0.10962296 0.81005531
1.00000000 0.10721898 0.33808398
0.00000542 0.00000000 0.97710631
0.00000542 0.00000000 0.97710631
0.00000542 0.00000000 0.97710631
0.00000542 0.00000000 0.97710632
0.00000542 0.00000000 0.97710633
0.12656479 0.00000000 0.97706284
0.53637077 0.00000000 0.97636573
1.00000000 0.10962509 0.81030264
1.00000000 0.10721896 0.33807090
0.00000542 0.00000000 0.97710634
0.00000542 0.00000000 0.97710634
0.00000542 0.00000000 0.97710634
0.00000542 0.00000000 0.97710634
0.00000543 0.00000000 0.97710636
0.12213992 0.00000000 0.97706537
0.53347518 0.00000000 0.97637443
1.00000000 0.10963156 0.81105227
1.00000000 0.10721890 0.33803133
0.00000544 0.00000000 0.97710642
0.00000544 0.00000000 0.97710642
0.00000544 0.00000000 0.97710642
0.00000544 0.00000000 0.97710643
0.00000544 0.00000000 0.97710644
0.09893570 0.00000000 0.97707719
0.52382041 0.00000000 0.97640301
1.00000000 0.10965309 0.81354308
1.00000000 0.10721869 0.33790063
0.00000550 0.00000000 0.97710670
0.00000550 0.00000000 0.97710670
0.00000550 0.00000000 0.97710670
0.00000550 0.00000000 0.97710670
0.00000551 0.00000000 0.97710672
0.00000552 0.00000000 0.97710676
0.49063030 0.00000000 0.97649627
1.00000000 0.10972681 0.82199584
1.00000000 0.10721800 0.33746576
0.00000000 0.39307240 0.97581559
0.00000000 0.39307240 0.97581559
0.00000000 0.39275357 0.97581780
0.00000000 0.39178860 0.97582448
0.00000000 0.38859705 0.97584642
0.00000000 0.37793098 0.97591814
0.27112044 0.23764020 1.00000000
1.00000000 0.20304670 0.85276081
1.00000000 0.10721568 0.33598330
0.09166962 0.99689436 0.93027871
0.09166962 0.99689436 0.93027871
0.09169307 0.99689294 0.93040310
0.09176398 0.99688862 0.93077941
0.09199813 0.99687436 0.93202225
0.09277625 0.99682673 0.93615525
0.09541845 0.99666235 0.95022090
0.99541105 0.98650649 0.99057401
1.00000000 0.30109426 0.33695436
0.23905508 0.96616040 0.32236725
0.23905508 0.96616040 0.32236725
0.23905509 0.96616040 0.32236796
0.23905513 0.96616040 0.32237009
0.23905525 0.96616038 0.32237711
0.23905566 0.96616033 0.32240032
0.23905701 0.96616016 0.32247775
0.23906167 0.96615959 0.32274407
0.98750427 0.98712286 0.38985172
0.00000114 0.00000000 0.97708694
0.00000114 0.00000000 0.97708694
0.00000114 0.00000000 0.97708694
0.00000114 0.00000000 0.97708694
0.00000114 0.00000000 0.97708695
0.00000114 0.00000000 0.97708695
0.13206158 0.00000000 0.97704018
0.54116346 0.00000000 0.97633162
1.00000000 0.10951250 0.81750850
0.00000114 0.00000000 0.97708694
0.00000114 0.00000000 0.97708694
0.00000114 0.00000000 0.97708694
0.00000114 0.00000000 0.97708694
0.00000114 0.00000000 0.97708695
0.00000114 0.00000000 0.97708695
0.13206158 0.00000000 0.97704018
0.54116346 0.00000000 0.97633162
1.00000000 0.10951250 0.81750850
0.00000114 0.00000000 0.97708694
0.00000114 0.00000000 0.97708694
0.00000114 0.00000000 0.97708694
0.00000114 0.00000000 0.97708694
0.00000114 0.00000000 0.97708695
0.00000114 0.00000000 0.97708695
0.13125297 0.00000000 0.97704066
0.54088205 0.00000000 0.97633247
1.00000000 0.10951310 0.81758357
0.00000114 0.00000000 0.97708695
0.00000114 0.00000000 0.97708695
0.00000114 0.00000000 0.97708695
0.00000114 0.00000000 0.97708695
0.00000114 0.00000000 0.97708695
0.00000114 0.00000000 0.97708695
0.12879131 0.00000000 0.97704212
0.54003049 0.00000000 0.97633506
1.00000000 0.10951491 0.81781068
0.00000114 0.00000000 0.97708695
0.00000114 0.00000000 0.97708695
0.00000114 0.00000000 0.97708695
0.00000114 0.00000000 0.97708695
0.00000114 0.00000000 0.97708695
0.00000114 0.00000000 0.97708696
0.12048981 0.00000000 0.97704683
0.53721603 0.00000000 0.97634357
1.00000000 0.10952092 0.81856055
0.00000114 0.00000000 0.97708697
0.00000114 0.00000000 0.97708697
0.00000114 0.00000000 0.97708697
0.00000114 0.00000000 0.97708697
0.00000114 0.00000000 0.97708697
0.00000114 0.00000000 0.97708697
0.09067811 0.00000000 0.97706131
0.52783312 0.00000000 0.97637155
1.00000000 0.10954093 0.82105188
0.00000115 0.00000000 0.97708703
0.00000115 0.00000000 0.97708703
0.00000115 0.00000000 0.97708703
0.00000115 0.00000000 0.97708703
0.00000115 0.00000000 0.97708703
0.00000115 0.00000000 0.97708703
0.00000116 0.00000000 0.97708704
0.49559238 0.00000000 0.97646294
1.00000000 0.10960939 0.82950381
0.00000000 0.40090883 0.97573982
0.00000000 0.40090883 0.97573982
0.00000000 0.40081488 0.97574049
0.00000000 0.40053083 0.97574251
0.00000000 0.39959422 0.97574915
0.00000000 0.39649645 0.97577096
0.00000000 0.38614318 0.97584235
0.28362667 0.25180566 1.00000000
1.00000000 0.21233761 0.86020576
0.09265639 0.99681377 0.93732259
0.09265639 0.99681377 0.93732259
0.09266342 0.99681334 0.93736007
0.09268469 0.99681203 0.93747337
0.09275478 0.99680770 0.93784679
0.09298622 0.99679339 0.93908001
0.09375523 0.99674563 0.94318048
0.09636560 0.99658088 0.95712907
0.98888257 0.98008410 0.99020439
