luts/S9_VLog_to_m9_ccd_day.cube
# Film Emulation LUT
# Generated by lutex.py
# Grid: 33³
TITLE "Panasonic S9 V-Log to Leica M9 CCD Day — S9 V-Log v1"
LUT_3D_SIZE 9
DOMAIN_MIN 0.0 0.0 0.0
DOMAIN_MAX 1.0 1.0 1.0
0.01034684 0.01114307 0.00888298
0.01034684 0.01114307 0.00888298
0.00000000 0.00000000 0.00000000
0.00000000 0.00099727 0.09080356
0.00000000 0.03466150 0.59838928
0.00000000 0.08341422 0.96097133
0.00000000 0.08322439 0.96081475
0.00000000 0.08319589 0.96079125
0.00000000 0.08319111 0.96078731
0.01034684 0.01114307 0.00888298
0.01034684 0.01114307 0.00888298
0.00000000 0.00000000 0.00000000
0.00000000 0.00099727 0.09080356
0.00000000 0.03466150 0.59838928
0.00000000 0.08341422 0.96097133
0.00000000 0.08322439 0.96081475
0.00000000 0.08319589 0.96079125
0.00000000 0.08319111 0.96078731
0.00000000 0.00000000 0.00000000
0.00000000 0.00000000 0.00000000
0.00000000 0.17611438 0.15316689
0.00000000 0.01139316 0.06063288
0.00000000 0.03419288 0.59464522
0.00000000 0.08341523 0.96097216
0.00000000 0.08322443 0.96081478
0.00000000 0.08319589 0.96079125
0.00000000 0.08319111 0.96078731
0.06751024 0.28838635 0.00000000
0.06751024 0.28838635 0.00000000
0.00000000 0.28143273 0.00411107
0.00000000 0.35636055 0.31989624
0.00000000 0.26405801 0.58216454
0.00000000 0.08341830 0.96097469
0.00000000 0.08322457 0.96081489
0.00000000 0.08319589 0.96079125
0.00000000 0.08319111 0.96078731
0.20514494 0.67661722 0.00000000
0.20514494 0.67661722 0.00000000
0.20414640 0.67380214 0.00000000
0.00000000 0.66529527 0.10095161
0.00000000 0.67428695 0.61836265
0.00000000 0.43085598 0.95782718
0.00000000 0.08322502 0.96081526
0.00000000 0.08319592 0.96079127
0.00000000 0.08319111 0.96078731
0.31222143 0.97880538 0.00000000
0.31222143 0.97880538 0.00000000
0.31222203 0.97880586 0.00000000
0.31222388 0.97880734 0.00000000
0.00000000 0.97887775 0.12018271
0.04128361 1.00000000 0.90633078
0.00000000 0.34453020 0.95890408
0.00000000 0.08319599 0.96079133
0.00000000 0.08319112 0.96078732
0.31207499 0.97868832 0.00000000
0.31207499 0.97868832 0.00000000
0.31207502 0.97868834 0.00000000
0.31207510 0.97868841 0.00000000
0.31207539 0.97868864 0.00000000
0.15508680 0.97871540 0.00000000
0.03692031 1.00000000 0.93039128
0.00000000 0.35297450 0.95877154
0.00000000 0.08319113 0.96078733
0.31205167 0.97866968 0.00000000
0.31205167 0.97866968 0.00000000
0.31205168 0.97866968 0.00000000
0.31205168 0.97866968 0.00000000
0.31205170 0.97866970 0.00000000
0.31205174 0.97866973 0.00000000
0.11734847 0.97869431 0.00000000
0.03662655 1.00000000 0.95362943
0.00000000 0.35528615 0.95873741
0.31204755 0.97866638 0.00000000
0.31204755 0.97866638 0.00000000
0.31204756 0.97866638 0.00000000
0.31204756 0.97866639 0.00000000
0.31204756 0.97866639 0.00000000
0.31204756 0.97866639 0.00000000
0.31204757 0.97866640 0.00000000
0.04408895 0.97869346 0.00000000
0.03694827 1.00000000 0.97532719
0.01034684 0.01114307 0.00888298
0.01034684 0.01114307 0.00888298
0.00000000 0.00000000 0.00000000
0.00000000 0.00099727 0.09080356
0.00000000 0.03466150 0.59838928
0.00000000 0.08341422 0.96097133
0.00000000 0.08322439 0.96081475
0.00000000 0.08319589 0.96079125
0.00000000 0.08319111 0.96078731
0.01034684 0.01114307 0.00888298
0.01034684 0.01114307 0.00888298
0.00000000 0.00000000 0.00000000
0.00000000 0.00099727 0.09080356
0.00000000 0.03466150 0.59838928
0.00000000 0.08341422 0.96097133
0.00000000 0.08322439 0.96081475
0.00000000 0.08319589 0.96079125
0.00000000 0.08319111 0.96078731
0.00000000 0.00000000 0.00000000
0.00000000 0.00000000 0.00000000
0.00000000 0.17611438 0.15316689
0.00000000 0.01139316 0.06063288
0.00000000 0.03419288 0.59464522
0.00000000 0.08341523 0.96097216
0.00000000 0.08322443 0.96081478
0.00000000 0.08319589 0.96079125
0.00000000 0.08319111 0.96078731
0.06751024 0.28838635 0.00000000
0.06751024 0.28838635 0.00000000
0.00000000 0.28143273 0.00411107
0.00000000 0.35636055 0.31989624
0.00000000 0.26405801 0.58216454
0.00000000 0.08341830 0.96097469
0.00000000 0.08322457 0.96081489
0.00000000 0.08319589 0.96079125
0.00000000 0.08319111 0.96078731
0.20514494 0.67661722 0.00000000
0.20514494 0.67661722 0.00000000
0.20414640 0.67380214 0.00000000
0.00000000 0.66529527 0.10095161
0.00000000 0.67428695 0.61836265
0.00000000 0.43085598 0.95782718
0.00000000 0.08322502 0.96081526
0.00000000 0.08319592 0.96079127
0.00000000 0.08319111 0.96078731
0.31222143 0.97880538 0.00000000
0.31222143 0.97880538 0.00000000
0.31222203 0.97880586 0.00000000
0.31222388 0.97880734 0.00000000
0.00000000 0.97887775 0.12018271
0.04128361 1.00000000 0.90633078
0.00000000 0.34453020 0.95890408
0.00000000 0.08319599 0.96079133
0.00000000 0.08319112 0.96078732
0.31207499 0.97868832 0.00000000
0.31207499 0.97868832 0.00000000
0.31207502 0.97868834 0.00000000
0.31207510 0.97868841 0.00000000
0.31207539 0.97868864 0.00000000
0.15508680 0.97871540 0.00000000
0.03692031 1.00000000 0.93039128
0.00000000 0.35297450 0.95877154
0.00000000 0.08319113 0.96078733
0.31205167 0.97866968 0.00000000
0.31205167 0.97866968 0.00000000
0.31205168 0.97866968 0.00000000
0.31205168 0.97866968 0.00000000
0.31205170 0.97866970 0.00000000
0.31205174 0.97866973 0.00000000
0.11734847 0.97869431 0.00000000
0.03662655 1.00000000 0.95362943
0.00000000 0.35528615 0.95873741
0.31204755 0.97866638 0.00000000
0.31204755 0.97866638 0.00000000
0.31204756 0.97866638 0.00000000
0.31204756 0.97866639 0.00000000
0.31204756 0.97866639 0.00000000
0.31204756 0.97866639 0.00000000
0.31204757 0.97866640 0.00000000
0.04408895 0.97869346 0.00000000
0.03694827 1.00000000 0.97532719
0.21588490 0.02689823 0.00000000
0.21588490 0.02689823 0.00000000
0.20955010 0.00000000 0.16270831
0.02899626 0.00000000 0.08672223
0.01279671 0.00000000 0.59780819
0.00000000 0.08341439 0.96097146
0.00000000 0.08322440 0.96081475
0.00000000 0.08319589 0.96079125
0.00000000 0.08319111 0.96078731
0.21588490 0.02689823 0.00000000
0.21588490 0.02689823 0.00000000
0.20955010 0.00000000 0.16270831
0.02899626 0.00000000 0.08672223
0.01279671 0.00000000 0.59780819
0.00000000 0.08341439 0.96097146
0.00000000 0.08322440 0.96081475
0.00000000 0.08319589 0.96079125
0.00000000 0.08319111 0.96078731
0.16756505 0.17302343 0.00000000
0.16756505 0.17302343 0.00000000
0.15597796 0.15939556 0.14869953
0.01691152 0.01605795 0.12986200
0.00000000 0.03411647 0.59403187
0.00000000 0.08341539 0.96097229
0.00000000 0.08322444 0.96081479
0.00000000 0.08319589 0.96079125
0.00000000 0.08319111 0.96078731
0.06430694 0.27935197 0.00000000
0.06430694 0.27935197 0.00000000
0.00000000 0.27215400 0.00300129
0.00000000 0.34947596 0.31892016
0.00000000 0.25715362 0.58159208
0.00000000 0.08341847 0.96097483
0.00000000 0.08322457 0.96081490
0.00000000 0.08319590 0.96079125
0.00000000 0.08319111 0.96078731
0.20389412 0.67309093 0.00000000
0.20389412 0.67309093 0.00000000
0.20288975 0.67025939 0.00000000
0.00000000 0.66170209 0.10042084
0.00000000 0.67078587 0.61786683
0.00000000 0.42793162 0.95787527
0.00000000 0.08322502 0.96081527
0.00000000 0.08319592 0.96079127
0.00000000 0.08319111 0.96078731
0.31222218 0.97880599 0.00000000
0.31222218 0.97880599 0.00000000
0.31222279 0.97880647 0.00000000
0.31222466 0.97880796 0.00000000
0.00000000 0.97887859 0.12085654
0.04134067 1.00000000 0.90791924
0.00000000 0.34361284 0.95891553
0.00000000 0.08319599 0.96079133
0.00000000 0.08319112 0.96078732
0.31207503 0.97868835 0.00000000
0.31207503 0.97868835 0.00000000
0.31207505 0.97868837 0.00000000
0.31207514 0.97868844 0.00000000
0.31207542 0.97868867 0.00000000
0.15502070 0.97871544 0.00000000
0.03693103 1.00000000 0.93086107
0.00000000 0.35268092 0.95877531
0.00000000 0.08319113 0.96078733
0.31205168 0.97866968 0.00000000
0.31205168 0.97866968 0.00000000
0.31205168 0.97866968 0.00000000
0.31205168 0.97866969 0.00000000
0.31205170 0.97866970 0.00000000
0.31205175 0.97866974 0.00000000
0.11735075 0.97869431 0.00000000
0.03662953 1.00000000 0.95376974
0.00000000 0.35520089 0.95873852
0.31204756 0.97866638 0.00000000
0.31204756 0.97866638 0.00000000
0.31204756 0.97866639 0.00000000
0.31204756 0.97866639 0.00000000
0.31204756 0.97866639 0.00000000
0.31204756 0.97866639 0.00000000
0.31204757 0.97866640 0.00000000
0.04408615 0.97869346 0.00000000
0.03694919 1.00000000 0.97537010
0.44414872 0.08943943 0.00000000
0.44414872 0.08943943 0.00000000
0.44080328 0.00000000 0.11268687
0.42989841 0.00000000 0.34149206
0.34117243 0.00000000 0.59544453
0.11720339 0.00000000 0.96085612
0.00000000 0.08322442 0.96081477
0.00000000 0.08319589 0.96079125
0.00000000 0.08319111 0.96078731
0.44414872 0.08943943 0.00000000
0.44414872 0.08943943 0.00000000
0.44080328 0.00000000 0.11268687
0.42989841 0.00000000 0.34149206
0.34117243 0.00000000 0.59544453
0.11720339 0.00000000 0.96085612
0.00000000 0.08322442 0.96081477
0.00000000 0.08319589 0.96079125
0.00000000 0.08319111 0.96078731
0.42135901 0.15388561 0.00000000
0.42135901 0.15388561 0.00000000
0.42385940 0.06456112 0.06897315
0.40748098 0.00000000 0.33587529
0.31660285 0.00000000 0.59175889
0.07061832 0.00000000 0.96090009
0.00000000 0.08322446 0.96081481
0.00000000 0.08319589 0.96079125
0.00000000 0.08319111 0.96078731
0.34339880 0.35058990 0.00000000
0.34339880 0.35058990 0.00000000
0.34328460 0.34980819 0.06354358
0.32345736 0.32675943 0.31405168
0.18968462 0.18655948 0.60302273
0.00000000 0.08341898 0.96097525
0.00000000 0.08322460 0.96081492
0.00000000 0.08319590 0.96079126
0.00000000 0.08319111 0.96078731
0.20006856 0.66230576 0.00000000
0.20006856 0.66230576 0.00000000
0.19904597 0.65942277 0.00000000
0.00000000 0.65070766 0.09877696
0.00000000 0.66008105 0.61636563
0.00000000 0.41894013 0.95802055
0.00000000 0.08322505 0.96081529
0.00000000 0.08319592 0.96079127
0.00000000 0.08319111 0.96078731
0.31222451 0.97880785 0.00000000
0.31222451 0.97880785 0.00000000
0.31222513 0.97880834 0.00000000
0.31222704 0.97880987 0.00000000
0.00000000 0.97888119 0.12288886
0.04151549 1.00000000 0.91276985
0.00000000 0.34084012 0.95894991
0.00000000 0.08319599 0.96079133
0.00000000 0.08319112 0.96078732
0.31207513 0.97868844 0.00000000
0.31207513 0.97868844 0.00000000
0.31207516 0.97868846 0.00000000
0.31207525 0.97868853 0.00000000
0.31207553 0.97868876 0.00000000
0.15481851 0.97871558 0.00000000
0.03696360 1.00000000 0.93228570
0.00000000 0.35179261 0.95878672
0.00000000 0.08319113 0.96078733
0.31205168 0.97866969 0.00000000
0.31205168 0.97866969 0.00000000
0.31205168 0.97866969 0.00000000
0.31205169 0.97866969 0.00000000
0.31205170 0.97866970 0.00000000
0.31205175 0.97866974 0.00000000
0.11735766 0.97869431 0.00000000
0.03663853 1.00000000 0.95419421
0.00000000 0.35494309 0.95874186
0.31204756 0.97866639 0.00000000
0.31204756 0.97866639 0.00000000
0.31204756 0.97866639 0.00000000
0.31204756 0.97866639 0.00000000
0.31204756 0.97866639 0.00000000
0.31204756 0.97866639 0.00000000
0.31204757 0.97866640 0.00000000
0.04407770 0.97869346 0.00000000
0.03695197 1.00000000 0.97549984
0.83709386 0.20157556 0.00000000
0.83709386 0.20157556 0.00000000
0.83634377 0.14399621 0.00000000
0.83081533 0.00000000 0.26098280
0.81237056 0.00000000 0.66004365
0.53066732 0.00000000 0.95940778
0.07112570 0.00000000 0.96073049
0.00000000 0.08319589 0.96079125
0.00000000 0.08319111 0.96078731
0.83709386 0.20157556 0.00000000
0.83709386 0.20157556 0.00000000
0.83634377 0.14399621 0.00000000
0.83081533 0.00000000 0.26098280
0.81237056 0.00000000 0.66004365
0.53066732 0.00000000 0.95940778
0.07112570 0.00000000 0.96073049
0.00000000 0.08319589 0.96079125
0.00000000 0.08319111 0.96078731
0.82646154 0.19853253 0.00000000
0.82646154 0.19853253 0.00000000
0.82469819 0.15261491 0.00000000
0.81908494 0.00000000 0.25494008
0.80034816 0.00000000 0.65687552
0.52187619 0.00000000 0.95946324
0.05911835 0.00000000 0.96073874
0.00000000 0.08319589 0.96079125
0.00000000 0.08319111 0.96078731
0.79071060 0.33145113 0.00000000
0.79071060 0.33145113 0.00000000
0.79067694 0.32147743 0.00000000
0.79497124 0.18956530 0.18493135
0.77535923 0.00515213 0.65252000
0.49384853 0.00000000 0.95963232
0.01215544 0.00000000 0.96076319
0.00000000 0.08319590 0.96079126
0.00000000 0.08319111 0.96078731
0.65880966 0.66412521 0.00000000
0.65880966 0.66412521 0.00000000
0.65639929 0.66128690 0.00000000
0.65873046 0.66245760 0.18670898
0.62449440 0.62301704 0.60900739
0.21967450 0.20472960 1.00000000
0.00000000 0.08322512 0.96081535
0.00000000 0.08319592 0.96079128
0.00000000 0.08319112 0.96078731
0.31223253 0.97881426 0.00000000
0.31223253 0.97881426 0.00000000
0.31223320 0.97881479 0.00000000
0.31223525 0.97881643 0.00000000
0.00000000 0.97889014 0.12954046
0.04211726 1.00000000 0.92928420
0.00000000 0.33171948 0.95906063
0.00000000 0.08319599 0.96079134
0.00000000 0.08319112 0.96078732
0.31207549 0.97868872 0.00000000
0.31207549 0.97868872 0.00000000
0.31207552 0.97868874 0.00000000
0.31207561 0.97868881 0.00000000
0.31207590 0.97868905 0.00000000
0.15412643 0.97871601 0.00000000
0.03707248 1.00000000 0.93702710
0.00000000 0.34885725 0.95882416
0.00000000 0.08319113 0.96078733
0.31205170 0.97866970 0.00000000
0.31205170 0.97866970 0.00000000
0.31205170 0.97866970 0.00000000
0.31205171 0.97866970 0.00000000
0.31205172 0.97866972 0.00000000
0.31205177 0.97866976 0.00000000
0.11738034 0.97869433 0.00000000
0.03666831 1.00000000 0.95559631
0.00000000 0.35409330 0.95875286
0.31204756 0.97866639 0.00000000
0.31204756 0.97866639 0.00000000
0.31204756 0.97866639 0.00000000
0.31204756 0.97866639 0.00000000
0.31204756 0.97866639 0.00000000
0.31204756 0.97866639 0.00000000
0.31204757 0.97866640 0.00000000
0.04404979 0.97869346 0.00000000
0.03696114 1.00000000 0.97592743
1.00000000 0.27787536 0.11983876
1.00000000 0.27787536 0.11983876
1.00000000 0.27787640 0.11984092
1.00000000 0.23268488 0.12033256
1.00000000 0.12138043 0.28404062
1.00000000 0.12671470 0.76678891
0.46603351 0.00000000 0.95961163
0.01784052 0.00000000 0.96073500
0.00000000 0.08319111 0.96078731
1.00000000 0.27787536 0.11983876
1.00000000 0.27787536 0.11983876
1.00000000 0.27787640 0.11984092
1.00000000 0.23268488 0.12033256
1.00000000 0.12138043 0.28404062
1.00000000 0.12671470 0.76678891
0.46603351 0.00000000 0.95961163
0.01784052 0.00000000 0.96073500
0.00000000 0.08319111 0.96078731
1.00000000 0.27788193 0.11985244
1.00000000 0.27788193 0.11985244
1.00000000 0.27788299 0.11985465
1.00000000 0.23457289 0.12034104
1.00000000 0.12139990 0.28437852
1.00000000 0.12679211 0.76985598
0.46264917 0.00000000 0.95962962
0.01507071 0.00000000 0.96073636
0.00000000 0.08319111 0.96078731
1.00000000 0.27790267 0.11989563
1.00000000 0.27790267 0.11989563
1.00000000 0.27790381 0.11989799
1.00000000 0.23977054 0.12037092
1.00000000 0.12146113 0.28539635
1.00000000 0.12703647 0.77943778
0.45230723 0.00000000 0.95968361
0.00864967 0.00000000 0.96073949
0.00000000 0.08319111 0.96078731
1.00000000 0.41512978 0.12940885
1.00000000 0.41512978 0.12940885
1.00000000 0.41376686 0.12929980
1.00000000 0.40933117 0.16788663
1.00000000 0.33337890 0.31789024
1.00000000 0.23986382 0.81435792
0.41700577 0.00000000 0.95985656
0.00000000 0.02357983 0.96075522
0.00000000 0.08319112 0.96078731
1.00000000 0.99762499 0.10048326
1.00000000 0.99762499 0.10048326
1.00000000 0.99735282 0.10451487
1.00000000 0.99652521 0.11602493
1.00000000 0.99368030 0.38630092
1.00000000 0.99949438 0.99903754
0.01455626 0.00000000 0.99225000
0.00000000 0.08319601 0.96079135
0.00000000 0.08319112 0.96078732
0.31207672 0.97868971 0.00000000
0.31207672 0.97868971 0.00000000
0.31207675 0.97868973 0.00000000
0.31207685 0.97868981 0.00000000
0.31207716 0.97869006 0.00000000
0.15153039 0.97871754 0.00000000
0.03744969 1.00000000 0.95320776
0.00000000 0.33907740 0.95894614
0.00000000 0.08319113 0.96078733
0.31205176 0.97866975 0.00000000
0.31205176 0.97866975 0.00000000
0.31205176 0.97866975 0.00000000
0.31205177 0.97866975 0.00000000
0.31205178 0.97866977 0.00000000
0.31205183 0.97866981 0.00000000
0.11745421 0.97869439 0.00000000
0.03676780 1.00000000 0.96026109
0.00000000 0.35128512 0.95878897
0.31204756 0.97866639 0.00000000
0.31204756 0.97866639 0.00000000
0.31204756 0.97866639 0.00000000
0.31204756 0.97866639 0.00000000
0.31204756 0.97866639 0.00000000
0.31204756 0.97866639 0.00000000
0.31204757 0.97866640 0.00000000
0.04395735 0.97869347 0.00000000
0.03699148 1.00000000 0.97733978
1.00000000 0.27745148 0.11895375
1.00000000 0.27745148 0.11895375
1.00000000 0.27745153 0.11895385
1.00000000 0.27595203 0.11900449
1.00000000 0.24674485 0.11916013
1.00000000 0.11994417 0.21974395
1.00000000 0.12600380 0.78908923
0.47749557 0.00000000 0.95952396
0.02305880 0.00000000 0.96072823
1.00000000 0.27745148 0.11895375
1.00000000 0.27745148 0.11895375
1.00000000 0.27745153 0.11895385
1.00000000 0.27595203 0.11900449
1.00000000 0.24674485 0.11916013
1.00000000 0.11994417 0.21974395
1.00000000 0.12600380 0.78908923
0.47749557 0.00000000 0.95952396
0.02305880 0.00000000 0.96072823
1.00000000 0.27745179 0.11895438
1.00000000 0.27745179 0.11895438
1.00000000 0.27745184 0.11895449
1.00000000 0.27623885 0.11900368
1.00000000 0.24708790 0.11915923
1.00000000 0.11994401 0.21951463
1.00000000 0.12602233 0.78997648
0.47651380 0.00000000 0.95952935
0.02166910 0.00000000 0.96072891
1.00000000 0.27745272 0.11895634
1.00000000 0.27745272 0.11895634
1.00000000 0.27745277 0.11895645
1.00000000 0.27711355 0.11900118
1.00000000 0.24813267 0.11915651
1.00000000 0.11994354 0.21881709
1.00000000 0.12607904 0.79268430
0.47353530 0.00000000 0.95954563
0.01749904 0.00000000 0.96073094
1.00000000 0.27745593 0.11896306
1.00000000 0.27745593 0.11896306
1.00000000 0.27745599 0.11896318
1.00000000 0.27745615 0.11896351
1.00000000 0.25165670 0.11914729
1.00000000 0.11994224 0.21647357
1.00000000 0.12627354 0.80188740
0.46360757 0.00000000 0.95959893
0.00410017 0.00000000 0.96073747
1.00000000 0.37011871 0.12492206
1.00000000 0.37011871 0.12492206
1.00000000 0.36975315 0.12489529
1.00000000 0.36865325 0.12481491
1.00000000 0.36488791 0.15300242
1.00000000 0.29470322 0.26033579
1.00000000 0.20759941 0.83542511
0.42951389 0.00000000 0.95977135
0.00000000 0.03596565 0.96075700
1.00000000 0.98964601 0.18669722
1.00000000 0.98964601 0.18669722
1.00000000 0.98957139 0.18734371
1.00000000 0.98934540 0.18928987
1.00000000 0.98859619 0.19561905
1.00000000 0.98609217 0.35539783
0.99825257 0.97397337 0.98443308
0.05580485 0.00000000 0.99297035
0.00000000 0.08319113 0.96078733
0.31205197 0.97866992 0.00000000
0.31205197 0.97866992 0.00000000
0.31205198 0.97866992 0.00000000
0.31205198 0.97866992 0.00000000
0.31205200 0.97866994 0.00000000
0.31205205 0.97866998 0.00000000
0.11768804 0.97869460 0.00000000
0.03711183 1.00000000 0.97616176
0.00000000 0.34192785 0.95890677
0.31204757 0.97866640 0.00000000
0.31204757 0.97866640 0.00000000
0.31204757 0.97866640 0.00000000
0.31204757 0.97866640 0.00000000
0.31204757 0.97866640 0.00000000
0.31204757 0.97866640 0.00000000
0.31204758 0.97866641 0.00000000
0.04364665 0.97869349 0.00000000
0.03709282 1.00000000 0.98203801
1.00000000 0.27738302 0.11881036
1.00000000 0.27738302 0.11881036
1.00000000 0.27738302 0.11881037
1.00000000 0.27738303 0.11881039
1.00000000 0.27616240 0.11882481
1.00000000 0.25472216 0.11894057
1.00000000 0.11992217 0.25372488
1.00000000 0.12617569 0.80673459
0.47760877 0.00000000 0.95951905
1.00000000 0.27738302 0.11881036
1.00000000 0.27738302 0.11881036
1.00000000 0.27738302 0.11881037
1.00000000 0.27738303 0.11881039
1.00000000 0.27616240 0.11882481
1.00000000 0.25472216 0.11894057
1.00000000 0.11992217 0.25372488
1.00000000 0.12617569 0.80673459
0.47760877 0.00000000 0.95951905
1.00000000 0.27738304 0.11881040
1.00000000 0.27738304 0.11881040
1.00000000 0.27738304 0.11881040
1.00000000 0.27738305 0.11881042
1.00000000 0.27622120 0.11882452
1.00000000 0.25482960 0.11894006
1.00000000 0.11992190 0.25366149
1.00000000 0.12618122 0.80700268
0.47732136 0.00000000 0.95952063
1.00000000 0.27738309 0.11881050
1.00000000 0.27738309 0.11881050
1.00000000 0.27738309 0.11881050
1.00000000 0.27738310 0.11881052
1.00000000 0.27638529 0.11882372
1.00000000 0.25515305 0.11893853
1.00000000 0.11992106 0.25346928
1.00000000 0.12619799 0.80781531
0.47645169 0.00000000 0.95952541
1.00000000 0.27738325 0.11881084
1.00000000 0.27738325 0.11881084
1.00000000 0.27738325 0.11881084
1.00000000 0.27738326 0.11881086
1.00000000 0.27690016 0.11882123
1.00000000 0.25620375 0.11893354
1.00000000 0.11991827 0.25282963
1.00000000 0.12625388 0.81051597
0.47357773 0.00000000 0.95954110
1.00000000 0.27738380 0.11881200
1.00000000 0.27738380 0.11881200
1.00000000 0.27738381 0.11881201
1.00000000 0.27738381 0.11881203
1.00000000 0.27738384 0.11881208
1.00000000 0.25947439 0.11891797
1.00000000 0.11990883 0.25064742
1.00000000 0.12644537 0.81968675
0.46400033 0.00000000 0.95959254
1.00000000 0.37753541 0.12531478
1.00000000 0.37753541 0.12531478
1.00000000 0.37740107 0.12530468
1.00000000 0.37699485 0.12527416
1.00000000 0.37565529 0.12517378
1.00000000 0.37107842 0.14606968
1.00000000 0.27400015 0.26344966
1.00000000 0.18985590 0.85304775
0.43113213 0.00000000 0.95975918
1.00000000 0.98254377 0.21884584
1.00000000 0.98254377 0.21884584
1.00000000 0.98252236 0.21884141
1.00000000 0.98245759 0.21882801
1.00000000 0.98224372 0.21878375
1.00000000 0.98153290 0.21863670
1.00000000 0.97918317 0.36149226
0.98367013 0.95309341 0.98493501
0.06917641 0.00000000 0.99396503
0.31204761 0.97866643 0.00000000
0.31204761 0.97866643 0.00000000
0.31204761 0.97866643 0.00000000
0.31204761 0.97866643 0.00000000
0.31204761 0.97866643 0.00000000
0.31204761 0.97866643 0.00000000
0.31204762 0.97866644 0.00000000
0.04255124 0.97869356 0.00000000
0.00000000 0.98831457 0.98677488
1.00000000 0.27737091 0.11878499
1.00000000 0.27737091 0.11878499
1.00000000 0.27737091 0.11878499
1.00000000 0.27737091 0.11878499
1.00000000 0.27737091 0.11878499
1.00000000 0.27641766 0.11879177
1.00000000 0.24955710 0.11893505
1.00000000 0.11998897 0.27245288
1.00000000 0.12642531 0.82038323
1.00000000 0.27737091 0.11878499
1.00000000 0.27737091 0.11878499
1.00000000 0.27737091 0.11878499
1.00000000 0.27737091 0.11878499
1.00000000 0.27737091 0.11878499
1.00000000 0.27641766 0.11879177
1.00000000 0.24955710 0.11893505
1.00000000 0.11998897 0.27245288
1.00000000 0.12642531 0.82038323
1.00000000 0.27737091 0.11878499
1.00000000 0.27737091 0.11878499
1.00000000 0.27737091 0.11878499
1.00000000 0.27737091 0.11878499
1.00000000 0.27737091 0.11878499
1.00000000 0.27643056 0.11879170
1.00000000 0.24959783 0.11893485
1.00000000 0.11998889 0.27243663
1.00000000 0.12642703 0.82046528
1.00000000 0.27737092 0.11878500
1.00000000 0.27737092 0.11878500
1.00000000 0.27737092 0.11878500
1.00000000 0.27737092 0.11878500
1.00000000 0.27737092 0.11878500
1.00000000 0.27646945 0.11879149
1.00000000 0.24972090 0.11893424
1.00000000 0.11998862 0.27238748
1.00000000 0.12643222 0.82071351
1.00000000 0.27737092 0.11878501
1.00000000 0.27737092 0.11878501
1.00000000 0.27737092 0.11878501
1.00000000 0.27737092 0.11878502
1.00000000 0.27737093 0.11878502
1.00000000 0.27659643 0.11879079
1.00000000 0.25012566 0.11893223
1.00000000 0.11998776 0.27222510
1.00000000 0.12644937 0.82153316
1.00000000 0.27737095 0.11878508
1.00000000 0.27737095 0.11878508
1.00000000 0.27737095 0.11878508
1.00000000 0.27737095 0.11878508
1.00000000 0.27737096 0.11878508
1.00000000 0.27699857 0.11878859
1.00000000 0.25145310 0.11892561
1.00000000 0.11998488 0.27168483
1.00000000 0.12650652 0.82425685
1.00000000 0.27737105 0.11878529
1.00000000 0.27737105 0.11878529
1.00000000 0.27737105 0.11878529
1.00000000 0.27737106 0.11878529
1.00000000 0.27737106 0.11878529
1.00000000 0.27737106 0.11878530
1.00000000 0.25575708 0.11890387
1.00000000 0.11997511 0.26984248
1.00000000 0.12670222 0.83350295
1.00000000 0.38302375 0.12570289
1.00000000 0.38302375 0.12570289
1.00000000 0.38298351 0.12569982
1.00000000 0.38286189 0.12569053
1.00000000 0.38246116 0.12565996
1.00000000 0.38113930 0.12555934
1.00000000 0.37663319 0.14438299
1.00000000 0.27175630 0.27267525
1.00000000 0.19737437 0.86704720
1.00000000 0.97578566 0.21742131
1.00000000 0.97578566 0.21742131
1.00000000 0.97577929 0.21741999
1.00000000 0.97576003 0.21741601
1.00000000 0.97569656 0.21740290
1.00000000 0.97548700 0.21735962
1.00000000 0.97479057 0.21721582
1.00000000 0.97254629 0.37529742
0.96922333 0.93239557 0.98572365
