luts/S9_VLog_to_m9_ccd_strong.cube
# Film Emulation LUT
# Generated by lutex.py
# Grid: 33³
TITLE "Panasonic S9 V-Log to Leica M9 CCD Strong — S9 V-Log v1"
LUT_3D_SIZE 5
DOMAIN_MIN 0.0 0.0 0.0
DOMAIN_MAX 1.0 1.0 1.0
0.00000000 0.00000000 0.00000000
0.00000000 0.00000000 0.00000000
0.00000000 0.02632467 0.52905085
0.00000000 0.08081165 0.94321585
0.00000000 0.08079942 0.94321199
0.00000000 0.00000000 0.00000000
0.00000000 0.14819767 0.12127954
0.00000000 0.02584755 0.52458650
0.00000000 0.08081167 0.94321585
0.00000000 0.08079942 0.94321199
0.22464124 0.62925959 0.00000000
0.22336322 0.62613067 0.00000000
0.00000000 0.65762910 0.59414727
0.00000000 0.08081191 0.94321593
0.00000000 0.08079943 0.94321199
0.36021552 0.96134591 0.00000000
0.36021553 0.96134592 0.00000000
0.36021560 0.96134596 0.00000000
0.06683179 1.00000000 0.93574632
0.00000000 0.08079943 0.94321199
0.36021034 0.96134287 0.00000000
0.36021034 0.96134287 0.00000000
0.36021034 0.96134287 0.00000000
0.36021035 0.96134287 0.00000000
0.00000000 0.94545020 0.98089726
0.18376705 0.02830824 0.00000000
0.17718522 0.00000000 0.13133745
0.00000000 0.00106043 0.52833289
0.00000000 0.08081165 0.94321585
0.00000000 0.08079942 0.94321199
0.13596322 0.14534635 0.00000000
0.00000000 0.00000000 0.00000000
0.00000000 0.02576979 0.52385437
0.00000000 0.08081167 0.94321586
0.00000000 0.08079943 0.94321199
0.22304023 0.62533990 0.00000000
0.22175385 0.62219048 0.00000000
0.00000000 0.65399688 0.59366065
0.00000000 0.08081192 0.94321593
0.00000000 0.08079943 0.94321199
0.36021553 0.96134592 0.00000000
0.36021553 0.96134592 0.00000000
0.36021561 0.96134597 0.00000000
0.06684729 1.00000000 0.93627593
0.00000000 0.08079943 0.94321199
0.36021034 0.96134287 0.00000000
0.36021034 0.96134287 0.00000000
0.36021034 0.96134287 0.00000000
0.36021035 0.96134287 0.00000000
0.00000000 0.94540065 0.98089919
0.82033025 0.24265760 0.00000000
0.81959093 0.21365404 0.00000000
0.79819342 0.00000000 0.63966635
0.00396822 0.00000000 0.94312202
0.00000000 0.08079943 0.94321199
0.81296714 0.24015744 0.00000000
0.81103792 0.21687002 0.00000000
0.78544093 0.00000000 0.63637590
0.00000000 0.00598099 0.94313161
0.00000000 0.08079943 0.94321199
0.63848711 0.64701849 0.00000000
0.63594135 0.64407840 0.00000000
0.60339717 0.60574938 0.58383582
0.00000000 0.08081196 0.94321595
0.00000000 0.08079943 0.94321199
0.36021563 0.96134598 0.00000000
0.36021563 0.96134598 0.00000000
0.36021571 0.96134603 0.00000000
0.06705162 1.00000000 0.94323051
0.00000000 0.08079943 0.94321199
0.36021034 0.96134287 0.00000000
0.36021034 0.96134287 0.00000000
0.36021034 0.96134287 0.00000000
0.36021035 0.96134287 0.00000000
0.00000000 0.94475756 0.98092420
1.00000000 0.32517125 0.11347500
1.00000000 0.32517126 0.11347502
1.00000000 0.31118967 0.11368228
1.00000000 0.12715191 0.77418681
0.00000000 0.03801760 0.94315779
1.00000000 0.32517129 0.11347510
1.00000000 0.32517130 0.11347512
1.00000000 0.31134827 0.11368028
1.00000000 0.12719019 0.77517186
0.00000000 0.03875895 0.94315850
1.00000000 0.32517190 0.11347643
1.00000000 0.32517190 0.11347645
1.00000000 0.31346797 0.11365338
1.00000000 0.12771007 0.78841021
0.00000000 0.04752498 0.94316743
1.00000000 0.97362543 0.27192304
1.00000000 0.97354983 0.27190068
1.00000000 0.97255836 0.27160755
0.99454312 0.94940682 0.97641115
0.00000000 0.08079943 0.94321199
0.36021035 0.96134287 0.00000000
0.36021035 0.96134287 0.00000000
0.36021035 0.96134287 0.00000000
0.36021035 0.96134288 0.00000000
0.00000000 0.93775454 0.98119511
1.00000000 0.32516089 0.11345210
1.00000000 0.32516089 0.11345210
1.00000000 0.32516089 0.11345210
1.00000000 0.31283560 0.11362501
1.00000000 0.12902772 0.82190286
1.00000000 0.32516089 0.11345210
1.00000000 0.32516089 0.11345210
1.00000000 0.32516089 0.11345210
1.00000000 0.31285568 0.11362473
1.00000000 0.12903156 0.82199586
1.00000000 0.32516089 0.11345210
1.00000000 0.32516089 0.11345210
1.00000000 0.32516089 0.11345210
1.00000000 0.31311582 0.11362117
1.00000000 0.12908167 0.82320628
1.00000000 0.32516090 0.11345213
1.00000000 0.32516090 0.11345213
1.00000000 0.32516090 0.11345213
1.00000000 0.31586717 0.11358334
1.00000000 0.12964945 0.83678655
1.00000000 0.94477332 0.26342959
1.00000000 0.94476690 0.26342772
1.00000000 0.94468354 0.26340342
1.00000000 0.94377035 0.26313735
0.94411284 0.87058009 0.98448608
