luts/S9_VLog_to_hassy_blue.cube
# Film Emulation LUT
# Generated by lutex.py
# Grid: 33³
TITLE "Panasonic S9 V-Log to Hasselblad HNCS (Natural Color)"
LUT_3D_SIZE 9
DOMAIN_MIN 0.0 0.0 0.0
DOMAIN_MAX 1.0 1.0 1.0
0.00000000 0.00000000 0.00000000
0.00000000 0.00000000 0.00000000
0.00000000 0.00000000 0.00000000
0.00000000 0.00000000 0.00000000
0.00000000 0.00000000 0.00000000
0.00000000 0.00000000 0.00000000
0.00000000 0.00000000 0.00000000
0.00000000 0.00000000 0.25434311
0.00000000 0.00000000 0.74230299
0.00000000 0.00000000 0.00000000
0.00000000 0.00000000 0.00000000
0.00000000 0.00000000 0.00000000
0.00000000 0.00000000 0.00000000
0.00000000 0.00000000 0.00000000
0.00000000 0.00000000 0.00000000
0.00000000 0.00000000 0.00000000
0.00000000 0.00000000 0.25434311
0.00000000 0.00000000 0.74230299
0.00000000 0.00000000 0.00000000
0.00000000 0.00000000 0.00000000
0.00000000 0.00000000 0.00000000
0.00000000 0.00000000 0.00000000
0.00000000 0.00000000 0.00000000
0.00000000 0.00000000 0.00000000
0.00000000 0.00000000 0.00000000
0.00000000 0.00000000 0.25434311
0.00000000 0.00000000 0.74230299
0.00000000 0.00000000 0.00000000
0.00000000 0.00000000 0.00000000
0.00000000 0.00000000 0.00000000
0.00000000 0.00000000 0.00000000
0.00000000 0.00000000 0.00000000
0.00000000 0.00000000 0.00000000
0.00000000 0.00000000 0.00000000
0.00000000 0.00000000 0.25434311
0.00000000 0.00000000 0.74230299
0.00000000 0.00000000 0.00000000
0.00000000 0.00000000 0.00000000
0.00000000 0.00000000 0.00000000
0.00000000 0.00000000 0.00000000
0.00000000 0.00000000 0.00000000
0.00000000 0.00000000 0.00000000
0.00000000 0.00000000 0.00000000
0.00000000 0.00000000 0.25434311
0.00000000 0.00000000 0.74230299
0.00000006 0.01793482 0.00000006
0.00000006 0.01793482 0.00000006
0.00000006 0.01793482 0.00000006
0.00000006 0.01793482 0.00000006
0.00000006 0.01793482 0.00000006
0.00000006 0.01527009 0.01289617
0.00000000 0.00000000 0.00000000
0.00000000 0.00000000 0.25209550
0.00000000 0.00000000 0.74126095
0.00000006 0.13209454 0.00000006
0.00000006 0.13209454 0.00000006
0.00000006 0.13209454 0.00000006
0.00000006 0.13209454 0.00000006
0.00000006 0.13209454 0.00000006
0.00000006 0.12984147 0.00282468
0.00000006 0.12000734 0.10816212
0.00000000 0.05343916 0.24230554
0.00000000 0.00000000 0.73679806
0.00000006 0.35719647 0.00000006
0.00000006 0.35719647 0.00000006
0.00000006 0.35719647 0.00000006
0.00000006 0.35719647 0.00000006
0.00000006 0.35719647 0.00000006
0.00000006 0.35584785 0.00000006
0.00000006 0.35005338 0.06434024
0.00000006 0.33058103 0.30450164
0.00000000 0.25093400 0.72197586
0.00000006 0.81123408 0.00000006
0.00000006 0.81123408 0.00000006
0.00000006 0.81123408 0.00000006
0.00000006 0.81123408 0.00000006
0.00000006 0.81123408 0.00000006
0.00000006 0.81040006 0.00000006
0.00000006 0.80683087 0.00000006
0.00000006 0.79500998 0.21887745
0.00000006 0.75530895 0.70051190
0.00000000 0.00000000 0.00000000
0.00000000 0.00000000 0.00000000
0.00000000 0.00000000 0.00000000
0.00000000 0.00000000 0.00000000
0.00000000 0.00000000 0.00000000
0.00000000 0.00000000 0.00000000
0.00000000 0.00000000 0.00000000
0.00000000 0.00000000 0.25434311
0.00000000 0.00000000 0.74230299
0.00000000 0.00000000 0.00000000
0.00000000 0.00000000 0.00000000
0.00000000 0.00000000 0.00000000
0.00000000 0.00000000 0.00000000
0.00000000 0.00000000 0.00000000
0.00000000 0.00000000 0.00000000
0.00000000 0.00000000 0.00000000
0.00000000 0.00000000 0.25434311
0.00000000 0.00000000 0.74230299
0.00000000 0.00000000 0.00000000
0.00000000 0.00000000 0.00000000
0.00000000 0.00000000 0.00000000
0.00000000 0.00000000 0.00000000
0.00000000 0.00000000 0.00000000
0.00000000 0.00000000 0.00000000
0.00000000 0.00000000 0.00000000
0.00000000 0.00000000 0.25434311
0.00000000 0.00000000 0.74230299
0.00000000 0.00000000 0.00000000
0.00000000 0.00000000 0.00000000
0.00000000 0.00000000 0.00000000
0.00000000 0.00000000 0.00000000
0.00000000 0.00000000 0.00000000
0.00000000 0.00000000 0.00000000
0.00000000 0.00000000 0.00000000
0.00000000 0.00000000 0.25434311
0.00000000 0.00000000 0.74230299
0.00000000 0.00000000 0.00000000
0.00000000 0.00000000 0.00000000
0.00000000 0.00000000 0.00000000
0.00000000 0.00000000 0.00000000
0.00000000 0.00000000 0.00000000
0.00000000 0.00000000 0.00000000
0.00000000 0.00000000 0.00000000
0.00000000 0.00000000 0.25434311
0.00000000 0.00000000 0.74230299
0.00000006 0.01793482 0.00000006
0.00000006 0.01793482 0.00000006
0.00000006 0.01793482 0.00000006
0.00000006 0.01793482 0.00000006
0.00000006 0.01793482 0.00000006
0.00000006 0.01527009 0.01289617
0.00000000 0.00000000 0.00000000
0.00000000 0.00000000 0.25209550
0.00000000 0.00000000 0.74126095
0.00000006 0.13209454 0.00000006
0.00000006 0.13209454 0.00000006
0.00000006 0.13209454 0.00000006
0.00000006 0.13209454 0.00000006
0.00000006 0.13209454 0.00000006
0.00000006 0.12984147 0.00282468
0.00000006 0.12000734 0.10816212
0.00000000 0.05343916 0.24230554
0.00000000 0.00000000 0.73679806
0.00000006 0.35719647 0.00000006
0.00000006 0.35719647 0.00000006
0.00000006 0.35719647 0.00000006
0.00000006 0.35719647 0.00000006
0.00000006 0.35719647 0.00000006
0.00000006 0.35584785 0.00000006
0.00000006 0.35005338 0.06434024
0.00000006 0.33058103 0.30450164
0.00000000 0.25093400 0.72197586
0.00000006 0.81123408 0.00000006
0.00000006 0.81123408 0.00000006
0.00000006 0.81123408 0.00000006
0.00000006 0.81123408 0.00000006
0.00000006 0.81123408 0.00000006
0.00000006 0.81040006 0.00000006
0.00000006 0.80683087 0.00000006
0.00000006 0.79500998 0.21887745
0.00000006 0.75530895 0.70051190
0.00000000 0.00000000 0.00000000
0.00000000 0.00000000 0.00000000
0.00000000 0.00000000 0.00000000
0.00000000 0.00000000 0.00000000
0.00000000 0.00000000 0.00000000
0.00000000 0.00000000 0.00000000
0.00000000 0.00000000 0.00000000
0.00000000 0.00000000 0.25434311
0.00000000 0.00000000 0.74230299
0.00000000 0.00000000 0.00000000
0.00000000 0.00000000 0.00000000
0.00000000 0.00000000 0.00000000
0.00000000 0.00000000 0.00000000
0.00000000 0.00000000 0.00000000
0.00000000 0.00000000 0.00000000
0.00000000 0.00000000 0.00000000
0.00000000 0.00000000 0.25434311
0.00000000 0.00000000 0.74230299
0.00000000 0.00000000 0.00000000
0.00000000 0.00000000 0.00000000
0.00000000 0.00000000 0.00000000
0.00000000 0.00000000 0.00000000
0.00000000 0.00000000 0.00000000
0.00000000 0.00000000 0.00000000
0.00000000 0.00000000 0.00000000
0.00000000 0.00000000 0.25434311
0.00000000 0.00000000 0.74230299
0.00000000 0.00000000 0.00000000
0.00000000 0.00000000 0.00000000
0.00000000 0.00000000 0.00000000
0.00000000 0.00000000 0.00000000
0.00000000 0.00000000 0.00000000
0.00000000 0.00000000 0.00000000
0.00000000 0.00000000 0.00000000
0.00000000 0.00000000 0.25434311
0.00000000 0.00000000 0.74230299
0.00000000 0.00000000 0.00000000
0.00000000 0.00000000 0.00000000
0.00000000 0.00000000 0.00000000
0.00000000 0.00000000 0.00000000
0.00000000 0.00000000 0.00000000
0.00000000 0.00000000 0.00000000
0.00000000 0.00000000 0.00000000
0.00000000 0.00000000 0.25434311
0.00000000 0.00000000 0.74230299
0.00000006 0.01793482 0.00000006
0.00000006 0.01793482 0.00000006
0.00000006 0.01793482 0.00000006
0.00000006 0.01793482 0.00000006
0.00000006 0.01793482 0.00000006
0.00000006 0.01527009 0.01289617
0.00000000 0.00000000 0.00000000
0.00000000 0.00000000 0.25209550
0.00000000 0.00000000 0.74126095
0.00000006 0.13209454 0.00000006
0.00000006 0.13209454 0.00000006
0.00000006 0.13209454 0.00000006
0.00000006 0.13209454 0.00000006
0.00000006 0.13209454 0.00000006
0.00000006 0.12984147 0.00282468
0.00000006 0.12000734 0.10816212
0.00000000 0.05343916 0.24230554
0.00000000 0.00000000 0.73679806
0.00000006 0.35719647 0.00000006
0.00000006 0.35719647 0.00000006
0.00000006 0.35719647 0.00000006
0.00000006 0.35719647 0.00000006
0.00000006 0.35719647 0.00000006
0.00000006 0.35584785 0.00000006
0.00000006 0.35005338 0.06434024
0.00000006 0.33058103 0.30450164
0.00000000 0.25093400 0.72197586
0.00000006 0.81123408 0.00000006
0.00000006 0.81123408 0.00000006
0.00000006 0.81123408 0.00000006
0.00000006 0.81123408 0.00000006
0.00000006 0.81123408 0.00000006
0.00000006 0.81040006 0.00000006
0.00000006 0.80683087 0.00000006
0.00000006 0.79500998 0.21887745
0.00000006 0.75530895 0.70051190
0.00000000 0.00000000 0.00000000
0.00000000 0.00000000 0.00000000
0.00000000 0.00000000 0.00000000
0.00000000 0.00000000 0.00000000
0.00000000 0.00000000 0.00000000
0.00000000 0.00000000 0.00000000
0.00000000 0.00000000 0.00000000
0.00000000 0.00000000 0.25434311
0.00000000 0.00000000 0.74230299
0.00000000 0.00000000 0.00000000
0.00000000 0.00000000 0.00000000
0.00000000 0.00000000 0.00000000
0.00000000 0.00000000 0.00000000
0.00000000 0.00000000 0.00000000
0.00000000 0.00000000 0.00000000
0.00000000 0.00000000 0.00000000
0.00000000 0.00000000 0.25434311
0.00000000 0.00000000 0.74230299
0.00000000 0.00000000 0.00000000
0.00000000 0.00000000 0.00000000
0.00000000 0.00000000 0.00000000
0.00000000 0.00000000 0.00000000
0.00000000 0.00000000 0.00000000
0.00000000 0.00000000 0.00000000
0.00000000 0.00000000 0.00000000
0.00000000 0.00000000 0.25434311
0.00000000 0.00000000 0.74230299
0.00000000 0.00000000 0.00000000
0.00000000 0.00000000 0.00000000
0.00000000 0.00000000 0.00000000
0.00000000 0.00000000 0.00000000
0.00000000 0.00000000 0.00000000
0.00000000 0.00000000 0.00000000
0.00000000 0.00000000 0.00000000
0.00000000 0.00000000 0.25434311
0.00000000 0.00000000 0.74230299
0.00000000 0.00000000 0.00000000
0.00000000 0.00000000 0.00000000
0.00000000 0.00000000 0.00000000
0.00000000 0.00000000 0.00000000
0.00000000 0.00000000 0.00000000
0.00000000 0.00000000 0.00000000
0.00000000 0.00000000 0.00000000
0.00000000 0.00000000 0.25434311
0.00000000 0.00000000 0.74230299
0.00000006 0.01793482 0.00000006
0.00000006 0.01793482 0.00000006
0.00000006 0.01793482 0.00000006
0.00000006 0.01793482 0.00000006
0.00000006 0.01793482 0.00000006
0.00000006 0.01527009 0.01289617
0.00000000 0.00000000 0.00000000
0.00000000 0.00000000 0.25209550
0.00000000 0.00000000 0.74126095
0.00000006 0.13209454 0.00000006
0.00000006 0.13209454 0.00000006
0.00000006 0.13209454 0.00000006
0.00000006 0.13209454 0.00000006
0.00000006 0.13209454 0.00000006
0.00000006 0.12984147 0.00282468
0.00000006 0.12000734 0.10816212
0.00000000 0.05343916 0.24230554
0.00000000 0.00000000 0.73679806
0.00000006 0.35719647 0.00000006
0.00000006 0.35719647 0.00000006
0.00000006 0.35719647 0.00000006
0.00000006 0.35719647 0.00000006
0.00000006 0.35719647 0.00000006
0.00000006 0.35584785 0.00000006
0.00000006 0.35005338 0.06434024
0.00000006 0.33058103 0.30450164
0.00000000 0.25093400 0.72197586
0.00000006 0.81123408 0.00000006
0.00000006 0.81123408 0.00000006
0.00000006 0.81123408 0.00000006
0.00000006 0.81123408 0.00000006
0.00000006 0.81123408 0.00000006
0.00000006 0.81040006 0.00000006
0.00000006 0.80683087 0.00000006
0.00000006 0.79500998 0.21887745
0.00000006 0.75530895 0.70051190
0.00000000 0.00000000 0.00000000
0.00000000 0.00000000 0.00000000
0.00000000 0.00000000 0.00000000
0.00000000 0.00000000 0.00000000
0.00000000 0.00000000 0.00000000
0.00000000 0.00000000 0.00000000
0.00000000 0.00000000 0.00000000
0.00000000 0.00000000 0.25434311
0.00000000 0.00000000 0.74230299
0.00000000 0.00000000 0.00000000
0.00000000 0.00000000 0.00000000
0.00000000 0.00000000 0.00000000
0.00000000 0.00000000 0.00000000
0.00000000 0.00000000 0.00000000
0.00000000 0.00000000 0.00000000
0.00000000 0.00000000 0.00000000
0.00000000 0.00000000 0.25434311
0.00000000 0.00000000 0.74230299
0.00000000 0.00000000 0.00000000
0.00000000 0.00000000 0.00000000
0.00000000 0.00000000 0.00000000
0.00000000 0.00000000 0.00000000
0.00000000 0.00000000 0.00000000
0.00000000 0.00000000 0.00000000
0.00000000 0.00000000 0.00000000
0.00000000 0.00000000 0.25434311
0.00000000 0.00000000 0.74230299
0.00000000 0.00000000 0.00000000
0.00000000 0.00000000 0.00000000
0.00000000 0.00000000 0.00000000
0.00000000 0.00000000 0.00000000
0.00000000 0.00000000 0.00000000
0.00000000 0.00000000 0.00000000
0.00000000 0.00000000 0.00000000
0.00000000 0.00000000 0.25434311
0.00000000 0.00000000 0.74230299
0.00000000 0.00000000 0.00000000
0.00000000 0.00000000 0.00000000
0.00000000 0.00000000 0.00000000
0.00000000 0.00000000 0.00000000
0.00000000 0.00000000 0.00000000
0.00000000 0.00000000 0.00000000
0.00000000 0.00000000 0.00000000
0.00000000 0.00000000 0.25434311
0.00000000 0.00000000 0.74230299
0.00000006 0.01793482 0.00000006
0.00000006 0.01793482 0.00000006
0.00000006 0.01793482 0.00000006
0.00000006 0.01793482 0.00000006
0.00000006 0.01793482 0.00000006
0.00000006 0.01527009 0.01289617
0.00000000 0.00000000 0.00000000
0.00000000 0.00000000 0.25209550
0.00000000 0.00000000 0.74126095
0.00000006 0.13209454 0.00000006
0.00000006 0.13209454 0.00000006
0.00000006 0.13209454 0.00000006
0.00000006 0.13209454 0.00000006
0.00000006 0.13209454 0.00000006
0.00000006 0.12984147 0.00282468
0.00000006 0.12000734 0.10816212
0.00000000 0.05343916 0.24230554
0.00000000 0.00000000 0.73679806
0.00000006 0.35719647 0.00000006
0.00000006 0.35719647 0.00000006
0.00000006 0.35719647 0.00000006
0.00000006 0.35719647 0.00000006
0.00000006 0.35719647 0.00000006
0.00000006 0.35584785 0.00000006
0.00000006 0.35005338 0.06434024
0.00000006 0.33058103 0.30450164
0.00000000 0.25093400 0.72197586
0.00000006 0.81123408 0.00000006
0.00000006 0.81123408 0.00000006
0.00000006 0.81123408 0.00000006
0.00000006 0.81123408 0.00000006
0.00000006 0.81123408 0.00000006
0.00000006 0.81040006 0.00000006
0.00000006 0.80683087 0.00000006
0.00000006 0.79500998 0.21887745
0.00000006 0.75530895 0.70051190
0.02825136 0.00000006 0.00000006
0.02825136 0.00000006 0.00000006
0.02825136 0.00000006 0.00000006
0.02825136 0.00000006 0.00000006
0.02825136 0.00000006 0.00000006
0.02575216 0.00000006 0.01534674
0.00000000 0.00000000 0.00000000
0.00000000 0.00000000 0.25397743
0.00000000 0.00000000 0.74213302
0.02825136 0.00000006 0.00000006
0.02825136 0.00000006 0.00000006
0.02825136 0.00000006 0.00000006
0.02825136 0.00000006 0.00000006
0.02825136 0.00000006 0.00000006
0.02575216 0.00000006 0.01534674
0.00000000 0.00000000 0.00000000
0.00000000 0.00000000 0.25397743
0.00000000 0.00000000 0.74213302
0.02825136 0.00000006 0.00000006
0.02825136 0.00000006 0.00000006
0.02825136 0.00000006 0.00000006
0.02825136 0.00000006 0.00000006
0.02825136 0.00000006 0.00000006
0.02575216 0.00000006 0.01534674
0.00000000 0.00000000 0.00000000
0.00000000 0.00000000 0.25397743
0.00000000 0.00000000 0.74213302
0.02825136 0.00000006 0.00000006
0.02825136 0.00000006 0.00000006
0.02825136 0.00000006 0.00000006
0.02825136 0.00000006 0.00000006
0.02825136 0.00000006 0.00000006
0.02575216 0.00000006 0.01534674
0.00000000 0.00000000 0.00000000
0.00000000 0.00000000 0.25397743
0.00000000 0.00000000 0.74213302
0.02825136 0.00000006 0.00000006
0.02825136 0.00000006 0.00000006
0.02825136 0.00000006 0.00000006
0.02825136 0.00000006 0.00000006
0.02825136 0.00000006 0.00000006
0.02575216 0.00000006 0.01534674
0.00000000 0.00000000 0.00000000
0.00000000 0.00000000 0.25397743
0.00000000 0.00000000 0.74213302
0.01386673 0.01462037 0.00000006
0.01386673 0.01462037 0.00000006
0.01386673 0.01462037 0.00000006
0.01386673 0.01462037 0.00000006
0.01386673 0.01462037 0.00000006
0.00000000 0.00000000 0.00000000
0.00000000 0.00000000 0.00000000
0.00000000 0.00000000 0.25172722
0.00000000 0.00000000 0.74109083
0.00000006 0.12927110 0.00000006
0.00000006 0.12927110 0.00000006
0.00000006 0.12927110 0.00000006
0.00000006 0.12927110 0.00000006
0.00000006 0.12927110 0.00000006
0.00000006 0.12699557 0.00254096
0.00000006 0.11705771 0.10769906
0.00000000 0.05072172 0.24192533
0.00000000 0.00000000 0.73662726
0.00000006 0.35550768 0.00000006
0.00000006 0.35550768 0.00000006
0.00000006 0.35550768 0.00000006
0.00000006 0.35550768 0.00000006
0.00000006 0.35550768 0.00000006
0.00000006 0.35415547 0.00000006
0.00000006 0.34834534 0.06377311
0.00000006 0.32881753 0.30422389
0.00000000 0.24898923 0.72180278
0.00000006 0.81018988 0.00000006
0.00000006 0.81018988 0.00000006
0.00000006 0.81018988 0.00000006
0.00000006 0.81018988 0.00000006
0.00000006 0.81018988 0.00000006
0.00000006 0.80935521 0.00000006
0.00000006 0.80578322 0.00000006
0.00000006 0.79395294 0.21854627
0.00000006 0.75421869 0.70034003
0.17096303 0.00000006 0.00000006
0.17096303 0.00000006 0.00000006
0.17096303 0.00000006 0.00000006
0.17096303 0.00000006 0.00000006
0.17096303 0.00000006 0.00000006
0.16936063 0.00000006 0.01329576
0.16242868 0.00000006 0.12037816
0.09748116 0.00000000 0.25241034
0.03595213 0.00000000 0.74140653
0.17096303 0.00000006 0.00000006
0.17096303 0.00000006 0.00000006
0.17096303 0.00000006 0.00000006
0.17096303 0.00000006 0.00000006
0.17096303 0.00000006 0.00000006
0.16936063 0.00000006 0.01329576
0.16242868 0.00000006 0.12037816
0.09748116 0.00000000 0.25241034
0.03595213 0.00000000 0.74140653
0.17096303 0.00000006 0.00000006
0.17096303 0.00000006 0.00000006
0.17096303 0.00000006 0.00000006
0.17096303 0.00000006 0.00000006
0.17096303 0.00000006 0.00000006
0.16936063 0.00000006 0.01329576
0.16242868 0.00000006 0.12037816
0.09748116 0.00000000 0.25241034
0.03595213 0.00000000 0.74140653
0.17096303 0.00000006 0.00000006
0.17096303 0.00000006 0.00000006
0.17096303 0.00000006 0.00000006
0.17096303 0.00000006 0.00000006
0.17096303 0.00000006 0.00000006
0.16936063 0.00000006 0.01329576
0.16242868 0.00000006 0.12037816
0.09748116 0.00000000 0.25241034
0.03595213 0.00000000 0.74140653
0.17096303 0.00000006 0.00000006
0.17096303 0.00000006 0.00000006
0.17096303 0.00000006 0.00000006
0.17096303 0.00000006 0.00000006
0.17096303 0.00000006 0.00000006
0.16936063 0.00000006 0.01329576
0.16242868 0.00000006 0.12037816
0.09748116 0.00000000 0.25241034
0.03595213 0.00000000 0.74140653
0.16078325 0.00325941 0.00000006
0.16078325 0.00325941 0.00000006
0.16078325 0.00325941 0.00000006
0.16078325 0.00325941 0.00000006
0.16078325 0.00325941 0.00000006
0.15913218 0.00179252 0.01052113
0.15198229 0.00000006 0.11765860
0.08811173 0.00000000 0.25014886
0.02089340 0.00000000 0.74036367
0.11312957 0.11687695 0.00000006
0.11312957 0.11687695 0.00000006
0.11312957 0.11687695 0.00000006
0.11312957 0.11687695 0.00000006
0.11312957 0.11687695 0.00000006
0.11118739 0.11449553 0.00144282
0.00000000 0.00000000 0.00000000
0.03126822 0.02560650 0.24936671
0.00000000 0.00000000 0.73589723
0.00000006 0.34824113 0.00000006
0.00000006 0.34824113 0.00000006
0.00000006 0.34824113 0.00000006
0.00000006 0.34824113 0.00000006
0.00000006 0.34824113 0.00000006
0.00000006 0.34687318 0.00000006
0.00000006 0.34099443 0.06133009
0.00000006 0.32122323 0.30303561
0.00000000 0.24058906 0.72106298
0.00000006 0.80571937 0.00000006
0.00000006 0.80571937 0.00000006
0.00000006 0.80571937 0.00000006
0.00000006 0.80571937 0.00000006
0.00000006 0.80571937 0.00000006
0.00000006 0.80488190 0.00000006
0.00000006 0.80129788 0.00000006
0.00000006 0.78942714 0.21712838
0.00000006 0.74954986 0.69960545
0.44272281 0.00000006 0.00000006
0.44272281 0.00000006 0.00000006
0.44272281 0.00000006 0.00000006
0.44272281 0.00000006 0.00000006
0.44272281 0.00000006 0.00000006
0.44176284 0.00000006 0.00724685
0.43764646 0.00000006 0.11409322
0.42392623 0.00000006 0.33139991
0.36331017 0.00000000 0.73901105
0.44272281 0.00000006 0.00000006
0.44272281 0.00000006 0.00000006
0.44272281 0.00000006 0.00000006
0.44272281 0.00000006 0.00000006
0.44272281 0.00000006 0.00000006
0.44176284 0.00000006 0.00724685
0.43764646 0.00000006 0.11409322
0.42392623 0.00000006 0.33139991
0.36331017 0.00000000 0.73901105
0.44272281 0.00000006 0.00000006
0.44272281 0.00000006 0.00000006
0.44272281 0.00000006 0.00000006
0.44272281 0.00000006 0.00000006
0.44272281 0.00000006 0.00000006
0.44176284 0.00000006 0.00724685
0.43764646 0.00000006 0.11409322
0.42392623 0.00000006 0.33139991
0.36331017 0.00000000 0.73901105
0.44272281 0.00000006 0.00000006
0.44272281 0.00000006 0.00000006
0.44272281 0.00000006 0.00000006
0.44272281 0.00000006 0.00000006
0.44272281 0.00000006 0.00000006
0.44176284 0.00000006 0.00724685
0.43764646 0.00000006 0.11409322
0.42392623 0.00000006 0.33139991
0.36331017 0.00000000 0.73901105
0.44272281 0.00000006 0.00000006
0.44272281 0.00000006 0.00000006
0.44272281 0.00000006 0.00000006
0.44272281 0.00000006 0.00000006
0.44272281 0.00000006 0.00000006
0.44176284 0.00000006 0.00724685
0.43764646 0.00000006 0.11409322
0.42392623 0.00000006 0.33139991
0.36331017 0.00000000 0.73901105
0.43668008 0.00000006 0.00000006
0.43668008 0.00000006 0.00000006
0.43668008 0.00000006 0.00000006
0.43668008 0.00000006 0.00000006
0.43668008 0.00000006 0.00000006
0.43571251 0.00000006 0.00499852
0.43156318 0.00000006 0.11130789
0.41772978 0.00000006 0.32977345
0.35684749 0.00000000 0.73796598
0.41029055 0.07103484 0.00000006
0.41029055 0.07103484 0.00000006
0.41029055 0.07103484 0.00000006
0.41029055 0.07103484 0.00000006
0.41029055 0.07103484 0.00000006
0.40928829 0.06811597 0.00000006
0.40498878 0.05509955 0.09904881
0.39063622 0.01156863 0.32277376
0.32847959 0.00000000 0.73349002
0.31533202 0.32368817 0.00000006
0.31533202 0.32368817 0.00000006
0.31533202 0.32368817 0.00000006
0.31533202 0.32368817 0.00000006
0.31533202 0.32368817 0.00000006
0.31417062 0.32226338 0.00000006
0.30918110 0.31613641 0.05303859
0.24765199 0.25045218 0.25376817
0.19083561 0.17594011 0.72797840
0.00000006 0.79089141 0.00000006
0.00000006 0.79089141 0.00000006
0.00000006 0.79089141 0.00000006
0.00000006 0.79089141 0.00000006
0.00000006 0.79089141 0.00000006
0.00000006 0.79004448 0.00000006
0.00000006 0.78641978 0.00000006
0.00000006 0.77441225 0.21242538
0.00000006 0.73405076 0.69718331
0.99017827 0.00000006 0.00000006
0.99017827 0.00000006 0.00000006
0.99017827 0.00000006 0.00000006
0.99017827 0.00000006 0.00000006
0.99017827 0.00000006 0.00000006
0.98958594 0.00000006 0.00000006
0.98705006 0.00000006 0.09222199
0.97865768 0.00000006 0.31899272
0.95064516 0.00000006 0.75703082
0.99017827 0.00000006 0.00000006
0.99017827 0.00000006 0.00000006
0.99017827 0.00000006 0.00000006
0.99017827 0.00000006 0.00000006
0.99017827 0.00000006 0.00000006
0.98958594 0.00000006 0.00000006
0.98705006 0.00000006 0.09222199
0.97865768 0.00000006 0.31899272
0.95064516 0.00000006 0.75703082
0.99017827 0.00000006 0.00000006
0.99017827 0.00000006 0.00000006
0.99017827 0.00000006 0.00000006
0.99017827 0.00000006 0.00000006
0.99017827 0.00000006 0.00000006
0.98958594 0.00000006 0.00000006
0.98705006 0.00000006 0.09222199
0.97865768 0.00000006 0.31899272
0.95064516 0.00000006 0.75703082
0.99017827 0.00000006 0.00000006
0.99017827 0.00000006 0.00000006
0.99017827 0.00000006 0.00000006
0.99017827 0.00000006 0.00000006
0.99017827 0.00000006 0.00000006
0.98958594 0.00000006 0.00000006
0.98705006 0.00000006 0.09222199
0.97865768 0.00000006 0.31899272
0.95064516 0.00000006 0.75703082
0.99017827 0.00000006 0.00000006
0.99017827 0.00000006 0.00000006
0.99017827 0.00000006 0.00000006
0.99017827 0.00000006 0.00000006
0.99017827 0.00000006 0.00000006
0.98958594 0.00000006 0.00000006
0.98705006 0.00000006 0.09222199
0.97865768 0.00000006 0.31899272
0.95064516 0.00000006 0.75703082
0.98645812 0.00000006 0.00000006
0.98645812 0.00000006 0.00000006
0.98645812 0.00000006 0.00000006
0.98645812 0.00000006 0.00000006
0.98645812 0.00000006 0.00000006
0.98586441 0.00000006 0.00000006
0.98332274 0.00000006 0.08917165
0.97491079 0.00000006 0.31733148
0.94683113 0.00000006 0.75602520
0.97046482 0.00000006 0.00000006
0.97046482 0.00000006 0.00000006
0.97046482 0.00000006 0.00000006
0.97046482 0.00000006 0.00000006
0.97046482 0.00000006 0.00000006
0.96986506 0.00000006 0.00000006
0.96729803 0.00000006 0.07563492
0.95880059 0.00000006 0.31017917
0.93042748 0.00000006 0.75171962
0.91647348 0.23410417 0.00000006
0.91647348 0.23410417 0.00000006
0.91647348 0.23410417 0.00000006
0.91647348 0.23410417 0.00000006
0.91647348 0.23410417 0.00000006
0.91585407 0.23240676 0.00000006
0.91320408 0.22508026 0.02422699
0.90442649 0.20001985 0.28595595
0.87506904 0.10213403 0.73743578
0.72200746 0.74082554 0.00000006
0.72200746 0.74082554 0.00000006
0.72200746 0.74082554 0.00000006
0.72200746 0.74082554 0.00000006
0.72200746 0.74082554 0.00000006
0.72129359 0.73994452 0.00000006
0.71823865 0.73617328 0.00000006
0.70811452 0.72367219 0.19654455
0.65909641 0.66680931 0.67464463
