luts/S9_VLog_to_leica_classic.cube
# Film Emulation LUT
# Generated by lutex.py
# Grid: 33³
TITLE "Panasonic S9 V-Log to Leica Classic Look — Draft v1"
LUT_3D_SIZE 9
DOMAIN_MIN 0.0 0.0 0.0
DOMAIN_MAX 1.0 1.0 1.0
0.00004713 0.00005087 0.00003217
0.00004713 0.00005087 0.00003217
0.00089224 0.00007817 0.00000000
0.00345545 0.00024801 0.00000000
0.01316933 0.00089535 0.00000000
0.06654430 0.00483379 0.00000000
0.20460991 0.02978439 0.00000000
0.47737531 0.11726560 0.00000000
1.00000000 0.35867006 0.22614482
0.00004713 0.00005087 0.00003217
0.00004713 0.00005087 0.00003217
0.00089224 0.00007817 0.00000000
0.00345545 0.00024801 0.00000000
0.01316933 0.00089535 0.00000000
0.06654430 0.00483379 0.00000000
0.20460991 0.02978439 0.00000000
0.47737531 0.11726560 0.00000000
1.00000000 0.35867006 0.22614482
0.00002304 0.00067729 0.00000808
0.00002304 0.00067729 0.00000808
0.00057269 0.00059812 0.00001113
0.00310298 0.00051791 0.00000000
0.01277883 0.00086932 0.00000000
0.06588475 0.00477130 0.00000000
0.20421302 0.02967529 0.00000000
0.47713676 0.11718842 0.00000000
1.00000000 0.35816134 0.22520747
0.00001424 0.00242557 0.00000000
0.00001424 0.00242557 0.00000000
0.00001425 0.00234365 0.00000000
0.00205584 0.00209705 0.00000000
0.01160397 0.00206459 0.00000000
0.06387806 0.00458410 0.00000000
0.20301082 0.02934624 0.00000000
0.47641529 0.11695499 0.00000000
1.00000000 0.35661863 0.22234779
0.00001395 0.00897277 0.00000000
0.00001395 0.00897277 0.00000000
0.00001395 0.00888461 0.00000000
0.00001396 0.00861845 0.00000000
0.00780227 0.00774483 0.00000000
0.05712407 0.00882046 0.00000000
0.19902417 0.02827035 0.00000000
0.47403462 0.11618474 0.00000000
1.00000000 0.35148356 0.21263155
0.00001387 0.04041710 0.00000000
0.00001387 0.04041710 0.00000000
0.00001387 0.04024176 0.00000000
0.00001387 0.03971352 0.00000000
0.00001387 0.03799286 0.00000000
0.03339777 0.03253849 0.00000000
0.18557112 0.04213708 0.00000000
0.46614076 0.11363072 0.00000000
1.00000000 0.33392935 0.17653744
0.00001380 0.14870406 0.00000000
0.00001380 0.14870406 0.00000000
0.00001380 0.14859903 0.00000000
0.00001380 0.14828134 0.00000000
0.00001380 0.14723269 0.00000000
0.00001381 0.14375162 0.00000000
0.13691241 0.13196306 0.00000000
0.43947086 0.14804863 0.00000000
0.99582636 0.28501378 0.00000000
0.00001356 0.36042940 0.00000000
0.00001356 0.36042940 0.00000000
0.00001356 0.36036718 0.00000000
0.00001356 0.36017907 0.00000000
0.00001356 0.35955922 0.00000000
0.00001356 0.35751329 0.00000000
0.00001357 0.35072254 0.00000000
0.34298596 0.32773762 0.00000000
0.94252408 0.35999085 0.00000000
0.00001230 0.77557538 0.00000000
0.00001230 0.77557538 0.00000000
0.00001230 0.77553820 0.00000000
0.00001230 0.77542582 0.00000000
0.00001230 0.77505567 0.00000000
0.00001230 0.77383596 0.00000000
0.00001232 0.76981022 0.00000000
0.00001238 0.75644948 0.00000000
0.74803400 0.71124410 0.00000000
0.00004713 0.00005087 0.00003217
0.00004713 0.00005087 0.00003217
0.00089224 0.00007817 0.00000000
0.00345545 0.00024801 0.00000000
0.01316933 0.00089535 0.00000000
0.06654430 0.00483379 0.00000000
0.20460991 0.02978439 0.00000000
0.47737531 0.11726560 0.00000000
1.00000000 0.35867006 0.22614482
0.00004713 0.00005087 0.00003217
0.00004713 0.00005087 0.00003217
0.00089224 0.00007817 0.00000000
0.00345545 0.00024801 0.00000000
0.01316933 0.00089535 0.00000000
0.06654430 0.00483379 0.00000000
0.20460991 0.02978439 0.00000000
0.47737531 0.11726560 0.00000000
1.00000000 0.35867006 0.22614482
0.00002304 0.00067729 0.00000808
0.00002304 0.00067729 0.00000808
0.00057269 0.00059812 0.00001113
0.00310298 0.00051791 0.00000000
0.01277883 0.00086932 0.00000000
0.06588475 0.00477130 0.00000000
0.20421302 0.02967529 0.00000000
0.47713676 0.11718842 0.00000000
1.00000000 0.35816134 0.22520747
0.00001424 0.00242557 0.00000000
0.00001424 0.00242557 0.00000000
0.00001425 0.00234365 0.00000000
0.00205584 0.00209705 0.00000000
0.01160397 0.00206459 0.00000000
0.06387806 0.00458410 0.00000000
0.20301082 0.02934624 0.00000000
0.47641529 0.11695499 0.00000000
1.00000000 0.35661863 0.22234779
0.00001395 0.00897277 0.00000000
0.00001395 0.00897277 0.00000000
0.00001395 0.00888461 0.00000000
0.00001396 0.00861845 0.00000000
0.00780227 0.00774483 0.00000000
0.05712407 0.00882046 0.00000000
0.19902417 0.02827035 0.00000000
0.47403462 0.11618474 0.00000000
1.00000000 0.35148356 0.21263155
0.00001387 0.04041710 0.00000000
0.00001387 0.04041710 0.00000000
0.00001387 0.04024176 0.00000000
0.00001387 0.03971352 0.00000000
0.00001387 0.03799286 0.00000000
0.03339777 0.03253849 0.00000000
0.18557112 0.04213708 0.00000000
0.46614076 0.11363072 0.00000000
1.00000000 0.33392935 0.17653744
0.00001380 0.14870406 0.00000000
0.00001380 0.14870406 0.00000000
0.00001380 0.14859903 0.00000000
0.00001380 0.14828134 0.00000000
0.00001380 0.14723269 0.00000000
0.00001381 0.14375162 0.00000000
0.13691241 0.13196306 0.00000000
0.43947086 0.14804863 0.00000000
0.99582636 0.28501378 0.00000000
0.00001356 0.36042940 0.00000000
0.00001356 0.36042940 0.00000000
0.00001356 0.36036718 0.00000000
0.00001356 0.36017907 0.00000000
0.00001356 0.35955922 0.00000000
0.00001356 0.35751329 0.00000000
0.00001357 0.35072254 0.00000000
0.34298596 0.32773762 0.00000000
0.94252408 0.35999085 0.00000000
0.00001230 0.77557538 0.00000000
0.00001230 0.77557538 0.00000000
0.00001230 0.77553820 0.00000000
0.00001230 0.77542582 0.00000000
0.00001230 0.77505567 0.00000000
0.00001230 0.77383596 0.00000000
0.00001232 0.76981022 0.00000000
0.00001238 0.75644948 0.00000000
0.74803400 0.71124410 0.00000000
0.00000000 0.00000000 0.00000000
0.00000000 0.00000000 0.00000000
0.00084184 0.00001973 0.00044634
0.00341639 0.00000000 0.00015060
0.01312434 0.00059788 0.00000000
0.06643933 0.00482381 0.00000000
0.20454668 0.02976699 0.00000000
0.47733730 0.11725330 0.00000000
1.00000000 0.35858904 0.22599571
0.00000000 0.00000000 0.00000000
0.00000000 0.00000000 0.00000000
0.00084184 0.00001973 0.00044634
0.00341639 0.00000000 0.00015060
0.01312434 0.00059788 0.00000000
0.06643933 0.00482381 0.00000000
0.20454668 0.02976699 0.00000000
0.47733730 0.11725330 0.00000000
1.00000000 0.35858904 0.22599571
0.00002492 0.00061360 0.00040430
0.00002492 0.00061360 0.00040430
0.00050660 0.00051969 0.00038373
0.00312393 0.00026168 0.00016119
0.01273398 0.00062984 0.00000000
0.06577943 0.00476136 0.00000000
0.20414972 0.02965791 0.00000000
0.47709874 0.11717612 0.00000000
1.00000000 0.35808019 0.22505768
0.00000000 0.00237397 0.00018488
0.00000000 0.00237397 0.00018488
0.00000000 0.00229218 0.00017518
0.00204028 0.00207182 0.00011313
0.01159698 0.00196464 0.00000000
0.06377169 0.00457429 0.00000000
0.20294732 0.02932892 0.00000000
0.47637722 0.11694268 0.00000000
1.00000000 0.35653707 0.22219587
0.00001395 0.00890235 0.00000000
0.00001395 0.00890235 0.00000000
0.00001396 0.00881423 0.00000000
0.00001396 0.00854819 0.00000000
0.00774236 0.00767489 0.00000000
0.05701404 0.00874296 0.00000000
0.19895997 0.02825322 0.00000000
0.47399644 0.11617238 0.00000000
1.00000000 0.35140063 0.21247199
0.00001387 0.04027702 0.00000000
0.00001387 0.04027702 0.00000000
0.00001387 0.04010191 0.00000000
0.00001387 0.03957436 0.00000000
0.00001387 0.03785603 0.00000000
0.03328554 0.03240984 0.00000000
0.18550446 0.04203465 0.00000000
0.46610216 0.11361823 0.00000000
1.00000000 0.33384139 0.17634253
0.00001380 0.14862017 0.00000000
0.00001380 0.14862017 0.00000000
0.00001380 0.14851511 0.00000000
0.00001380 0.14819732 0.00000000
0.00001380 0.14714836 0.00000000
0.00001381 0.14366623 0.00000000
0.13683453 0.13187383 0.00000000
0.43943088 0.14797328 0.00000000
0.99580315 0.28500627 0.00000000
0.00001356 0.36037970 0.00000000
0.00001356 0.36037970 0.00000000
0.00001356 0.36031747 0.00000000
0.00001356 0.36012935 0.00000000
0.00001356 0.35950944 0.00000000
0.00001356 0.35746333 0.00000000
0.00001357 0.35067196 0.00000000
0.34293941 0.32768481 0.00000000
0.94250027 0.35994543 0.00000000
0.00001230 0.77554568 0.00000000
0.00001230 0.77554568 0.00000000
0.00001230 0.77550850 0.00000000
0.00001230 0.77539611 0.00000000
0.00001230 0.77502596 0.00000000
0.00001230 0.77380622 0.00000000
0.00001232 0.76978037 0.00000000
0.00001238 0.75641926 0.00000000
0.74800643 0.71121256 0.00000000
0.00000000 0.00000000 0.00000000
0.00000000 0.00000000 0.00000000
0.00065033 0.00000000 0.00181097
0.00324646 0.00000000 0.00173228
0.01293618 0.00000000 0.00072410
0.06613388 0.00353533 0.00000000
0.20435970 0.02941589 0.00000000
0.47722239 0.11721612 0.00000000
1.00000000 0.35834402 0.22554438
0.00000000 0.00000000 0.00000000
0.00000000 0.00000000 0.00000000
0.00065033 0.00000000 0.00181097
0.00324646 0.00000000 0.00173228
0.01293618 0.00000000 0.00072410
0.06613388 0.00353533 0.00000000
0.20435970 0.02941589 0.00000000
0.47722239 0.11721612 0.00000000
1.00000000 0.35834402 0.22554438
0.00000000 0.00000000 0.00000000
0.00000000 0.00000000 0.00000000
0.00000000 0.00000000 0.00000000
0.00289729 0.00000000 0.00167242
0.01254624 0.00000000 0.00068595
0.06547305 0.00352586 0.00000000
0.20396255 0.02936441 0.00000000
0.47698379 0.11713893 0.00000000
1.00000000 0.35783476 0.22460427
0.00000000 0.00217679 0.00153208
0.00000000 0.00217679 0.00153208
0.00000000 0.00209540 0.00152389
0.00182038 0.00181698 0.00145789
0.01173227 0.00111979 0.00068235
0.06346240 0.00349980 0.00000000
0.20275955 0.02921517 0.00000000
0.47626216 0.11690545 0.00000000
1.00000000 0.35629042 0.22173600
0.00000000 0.00870353 0.00091612
0.00000000 0.00870353 0.00091612
0.00000000 0.00861553 0.00090736
0.00000000 0.00834985 0.00088086
0.00779657 0.00769188 0.00056212
0.05707797 0.00810827 0.00000000
0.19876587 0.02820146 0.00000000
0.47388101 0.11613504 0.00000000
1.00000000 0.35114982 0.21198892
0.00001387 0.03985472 0.00000000
0.00001387 0.03985472 0.00000000
0.00001387 0.03968030 0.00000000
0.00001387 0.03915486 0.00000000
0.00001387 0.03744360 0.00000000
0.03294732 0.03202227 0.00000000
0.18530289 0.04172664 0.00000000
0.46598548 0.11358048 0.00000000
1.00000000 0.33357534 0.17575203
0.00001380 0.14836645 0.00000000
0.00001380 0.14836645 0.00000000
0.00001380 0.14826129 0.00000000
0.00001380 0.14794322 0.00000000
0.00001380 0.14689331 0.00000000
0.00001381 0.14340796 0.00000000
0.13659898 0.13160395 0.00000000
0.43931002 0.14774551 0.00000000
0.99573299 0.28498357 0.00000000
0.00001356 0.36022945 0.00000000
0.00001356 0.36022945 0.00000000
0.00001356 0.36016721 0.00000000
0.00001356 0.35997903 0.00000000
0.00001356 0.35935896 0.00000000
0.00001356 0.35731230 0.00000000
0.00001357 0.35051906 0.00000000
0.34279868 0.32752515 0.00000000
0.94242831 0.35980815 0.00000000
0.00001230 0.77545591 0.00000000
0.00001230 0.77545591 0.00000000
0.00001230 0.77541873 0.00000000
0.00001230 0.77530633 0.00000000
0.00001230 0.77493614 0.00000000
0.00001230 0.77371631 0.00000000
0.00001232 0.76969013 0.00000000
0.00001238 0.75632792 0.00000000
0.74792310 0.71111724 0.00000000
0.00000000 0.00000000 0.00000000
0.00000000 0.00000000 0.00000000
0.00000000 0.00000000 0.00000000
0.00262819 0.00000000 0.00717527
0.01231805 0.00000000 0.00700968
0.06508458 0.00000000 0.00188210
0.20372940 0.02427307 0.00000000
0.47684535 0.11654030 0.00000000
1.00000000 0.35753583 0.22405112
0.00000000 0.00000000 0.00000000
0.00000000 0.00000000 0.00000000
0.00000000 0.00000000 0.00000000
0.00262819 0.00000000 0.00717527
0.01231805 0.00000000 0.00700968
0.06508458 0.00000000 0.00188210
0.20372940 0.02427307 0.00000000
0.47684535 0.11654030 0.00000000
1.00000000 0.35753583 0.22405112
0.00000000 0.00000000 0.00000000
0.00000000 0.00000000 0.00000000
0.00000000 0.00000000 0.00000000
0.00000000 0.00000000 0.00000000
0.01192955 0.00000000 0.00693565
0.06442030 0.00000000 0.00186921
0.20333158 0.02423726 0.00000000
0.47660663 0.11648561 0.00000000
1.00000000 0.35702525 0.22310407
0.00000000 0.00000000 0.00000000
0.00000000 0.00000000 0.00000000
0.00000000 0.00000000 0.00000000
0.00000000 0.00000000 0.00000000
0.01111920 0.00009607 0.00678799
0.06239905 0.00000000 0.00182913
0.20212652 0.02412907 0.00000000
0.47588465 0.11632066 0.00000000
1.00000000 0.35547686 0.22021424
0.00000000 0.00800534 0.00615355
0.00000000 0.00800534 0.00615355
0.00000000 0.00791775 0.00614210
0.00000000 0.00765333 0.00610760
0.00697439 0.00676298 0.00592045
0.05725284 0.00388509 0.00178808
0.19813022 0.02377276 0.00000000
0.47350231 0.11578262 0.00000000
1.00000000 0.35032249 0.21038966
0.00000000 0.03848993 0.00371857
0.00000000 0.03848993 0.00371857
0.00000000 0.03831782 0.00370711
0.00000000 0.03779942 0.00367248
0.00000000 0.03611182 0.00355870
0.03295496 0.03178629 0.00208059
0.18517994 0.03902213 0.00000000
0.46560116 0.11345613 0.00000000
1.00000000 0.33269756 0.17379269
0.00001380 0.14752938 0.00000000
0.00001380 0.14752938 0.00000000
0.00001380 0.14742391 0.00000000
0.00001380 0.14710489 0.00000000
0.00001380 0.14605183 0.00000000
0.00001381 0.14255583 0.00000000
0.13582196 0.13071332 0.00000000
0.43891192 0.14699533 0.00000000
0.99550195 0.28490881 0.00000000
0.00001356 0.35973443 0.00000000
0.00001356 0.35973443 0.00000000
0.00001356 0.35967213 0.00000000
0.00001356 0.35948379 0.00000000
0.00001356 0.35886317 0.00000000
0.00001356 0.35681468 0.00000000
0.00001358 0.35001526 0.00000000
0.34233504 0.32699905 0.00000000
0.94219129 0.35935605 0.00000000
0.00001230 0.77516026 0.00000000
0.00001230 0.77516026 0.00000000
0.00001230 0.77512307 0.00000000
0.00001230 0.77501064 0.00000000
0.00001230 0.77464036 0.00000000
0.00001231 0.77342020 0.00000000
0.00001232 0.76939294 0.00000000
0.00001238 0.75602710 0.00000000
0.74764864 0.71080331 0.00000000
0.00000000 0.00000000 0.00000000
0.00000000 0.00000000 0.00000000
0.00000000 0.00000000 0.00000000
0.00000000 0.00000000 0.00000000
0.00000000 0.00000000 0.00000000
0.06159016 0.00000000 0.03255844
0.20164611 0.00000000 0.00091415
0.47559658 0.10680487 0.00000000
1.00000000 0.35421656 0.21905465
0.00000000 0.00000000 0.00000000
0.00000000 0.00000000 0.00000000
0.00000000 0.00000000 0.00000000
0.00000000 0.00000000 0.00000000
0.00000000 0.00000000 0.00000000
0.06159016 0.00000000 0.03255844
0.20164611 0.00000000 0.00091415
0.47559658 0.10680487 0.00000000
1.00000000 0.35421656 0.21905465
0.00000000 0.00000000 0.00000000
0.00000000 0.00000000 0.00000000
0.00000000 0.00000000 0.00000000
0.00000000 0.00000000 0.00000000
0.00000000 0.00000000 0.00000000
0.06091420 0.00000000 0.03240548
0.20124603 0.00000000 0.00087462
0.47535747 0.10678014 0.00000000
1.00000000 0.35370879 0.21808373
0.00000000 0.00000000 0.00000000
0.00000000 0.00000000 0.00000000
0.00000000 0.00000000 0.00000000
0.00000000 0.00000000 0.00000000
0.00000000 0.00000000 0.00000000
0.05885703 0.00000000 0.03194515
0.20003410 0.00000000 0.00075645
0.47463429 0.10670432 0.00000000
1.00000000 0.35216891 0.21511981
0.00000000 0.00000000 0.00000000
0.00000000 0.00000000 0.00000000
0.00000000 0.00000000 0.00000000
0.00000000 0.00000000 0.00000000
0.00000000 0.00000000 0.00000000
0.05335605 0.00000000 0.03065236
0.19601464 0.00000000 0.00038177
0.47224796 0.10644262 0.00000000
1.00000000 0.34704261 0.20502810
0.00000000 0.03408438 0.02683276
0.00000000 0.03408438 0.02683276
0.00000000 0.03392033 0.02681014
0.00000000 0.03342642 0.02674185
0.00000000 0.03182127 0.02651774
0.02840320 0.02689386 0.02564374
0.18616393 0.01453393 0.00000000
0.46433497 0.10543455 0.00000000
1.00000000 0.32950734 0.16717363
0.00000000 0.14476007 0.01416423
0.00000000 0.14476007 0.01416423
0.00000000 0.14465355 0.01415011
0.00000000 0.14433135 0.01410754
0.00000000 0.14326773 0.01396881
0.00000000 0.13973601 0.01352804
0.13615323 0.13034784 0.00457301
0.43839884 0.14210305 0.00000000
0.99474090 0.28466257 0.00000000
0.00001356 0.35810130 0.00000000
0.00001356 0.35810130 0.00000000
0.00001356 0.35803882 0.00000000
0.00001356 0.35784992 0.00000000
0.00001356 0.35722748 0.00000000
0.00001357 0.35517294 0.00000000
0.00001358 0.34835307 0.00000000
0.34080558 0.32526292 0.00000000
0.94141051 0.35786648 0.00000000
0.00001230 0.77418619 0.00000000
0.00001230 0.77418619 0.00000000
0.00001230 0.77414896 0.00000000
0.00001230 0.77403643 0.00000000
0.00001230 0.77366582 0.00000000
0.00001231 0.77244460 0.00000000
0.00001233 0.76841380 0.00000000
0.00001239 0.75503596 0.00000000
0.74674438 0.70976889 0.00000000
0.00000000 0.00000000 0.00000000
0.00000000 0.00000000 0.00000000
0.00000000 0.00000000 0.00000000
0.00000000 0.00000000 0.00000000
0.00000000 0.00000000 0.00000000
0.00000000 0.00000000 0.00000000
0.19469819 0.00000000 0.14048755
0.47146368 0.00000000 0.04613797
1.00000000 0.32586186 0.20152516
0.00000000 0.00000000 0.00000000
0.00000000 0.00000000 0.00000000
0.00000000 0.00000000 0.00000000
0.00000000 0.00000000 0.00000000
0.00000000 0.00000000 0.00000000
0.00000000 0.00000000 0.00000000
0.19469819 0.00000000 0.14048755
0.47146368 0.00000000 0.04613797
1.00000000 0.32586186 0.20152516
0.00000000 0.00000000 0.00000000
0.00000000 0.00000000 0.00000000
0.00000000 0.00000000 0.00000000
0.00000000 0.00000000 0.00000000
0.00000000 0.00000000 0.00000000
0.00000000 0.00000000 0.00000000
0.19429037 0.00000000 0.14037742
0.47122325 0.00000000 0.04602854
1.00000000 0.32531452 0.20046145
0.00000000 0.00000000 0.00000000
0.00000000 0.00000000 0.00000000
0.00000000 0.00000000 0.00000000
0.00000000 0.00000000 0.00000000
0.00000000 0.00000000 0.00000000
0.00000000 0.00000000 0.00000000
0.19305486 0.00000000 0.14004430
0.47049605 0.00000000 0.04569725
1.00000000 0.32365387 0.19720859
0.00000000 0.00000000 0.00000000
0.00000000 0.00000000 0.00000000
0.00000000 0.00000000 0.00000000
0.00000000 0.00000000 0.00000000
0.00000000 0.00000000 0.00000000
0.00000000 0.00000000 0.00000000
0.18895581 0.00000000 0.13894492
0.46809641 0.00000000 0.04460045
1.00000000 0.31811679 0.18606416
0.00000000 0.00000000 0.00000000
0.00000000 0.00000000 0.00000000
0.00000000 0.00000000 0.00000000
0.00000000 0.00000000 0.00000000
0.00000000 0.00000000 0.00000000
0.00000000 0.00000000 0.00000000
0.17697478 0.00000000 0.13591962
0.46013855 0.00000000 0.04092124
1.00000000 0.29906833 0.14298803
0.00000000 0.13542251 0.12593993
0.00000000 0.13542251 0.12593993
0.00000000 0.13531227 0.12592105
0.00000000 0.13497877 0.12586396
0.00000000 0.13387765 0.12567592
0.00000000 0.13021892 0.12505597
0.12484468 0.11748734 0.12313889
0.44098218 0.04902283 0.00110626
0.99222084 0.26368026 0.00000000
0.00000000 0.35269125 0.08160819
0.00000000 0.35269125 0.08160819
0.00000000 0.35262815 0.08158569
0.00000000 0.35243741 0.08151768
0.00000000 0.35180884 0.08129360
0.00000000 0.34973396 0.08055425
0.00000000 0.34284529 0.07810338
0.34175652 0.32457689 0.03261768
0.94033576 0.34853233 0.00000000
0.00001232 0.77097269 0.00000000
0.00001232 0.77097269 0.00000000
0.00001232 0.77093536 0.00000000
0.00001232 0.77082250 0.00000000
0.00001232 0.77045082 0.00000000
0.00001232 0.76922605 0.00000000
0.00001234 0.76518350 0.00000000
0.00001240 0.75176591 0.00000000
0.74376105 0.70635535 0.00000000
0.00000000 0.00000159 0.25016142
0.00000000 0.00000159 0.25016142
0.00000000 0.00000159 0.25014411
0.00000000 0.00000159 0.25009178
0.00000000 0.00000159 0.24991938
0.00644474 0.00000000 0.24935543
0.10747364 0.00000000 0.24755791
0.45766121 0.00000000 0.36180814
1.00000000 0.12569467 0.23919129
0.00000000 0.00000159 0.25016142
0.00000000 0.00000159 0.25016142
0.00000000 0.00000159 0.25014411
0.00000000 0.00000159 0.25009178
0.00000000 0.00000159 0.24991938
0.00644474 0.00000000 0.24935543
0.10747364 0.00000000 0.24755791
0.45766121 0.00000000 0.36180814
1.00000000 0.12569467 0.23919129
0.00000000 0.00000159 0.25005531
0.00000000 0.00000159 0.25005531
0.00000000 0.00000159 0.25003799
0.00000000 0.00000159 0.24998563
0.00000000 0.00000159 0.24981317
0.00630090 0.00000000 0.24924893
0.10712733 0.00000000 0.24745041
0.45741623 0.00000000 0.36173968
1.00000000 0.12396020 0.23832397
0.00000000 0.00000159 0.24973433
0.00000000 0.00000159 0.24973433
0.00000000 0.00000159 0.24971700
0.00000000 0.00000159 0.24966458
0.00000000 0.00000159 0.24949193
0.00593950 0.00000000 0.24892685
0.10607859 0.00000000 0.24712525
0.45667525 0.00000000 0.36153270
1.00000000 0.11856986 0.23568070
0.00000000 0.00000158 0.24867490
0.00000000 0.00000158 0.24867490
0.00000000 0.00000158 0.24865750
0.00000000 0.00000158 0.24860489
0.00000000 0.00000158 0.24843160
0.00416599 0.00000000 0.24786340
0.10260334 0.00000000 0.24605198
0.45422989 0.00000000 0.36085073
1.00000000 0.09890841 0.22673278
0.00000000 0.00000156 0.24515847
0.00000000 0.00000156 0.24515847
0.00000000 0.00000156 0.24514085
0.00000000 0.00000156 0.24508759
0.00000000 0.00000156 0.24491216
0.00000000 0.00000155 0.24433371
0.09090346 0.00000000 0.24248943
0.44611773 0.00000000 0.35860031
0.99956998 0.00000000 0.19704487
0.00000000 0.05497693 0.23338559
0.00000000 0.05497693 0.23338559
0.00000000 0.05488429 0.23336695
0.00000000 0.05460403 0.23331060
0.00000000 0.05367832 0.23312497
0.00000000 0.05059832 0.23251293
0.01159883 0.00000000 0.24983740
0.42140463 0.00000000 0.35240722
0.98381711 0.00000000 0.19003480
0.00000000 0.33448111 0.33239025
0.00000000 0.33448111 0.33239025
0.00000000 0.33441585 0.33237835
0.00000000 0.33421852 0.33234236
0.00000000 0.33356825 0.33222386
0.00000000 0.32322896 0.33183349
0.00000000 0.31594129 0.33054635
0.31906525 0.29894058 0.32745424
0.94576575 0.12611431 0.04693156
0.00000000 0.76032538 0.24429695
0.00000000 0.76032538 0.24429695
0.00000000 0.76028768 0.24428270
0.00000000 0.76017374 0.24423963
0.00000000 0.75979845 0.24409780
0.00000000 0.75856177 0.24363051
0.00000000 0.75447968 0.24208895
0.00000000 0.74092838 0.23698113
0.74580044 0.70470671 0.15821981
0.00000000 0.00000322 0.79058276
0.00000000 0.00000322 0.79058276
0.00000000 0.00000322 0.79057548
0.00000000 0.00000322 0.79055348
0.00000000 0.00000322 0.79048105
0.00000000 0.00000322 0.79024250
0.06928224 0.00000000 0.78948837
0.39148788 0.00000000 0.78754353
0.97843960 0.00000000 0.81824233
0.00000000 0.00000322 0.79058276
0.00000000 0.00000322 0.79058276
0.00000000 0.00000322 0.79057548
0.00000000 0.00000322 0.79055348
0.00000000 0.00000322 0.79048105
0.00000000 0.00000322 0.79024250
0.06928224 0.00000000 0.78948837
0.39148788 0.00000000 0.78754353
0.97843960 0.00000000 0.81824233
0.00000000 0.00000322 0.79053816
0.00000000 0.00000322 0.79053816
0.00000000 0.00000322 0.79053088
0.00000000 0.00000322 0.79050888
0.00000000 0.00000322 0.79043644
0.00000000 0.00000322 0.79019789
0.06867283 0.00000000 0.78944335
0.39123381 0.00000000 0.78749784
0.97829245 0.00000000 0.81819813
0.00000000 0.00000322 0.79040334
0.00000000 0.00000322 0.79040334
0.00000000 0.00000322 0.79039606
0.00000000 0.00000322 0.79037406
0.00000000 0.00000322 0.79030162
0.00000000 0.00000322 0.79006303
0.06681952 0.00000000 0.78930730
0.39046526 0.00000000 0.78735975
0.97784757 0.00000000 0.81806455
0.00000000 0.00000322 0.78995931
0.00000000 0.00000322 0.78995931
0.00000000 0.00000322 0.78995203
0.00000000 0.00000322 0.78993002
0.00000000 0.00000322 0.78985755
0.00000000 0.00000322 0.78961887
0.06059127 0.00000000 0.78885929
0.38792811 0.00000000 0.78690497
0.97638166 0.00000000 0.81762464
0.00000000 0.00000322 0.78849603
0.00000000 0.00000322 0.78849603
0.00000000 0.00000322 0.78848874
0.00000000 0.00000322 0.78846671
0.00000000 0.00000322 0.78839414
0.00000000 0.00000322 0.78815518
0.03852528 0.00000000 0.78738406
0.37950224 0.00000000 0.78540657
0.97154367 0.00000000 0.81617534
0.00000000 0.00000321 0.78366503
0.00000000 0.00000321 0.78366503
0.00000000 0.00000321 0.78365771
0.00000000 0.00000321 0.78363559
0.00000000 0.00000321 0.78356273
0.00000000 0.00000321 0.78332280
0.00000000 0.00000321 0.78253240
0.35092321 0.00000000 0.78046315
0.95549176 0.00000000 0.81139514
0.00000000 0.25573153 0.76860480
0.00000000 0.25573153 0.76860480
0.00000000 0.25565966 0.76859683
0.00000000 0.25544234 0.76857273
0.00000000 0.25472595 0.76849338
0.00000000 0.25235849 0.76823213
0.00000000 0.24446755 0.76737221
0.10957007 0.00000000 0.79113251
0.90746017 0.00000000 0.79954042
0.00000000 0.70613535 0.75993792
0.00000000 0.70613535 0.75993792
0.00000000 0.70609550 0.75992975
0.00000000 0.70597504 0.75990503
0.00000000 0.70557827 0.75982364
0.00000000 0.70427065 0.75955564
0.00000000 0.69995259 0.75867316
0.00000000 0.68559742 0.75576733
0.69977206 0.65281717 0.75141464
