luts/S9_VLog_to_gold200.cube
# Film Emulation LUT
# Generated by lutex.py
# Grid: 33³
TITLE "Panasonic S9 V-Log to Kodak Gold 200 (Warm Golden) v2"
LUT_3D_SIZE 33
DOMAIN_MIN 0.0 0.0 0.0
DOMAIN_MAX 1.0 1.0 1.0
0.00000125 0.00000117 0.00000092
0.00000125 0.00000117 0.00000092
0.00000125 0.00000117 0.00000092
0.00000125 0.00000117 0.00000092
0.00000125 0.00000117 0.00000092
0.00000000 0.00000000 0.00000000
0.00000125 0.00000117 0.00000092
0.00000125 0.00000117 0.00000092
0.00000125 0.00000117 0.00000092
0.00000125 0.00000117 0.00000092
0.00000125 0.00000117 0.00000092
0.00000125 0.00000117 0.00000092
0.00000125 0.00000117 0.00000092
0.00000125 0.00000117 0.00000092
0.00000125 0.00000117 0.00000092
0.00000125 0.00000117 0.00000092
0.00000125 0.00000117 0.00000092
0.00000125 0.00000117 0.00000092
0.00000000 0.00000000 0.00000000
0.00000000 0.00000000 0.00000000
0.00000000 0.00000000 0.00000000
0.00000000 0.00000000 0.00000000
0.00000000 0.00000000 0.00000000
0.00000000 0.00000000 0.00000000
0.00000000 0.00000000 0.00000000
0.00000000 0.00000000 0.00000000
0.00000000 0.00000000 0.00000000
0.00000000 0.06466043 0.19745286
0.00000000 0.12177625 0.31795259
0.00000000 0.17423692 0.42863117
0.00000000 0.22818231 0.54244209
0.00000000 0.28641430 0.66529666
0.00000000 0.35095039 0.80145128
0.00000125 0.00000117 0.00000092
0.00000125 0.00000117 0.00000092
0.00000125 0.00000117 0.00000092
0.00000125 0.00000117 0.00000092
0.00000125 0.00000117 0.00000092
0.00000000 0.00000000 0.00000000
0.00000125 0.00000117 0.00000092
0.00000125 0.00000117 0.00000092
0.00000125 0.00000117 0.00000092
0.00000125 0.00000117 0.00000092
0.00000125 0.00000117 0.00000092
0.00000125 0.00000117 0.00000092
0.00000125 0.00000117 0.00000092
0.00000125 0.00000117 0.00000092
0.00000125 0.00000117 0.00000092
0.00000125 0.00000117 0.00000092
0.00000125 0.00000117 0.00000092
0.00000125 0.00000117 0.00000092
0.00000000 0.00000000 0.00000000
0.00000000 0.00000000 0.00000000
0.00000000 0.00000000 0.00000000
0.00000000 0.00000000 0.00000000
0.00000000 0.00000000 0.00000000
0.00000000 0.00000000 0.00000000
0.00000000 0.00000000 0.00000000
0.00000000 0.00000000 0.00000000
0.00000000 0.00000000 0.00000000
0.00000000 0.06466043 0.19745286
0.00000000 0.12177625 0.31795259
0.00000000 0.17423692 0.42863117
0.00000000 0.22818231 0.54244209
0.00000000 0.28641430 0.66529666
0.00000000 0.35095039 0.80145128
0.00000125 0.00000117 0.00000092
0.00000125 0.00000117 0.00000092
0.00000125 0.00000117 0.00000092
0.00000125 0.00000117 0.00000092
0.00000125 0.00000117 0.00000092
0.00000000 0.00000000 0.00000000
0.00000125 0.00000117 0.00000092
0.00000125 0.00000117 0.00000092
0.00000125 0.00000117 0.00000092
0.00000125 0.00000117 0.00000092
0.00000125 0.00000117 0.00000092
0.00000125 0.00000117 0.00000092
0.00000125 0.00000117 0.00000092
0.00000125 0.00000117 0.00000092
0.00000125 0.00000117 0.00000092
0.00000125 0.00000117 0.00000092
0.00000125 0.00000117 0.00000092
0.00000125 0.00000117 0.00000092
0.00000000 0.00000000 0.00000000
0.00000000 0.00000000 0.00000000
0.00000000 0.00000000 0.00000000
0.00000000 0.00000000 0.00000000
0.00000000 0.00000000 0.00000000
0.00000000 0.00000000 0.00000000
0.00000000 0.00000000 0.00000000
0.00000000 0.00000000 0.00000000
0.00000000 0.00000000 0.00000000
0.00000000 0.06466043 0.19745286
0.00000000 0.12177625 0.31795259
0.00000000 0.17423692 0.42863117
0.00000000 0.22818231 0.54244209
0.00000000 0.28641430 0.66529666
0.00000000 0.35095039 0.80145128
0.00000125 0.00000117 0.00000092
0.00000125 0.00000117 0.00000092
0.00000125 0.00000117 0.00000092
0.00000125 0.00000117 0.00000092
0.00000125 0.00000117 0.00000092
0.00000000 0.00000000 0.00000000
0.00000125 0.00000117 0.00000092
0.00000125 0.00000117 0.00000092
0.00000125 0.00000117 0.00000092
0.00000125 0.00000117 0.00000092
0.00000125 0.00000117 0.00000092
0.00000125 0.00000117 0.00000092
0.00000125 0.00000117 0.00000092
0.00000125 0.00000117 0.00000092
0.00000125 0.00000117 0.00000092
0.00000125 0.00000117 0.00000092
0.00000125 0.00000117 0.00000092
0.00000125 0.00000117 0.00000092
0.00000000 0.00000000 0.00000000
0.00000000 0.00000000 0.00000000
0.00000000 0.00000000 0.00000000
0.00000000 0.00000000 0.00000000
0.00000000 0.00000000 0.00000000
0.00000000 0.00000000 0.00000000
0.00000000 0.00000000 0.00000000
0.00000000 0.00000000 0.00000000
0.00000000 0.00000000 0.00000000
0.00000000 0.06466043 0.19745286
0.00000000 0.12177625 0.31795259
0.00000000 0.17423692 0.42863117
0.00000000 0.22818231 0.54244209
0.00000000 0.28641430 0.66529666
0.00000000 0.35095039 0.80145128
0.00000125 0.00000117 0.00000092
0.00000125 0.00000117 0.00000092
0.00000125 0.00000117 0.00000092
0.00000125 0.00000117 0.00000092
0.00000125 0.00000117 0.00000092
0.00000000 0.00000000 0.00000000
0.00000125 0.00000117 0.00000092
0.00000125 0.00000117 0.00000092
0.00000125 0.00000117 0.00000092
0.00000125 0.00000117 0.00000092
0.00000125 0.00000117 0.00000092
0.00000125 0.00000117 0.00000092
0.00000125 0.00000117 0.00000092
0.00000125 0.00000117 0.00000092
0.00000125 0.00000117 0.00000092
0.00000125 0.00000117 0.00000092
0.00000125 0.00000117 0.00000092
0.00000125 0.00000117 0.00000092
0.00000000 0.00000000 0.00000000
0.00000000 0.00000000 0.00000000
0.00000000 0.00000000 0.00000000
0.00000000 0.00000000 0.00000000
0.00000000 0.00000000 0.00000000
0.00000000 0.00000000 0.00000000
0.00000000 0.00000000 0.00000000
0.00000000 0.00000000 0.00000000
0.00000000 0.00000000 0.00000000
0.00000000 0.06466043 0.19745286
0.00000000 0.12177625 0.31795259
0.00000000 0.17423692 0.42863117
0.00000000 0.22818231 0.54244209
0.00000000 0.28641430 0.66529666
0.00000000 0.35095039 0.80145128
0.00000112 0.00000352 0.00000079
0.00000112 0.00000352 0.00000079
0.00000112 0.00000352 0.00000079
0.00000112 0.00000352 0.00000079
0.00000112 0.00000352 0.00000079
0.00000112 0.00000319 0.00000229
0.00000112 0.00000352 0.00000079
0.00000112 0.00000352 0.00000079
0.00000112 0.00000352 0.00000079
0.00000112 0.00000352 0.00000079
0.00000112 0.00000352 0.00000079
0.00000112 0.00000352 0.00000079
0.00000112 0.00000352 0.00000079
0.00000112 0.00000352 0.00000079
0.00000112 0.00000352 0.00000079
0.00000112 0.00000352 0.00000079
0.00000112 0.00000352 0.00000079
0.00000112 0.00000352 0.00000079
0.00000000 0.00000000 0.00000000
0.00000000 0.00000000 0.00000000
0.00000000 0.00000000 0.00000000
0.00000000 0.00000000 0.00000000
0.00000000 0.00000000 0.00000000
0.00000000 0.00000000 0.00000000
0.00000000 0.00000000 0.00000000
0.00000000 0.00000000 0.00000000
0.00000000 0.00000000 0.00000000
0.00000000 0.06466030 0.19745258
0.00000000 0.12177616 0.31795242
0.00000000 0.17423686 0.42863104
0.00000000 0.22818226 0.54244200
0.00000000 0.28641426 0.66529658
0.00000000 0.35095036 0.80145121
0.00000125 0.00000117 0.00000092
0.00000125 0.00000117 0.00000092
0.00000125 0.00000117 0.00000092
0.00000125 0.00000117 0.00000092
0.00000125 0.00000117 0.00000092
0.00000000 0.00000000 0.00000000
0.00000125 0.00000117 0.00000092
0.00000125 0.00000117 0.00000092
0.00000125 0.00000117 0.00000092
0.00000125 0.00000117 0.00000092
0.00000125 0.00000117 0.00000092
0.00000125 0.00000117 0.00000092
0.00000125 0.00000117 0.00000092
0.00000125 0.00000117 0.00000092
0.00000125 0.00000117 0.00000092
0.00000125 0.00000117 0.00000092
0.00000125 0.00000117 0.00000092
0.00000125 0.00000117 0.00000092
0.00000000 0.00000000 0.00000000
0.00000000 0.00000000 0.00000000
0.00000000 0.00000000 0.00000000
0.00000000 0.00000000 0.00000000
0.00000000 0.00000000 0.00000000
0.00000000 0.00000000 0.00000000
0.00000000 0.00000000 0.00000000
0.00000000 0.00000000 0.00000000
0.00000000 0.00000000 0.00000000
0.00000000 0.06466043 0.19745286
0.00000000 0.12177625 0.31795259
0.00000000 0.17423692 0.42863117
0.00000000 0.22818231 0.54244209
0.00000000 0.28641430 0.66529666
0.00000000 0.35095039 0.80145128
0.00000125 0.00000117 0.00000092
0.00000125 0.00000117 0.00000092
0.00000125 0.00000117 0.00000092
0.00000125 0.00000117 0.00000092
0.00000125 0.00000117 0.00000092
0.00000000 0.00000000 0.00000000
0.00000125 0.00000117 0.00000092
0.00000125 0.00000117 0.00000092
0.00000125 0.00000117 0.00000092
0.00000125 0.00000117 0.00000092
0.00000125 0.00000117 0.00000092
0.00000125 0.00000117 0.00000092
0.00000125 0.00000117 0.00000092
0.00000125 0.00000117 0.00000092
0.00000125 0.00000117 0.00000092
0.00000125 0.00000117 0.00000092
0.00000125 0.00000117 0.00000092
0.00000125 0.00000117 0.00000092
0.00000000 0.00000000 0.00000000
0.00000000 0.00000000 0.00000000
0.00000000 0.00000000 0.00000000
0.00000000 0.00000000 0.00000000
0.00000000 0.00000000 0.00000000
0.00000000 0.00000000 0.00000000
0.00000000 0.00000000 0.00000000
0.00000000 0.00000000 0.00000000
0.00000000 0.00000000 0.00000000
0.00000000 0.06466043 0.19745286
0.00000000 0.12177625 0.31795259
0.00000000 0.17423692 0.42863117
0.00000000 0.22818231 0.54244209
0.00000000 0.28641430 0.66529666
0.00000000 0.35095039 0.80145128
0.00000125 0.00000117 0.00000092
0.00000125 0.00000117 0.00000092
0.00000125 0.00000117 0.00000092
0.00000125 0.00000117 0.00000092
0.00000125 0.00000117 0.00000092
0.00000000 0.00000000 0.00000000
0.00000125 0.00000117 0.00000092
0.00000125 0.00000117 0.00000092
0.00000125 0.00000117 0.00000092
0.00000125 0.00000117 0.00000092
0.00000125 0.00000117 0.00000092
0.00000125 0.00000117 0.00000092
0.00000125 0.00000117 0.00000092
0.00000125 0.00000117 0.00000092
0.00000125 0.00000117 0.00000092
0.00000125 0.00000117 0.00000092
0.00000125 0.00000117 0.00000092
0.00000125 0.00000117 0.00000092
0.00000000 0.00000000 0.00000000
0.00000000 0.00000000 0.00000000
0.00000000 0.00000000 0.00000000
0.00000000 0.00000000 0.00000000
0.00000000 0.00000000 0.00000000
0.00000000 0.00000000 0.00000000
0.00000000 0.00000000 0.00000000
0.00000000 0.00000000 0.00000000
0.00000000 0.00000000 0.00000000
0.00000000 0.06466043 0.19745286
0.00000000 0.12177625 0.31795259
0.00000000 0.17423692 0.42863117
0.00000000 0.22818231 0.54244209
0.00000000 0.28641430 0.66529666
0.00000000 0.35095039 0.80145128
0.00000125 0.00000117 0.00000092
0.00000125 0.00000117 0.00000092
0.00000125 0.00000117 0.00000092
0.00000125 0.00000117 0.00000092
0.00000125 0.00000117 0.00000092
0.00000000 0.00000000 0.00000000
0.00000125 0.00000117 0.00000092
0.00000125 0.00000117 0.00000092
0.00000125 0.00000117 0.00000092
0.00000125 0.00000117 0.00000092
0.00000125 0.00000117 0.00000092
0.00000125 0.00000117 0.00000092
0.00000125 0.00000117 0.00000092
0.00000125 0.00000117 0.00000092
0.00000125 0.00000117 0.00000092
0.00000125 0.00000117 0.00000092
0.00000125 0.00000117 0.00000092
0.00000125 0.00000117 0.00000092
0.00000000 0.00000000 0.00000000
0.00000000 0.00000000 0.00000000
0.00000000 0.00000000 0.00000000
0.00000000 0.00000000 0.00000000
0.00000000 0.00000000 0.00000000
0.00000000 0.00000000 0.00000000
0.00000000 0.00000000 0.00000000
0.00000000 0.00000000 0.00000000
0.00000000 0.00000000 0.00000000
0.00000000 0.06466043 0.19745286
0.00000000 0.12177625 0.31795259
0.00000000 0.17423692 0.42863117
0.00000000 0.22818231 0.54244209
0.00000000 0.28641430 0.66529666
0.00000000 0.35095039 0.80145128
0.00000125 0.00000117 0.00000092
0.00000125 0.00000117 0.00000092
0.00000125 0.00000117 0.00000092
0.00000125 0.00000117 0.00000092
0.00000125 0.00000117 0.00000092
0.00000000 0.00000000 0.00000000
0.00000125 0.00000117 0.00000092
0.00000125 0.00000117 0.00000092
0.00000125 0.00000117 0.00000092
0.00000125 0.00000117 0.00000092
0.00000125 0.00000117 0.00000092
0.00000125 0.00000117 0.00000092
0.00000125 0.00000117 0.00000092
0.00000125 0.00000117 0.00000092
0.00000125 0.00000117 0.00000092
0.00000125 0.00000117 0.00000092
0.00000125 0.00000117 0.00000092
0.00000125 0.00000117 0.00000092
0.00000000 0.00000000 0.00000000
0.00000000 0.00000000 0.00000000
0.00000000 0.00000000 0.00000000
0.00000000 0.00000000 0.00000000
0.00000000 0.00000000 0.00000000
0.00000000 0.00000000 0.00000000
0.00000000 0.00000000 0.00000000
0.00000000 0.00000000 0.00000000
0.00000000 0.00000000 0.00000000
0.00000000 0.06466043 0.19745286
0.00000000 0.12177625 0.31795259
0.00000000 0.17423692 0.42863117
0.00000000 0.22818231 0.54244209
0.00000000 0.28641430 0.66529666
0.00000000 0.35095039 0.80145128
0.00000125 0.00000117 0.00000092
0.00000125 0.00000117 0.00000092
0.00000125 0.00000117 0.00000092
0.00000125 0.00000117 0.00000092
0.00000125 0.00000117 0.00000092
0.00000000 0.00000000 0.00000000
0.00000125 0.00000117 0.00000092
0.00000125 0.00000117 0.00000092
0.00000125 0.00000117 0.00000092
0.00000125 0.00000117 0.00000092
0.00000125 0.00000117 0.00000092
0.00000125 0.00000117 0.00000092
0.00000125 0.00000117 0.00000092
0.00000125 0.00000117 0.00000092
0.00000125 0.00000117 0.00000092
0.00000125 0.00000117 0.00000092
0.00000125 0.00000117 0.00000092
0.00000125 0.00000117 0.00000092
0.00000000 0.00000000 0.00000000
0.00000000 0.00000000 0.00000000
0.00000000 0.00000000 0.00000000
0.00000000 0.00000000 0.00000000
0.00000000 0.00000000 0.00000000
0.00000000 0.00000000 0.00000000
0.00000000 0.00000000 0.00000000
0.00000000 0.00000000 0.00000000
0.00000000 0.00000000 0.00000000
0.00000000 0.06466043 0.19745286
0.00000000 0.12177625 0.31795259
0.00000000 0.17423692 0.42863117
0.00000000 0.22818231 0.54244209
0.00000000 0.28641430 0.66529666
0.00000000 0.35095039 0.80145128
0.00000125 0.00000117 0.00000092
0.00000125 0.00000117 0.00000092
0.00000125 0.00000117 0.00000092
0.00000125 0.00000117 0.00000092
0.00000125 0.00000117 0.00000092
0.00000000 0.00000000 0.00000000
0.00000125 0.00000117 0.00000092
0.00000125 0.00000117 0.00000092
0.00000125 0.00000117 0.00000092
0.00000125 0.00000117 0.00000092
0.00000125 0.00000117 0.00000092
0.00000125 0.00000117 0.00000092
0.00000125 0.00000117 0.00000092
0.00000125 0.00000117 0.00000092
0.00000125 0.00000117 0.00000092
0.00000125 0.00000117 0.00000092
0.00000125 0.00000117 0.00000092
0.00000125 0.00000117 0.00000092
0.00000000 0.00000000 0.00000000
0.00000000 0.00000000 0.00000000
0.00000000 0.00000000 0.00000000
0.00000000 0.00000000 0.00000000
0.00000000 0.00000000 0.00000000
0.00000000 0.00000000 0.00000000
0.00000000 0.00000000 0.00000000
0.00000000 0.00000000 0.00000000
0.00000000 0.00000000 0.00000000
0.00000000 0.06466043 0.19745286
0.00000000 0.12177625 0.31795259
0.00000000 0.17423692 0.42863117
0.00000000 0.22818231 0.54244209
0.00000000 0.28641430 0.66529666
0.00000000 0.35095039 0.80145128
0.00000125 0.00000117 0.00000092
0.00000125 0.00000117 0.00000092
0.00000125 0.00000117 0.00000092
0.00000125 0.00000117 0.00000092
0.00000125 0.00000117 0.00000092
0.00000000 0.00000000 0.00000000
0.00000125 0.00000117 0.00000092
0.00000125 0.00000117 0.00000092
0.00000125 0.00000117 0.00000092
0.00000125 0.00000117 0.00000092
0.00000125 0.00000117 0.00000092
0.00000125 0.00000117 0.00000092
0.00000125 0.00000117 0.00000092
0.00000125 0.00000117 0.00000092
0.00000125 0.00000117 0.00000092
0.00000125 0.00000117 0.00000092
0.00000125 0.00000117 0.00000092
0.00000125 0.00000117 0.00000092
0.00000000 0.00000000 0.00000000
0.00000000 0.00000000 0.00000000
0.00000000 0.00000000 0.00000000
0.00000000 0.00000000 0.00000000
0.00000000 0.00000000 0.00000000
0.00000000 0.00000000 0.00000000
0.00000000 0.00000000 0.00000000
0.00000000 0.00000000 0.00000000
0.00000000 0.00000000 0.00000000
0.00000000 0.06466043 0.19745286
0.00000000 0.12177625 0.31795259
0.00000000 0.17423692 0.42863117
0.00000000 0.22818231 0.54244209
0.00000000 0.28641430 0.66529666
0.00000000 0.35095039 0.80145128
0.00000125 0.00000117 0.00000092
0.00000125 0.00000117 0.00000092
0.00000125 0.00000117 0.00000092
0.00000125 0.00000117 0.00000092
0.00000125 0.00000117 0.00000092
0.00000000 0.00000000 0.00000000
0.00000125 0.00000117 0.00000092
0.00000125 0.00000117 0.00000092
0.00000125 0.00000117 0.00000092
0.00000125 0.00000117 0.00000092
0.00000125 0.00000117 0.00000092
0.00000125 0.00000117 0.00000092
0.00000125 0.00000117 0.00000092
0.00000125 0.00000117 0.00000092
0.00000125 0.00000117 0.00000092
0.00000125 0.00000117 0.00000092
0.00000125 0.00000117 0.00000092
0.00000125 0.00000117 0.00000092
0.00000000 0.00000000 0.00000000
0.00000000 0.00000000 0.00000000
0.00000000 0.00000000 0.00000000
0.00000000 0.00000000 0.00000000
0.00000000 0.00000000 0.00000000
0.00000000 0.00000000 0.00000000
0.00000000 0.00000000 0.00000000
0.00000000 0.00000000 0.00000000
0.00000000 0.00000000 0.00000000
0.00000000 0.06466043 0.19745286
0.00000000 0.12177625 0.31795259
0.00000000 0.17423692 0.42863117
0.00000000 0.22818231 0.54244209
0.00000000 0.28641430 0.66529666
0.00000000 0.35095039 0.80145128
0.00000125 0.00000117 0.00000092
0.00000125 0.00000117 0.00000092
0.00000125 0.00000117 0.00000092
0.00000125 0.00000117 0.00000092
0.00000125 0.00000117 0.00000092
0.00000000 0.00000000 0.00000000
0.00000125 0.00000117 0.00000092
0.00000125 0.00000117 0.00000092
0.00000125 0.00000117 0.00000092
0.00000125 0.00000117 0.00000092
0.00000125 0.00000117 0.00000092
0.00000125 0.00000117 0.00000092
0.00000125 0.00000117 0.00000092
0.00000125 0.00000117 0.00000092
0.00000125 0.00000117 0.00000092
0.00000125 0.00000117 0.00000092
0.00000125 0.00000117 0.00000092
0.00000125 0.00000117 0.00000092
0.00000000 0.00000000 0.00000000
0.00000000 0.00000000 0.00000000
0.00000000 0.00000000 0.00000000
0.00000000 0.00000000 0.00000000
0.00000000 0.00000000 0.00000000
0.00000000 0.00000000 0.00000000
0.00000000 0.00000000 0.00000000
0.00000000 0.00000000 0.00000000
0.00000000 0.00000000 0.00000000
0.00000000 0.06466043 0.19745286
0.00000000 0.12177625 0.31795259
0.00000000 0.17423692 0.42863117
0.00000000 0.22818231 0.54244209
0.00000000 0.28641430 0.66529666
0.00000000 0.35095039 0.80145128
0.00000125 0.00000117 0.00000092
0.00000125 0.00000117 0.00000092
0.00000125 0.00000117 0.00000092
0.00000125 0.00000117 0.00000092
0.00000125 0.00000117 0.00000092
0.00000000 0.00000000 0.00000000
0.00000125 0.00000117 0.00000092
0.00000125 0.00000117 0.00000092
0.00000125 0.00000117 0.00000092
0.00000125 0.00000117 0.00000092
0.00000125 0.00000117 0.00000092
0.00000125 0.00000117 0.00000092
0.00000125 0.00000117 0.00000092
0.00000125 0.00000117 0.00000092
0.00000125 0.00000117 0.00000092
0.00000125 0.00000117 0.00000092
0.00000125 0.00000117 0.00000092
0.00000125 0.00000117 0.00000092
0.00000000 0.00000000 0.00000000
0.00000000 0.00000000 0.00000000
0.00000000 0.00000000 0.00000000
0.00000000 0.00000000 0.00000000
0.00000000 0.00000000 0.00000000
0.00000000 0.00000000 0.00000000
0.00000000 0.00000000 0.00000000
0.00000000 0.00000000 0.00000000
0.00000000 0.00000000 0.00000000
0.00000000 0.06466043 0.19745286
0.00000000 0.12177625 0.31795259
0.00000000 0.17423692 0.42863117
0.00000000 0.22818231 0.54244209
0.00000000 0.28641430 0.66529666
0.00000000 0.35095039 0.80145128
0.00000125 0.00000117 0.00000092
0.00000125 0.00000117 0.00000092
0.00000125 0.00000117 0.00000092
0.00000125 0.00000117 0.00000092
0.00000125 0.00000117 0.00000092
0.00000000 0.00000000 0.00000000
0.00000125 0.00000117 0.00000092
0.00000125 0.00000117 0.00000092
0.00000125 0.00000117 0.00000092
0.00000125 0.00000117 0.00000092
0.00000125 0.00000117 0.00000092
0.00000125 0.00000117 0.00000092
0.00000125 0.00000117 0.00000092
0.00000125 0.00000117 0.00000092
0.00000125 0.00000117 0.00000092
0.00000125 0.00000117 0.00000092
0.00000125 0.00000117 0.00000092
0.00000125 0.00000117 0.00000092
0.00000000 0.00000000 0.00000000
0.00000000 0.00000000 0.00000000
0.00000000 0.00000000 0.00000000
0.00000000 0.00000000 0.00000000
0.00000000 0.00000000 0.00000000
0.00000000 0.00000000 0.00000000
0.00000000 0.00000000 0.00000000
0.00000000 0.00000000 0.00000000
0.00000000 0.00000000 0.00000000
0.00000000 0.06466043 0.19745286
0.00000000 0.12177625 0.31795259
0.00000000 0.17423692 0.42863117
0.00000000 0.22818231 0.54244209
0.00000000 0.28641430 0.66529666
0.00000000 0.35095039 0.80145128
0.00000029 0.00866984 0.00000000
0.00000029 0.00866984 0.00000000
0.00000029 0.00866984 0.00000000
0.00000029 0.00866984 0.00000000
0.00000029 0.00866984 0.00000000
0.00000029 0.00866938 0.00000000
0.00000029 0.00866984 0.00000000
0.00000029 0.00866984 0.00000000
0.00000029 0.00866984 0.00000000
0.00000029 0.00866984 0.00000000
0.00000029 0.00866984 0.00000000
0.00000029 0.00866984 0.00000000
0.00000029 0.00866984 0.00000000
0.00000029 0.00866984 0.00000000
0.00000029 0.00866984 0.00000000
0.00000029 0.00866984 0.00000000
0.00000029 0.00866984 0.00000000
0.00000029 0.00866984 0.00000000
0.00000000 0.00761276 0.00624848
0.00000000 0.00000000 0.00000000
0.00000000 0.00000000 0.00000000
0.00000000 0.00000000 0.00000000
0.00000000 0.00000000 0.00000000
0.00000000 0.00000000 0.00000000
0.00000000 0.00000000 0.00000000
0.00000000 0.00000000 0.00000000
0.00000000 0.00000000 0.00000000
0.00000000 0.06435111 0.19680028
0.00000000 0.12158705 0.31755344
0.00000000 0.17409799 0.42833805
0.00000000 0.22807309 0.54221168
0.00000000 0.28632544 0.66510919
0.00000000 0.35087662 0.80129564
0.00000029 0.03362770 0.00000000
0.00000029 0.03362770 0.00000000
0.00000029 0.03362770 0.00000000
0.00000029 0.03362770 0.00000000
0.00000029 0.03362770 0.00000000
0.00000029 0.03362715 0.00000000
0.00000029 0.03362770 0.00000000
0.00000029 0.03362770 0.00000000
0.00000029 0.03362770 0.00000000
0.00000029 0.03362770 0.00000000
0.00000029 0.03362770 0.00000000
0.00000029 0.03362770 0.00000000
0.00000029 0.03362770 0.00000000
0.00000029 0.03362770 0.00000000
0.00000029 0.03362770 0.00000000
0.00000029 0.03362770 0.00000000
0.00000029 0.03362770 0.00000000
0.00000029 0.03362770 0.00000000
0.00000000 0.03235122 0.00384604
0.00000000 0.02959107 0.02499986
0.00000000 0.00000000 0.00000000
0.00000000 0.00000000 0.00000000
0.00000000 0.00000000 0.00000000
0.00000000 0.00000000 0.00000000
0.00000000 0.00000000 0.00000000
0.00000000 0.00000000 0.00000000
0.00000000 0.00000000 0.00000000
0.00000000 0.06367313 0.19536992
0.00000000 0.12117373 0.31668143
0.00000000 0.17379475 0.42769830
0.00000000 0.22783482 0.54170899
0.00000000 0.28613162 0.66470029
0.00000000 0.35071574 0.80095622
0.00000029 0.06627056 0.00000000
0.00000029 0.06627056 0.00000000
0.00000029 0.06627056 0.00000000
0.00000029 0.06627056 0.00000000
0.00000029 0.06627056 0.00000000
0.00000029 0.06627013 0.00000000
0.00000029 0.06627056 0.00000000
0.00000029 0.06627056 0.00000000
0.00000029 0.06627056 0.00000000
0.00000029 0.06627056 0.00000000
0.00000029 0.06627056 0.00000000
0.00000029 0.06627056 0.00000000
0.00000029 0.06627056 0.00000000
0.00000029 0.06627056 0.00000000
0.00000029 0.06627056 0.00000000
0.00000029 0.06627056 0.00000000
0.00000029 0.06627056 0.00000000
0.00000029 0.06627056 0.00000000
0.00000000 0.06527070 0.00100030
0.00000000 0.06305851 0.02092168
0.00000000 0.06000560 0.05290954
0.00000000 0.00000000 0.00000000
0.00000000 0.00000000 0.00000000
0.00000000 0.00000000 0.00000000
0.00000000 0.00000000 0.00000000
0.00000000 0.00000000 0.00000000
0.00000000 0.00000000 0.00000000
0.00000000 0.06275182 0.19342618
0.00000000 0.12061508 0.31550282
0.00000000 0.17338553 0.42683494
0.00000000 0.22751350 0.54103109
0.00000000 0.28587035 0.66414907
0.00000000 0.35049892 0.80049878
0.00000029 0.09924343 0.00000000
0.00000029 0.09924343 0.00000000
0.00000029 0.09924343 0.00000000
0.00000029 0.09924343 0.00000000
0.00000029 0.09924343 0.00000000
0.00000029 0.09924310 0.00000000
0.00000029 0.09924343 0.00000000
0.00000029 0.09924343 0.00000000
0.00000029 0.09924343 0.00000000
0.00000029 0.09924343 0.00000000
0.00000029 0.09924343 0.00000000
0.00000029 0.09924343 0.00000000
0.00000029 0.09924343 0.00000000
0.00000029 0.09924343 0.00000000
0.00000029 0.09924343 0.00000000
0.00000029 0.09924343 0.00000000
0.00000029 0.09924343 0.00000000
0.00000029 0.09924343 0.00000000
0.00000029 0.09847398 0.00000000
0.00000000 0.09678185 0.01561549
0.00000000 0.09446932 0.04760376
0.00000000 0.09129147 0.08295483
0.00000000 0.09465537 0.11925316
0.00000000 0.00000000 0.00000000
0.00000000 0.00000000 0.00000000
0.00000000 0.00000000 0.00000000
0.00000000 0.00000000 0.00000000
0.00000000 0.06341823 0.19079652
