luts/S9_VLog_to_ricoh_negative_film.cube
# Film Emulation LUT
# Generated by lutex.py
# Grid: 33³
TITLE "Panasonic S9 V-Log to Ricoh Negative Film (ネガフィルム調)"
LUT_3D_SIZE 5
DOMAIN_MIN 0.0 0.0 0.0
DOMAIN_MAX 1.0 1.0 1.0
0.00000011 0.00000011 0.00000011
0.00000011 0.00000011 0.00000011
0.00000011 0.00000011 0.00000011
0.01647554 0.01647554 0.14689668
0.20678716 0.20678716 0.75007385
0.00000011 0.00000011 0.00000011
0.00000011 0.00000011 0.00000011
0.00000011 0.00000011 0.00000011
0.01647554 0.01647554 0.14689668
0.20678716 0.20678716 0.75007385
0.00000011 0.00000011 0.00000011
0.00000011 0.00000011 0.00000011
0.00000011 0.00000011 0.00000011
0.01647554 0.01647554 0.14689668
0.20678716 0.20678716 0.75007385
0.03348743 0.15582666 0.03348743
0.03348743 0.15582666 0.03348743
0.03348743 0.15582666 0.03348743
0.02897330 0.14348325 0.12994819
0.20527655 0.20527655 0.74542827
0.29700396 0.78616220 0.29700396
0.29700396 0.78616220 0.29700396
0.29700396 0.78616220 0.29700396
0.29538838 0.78230153 0.29538837
0.27642339 0.73698208 0.67868042
0.00000011 0.00000011 0.00000011
0.00000011 0.00000011 0.00000011
0.00000011 0.00000011 0.00000011
0.01647554 0.01647554 0.14689668
0.20678716 0.20678716 0.75007385
0.00000011 0.00000011 0.00000011
0.00000011 0.00000011 0.00000011
0.00000011 0.00000011 0.00000011
0.01647554 0.01647554 0.14689668
0.20678716 0.20678716 0.75007385
0.00000011 0.00000011 0.00000011
0.00000011 0.00000011 0.00000011
0.00000011 0.00000011 0.00000011
0.01647554 0.01647554 0.14689668
0.20678716 0.20678716 0.75007385
0.03348743 0.15582666 0.03348743
0.03348743 0.15582666 0.03348743
0.03348743 0.15582666 0.03348743
0.02897330 0.14348325 0.12994819
0.20527655 0.20527655 0.74542827
0.29700396 0.78616220 0.29700396
0.29700396 0.78616220 0.29700396
0.29700396 0.78616220 0.29700396
0.29538838 0.78230153 0.29538837
0.27642339 0.73698208 0.67868042
0.00000011 0.00000011 0.00000011
0.00000011 0.00000011 0.00000011
0.00000011 0.00000011 0.00000011
0.01647554 0.01647554 0.14689668
0.20678716 0.20678716 0.75007385
0.00000011 0.00000011 0.00000011
0.00000011 0.00000011 0.00000011
0.00000011 0.00000011 0.00000011
0.01647554 0.01647554 0.14689668
0.20678716 0.20678716 0.75007385
0.00000011 0.00000011 0.00000011
0.00000011 0.00000011 0.00000011
0.00000011 0.00000011 0.00000011
0.01647554 0.01647554 0.14689668
0.20678716 0.20678716 0.75007385
0.03348743 0.15582666 0.03348743
0.03348743 0.15582666 0.03348743
0.03348743 0.15582666 0.03348743
0.02897330 0.14348325 0.12994819
0.20527655 0.20527655 0.74542827
0.29700396 0.78616220 0.29700396
0.29700396 0.78616220 0.29700396
0.29700396 0.78616220 0.29700396
0.29538838 0.78230153 0.29538837
0.27642339 0.73698208 0.67868042
0.19684156 0.05038906 0.05038906
0.19684156 0.05038906 0.05038906
0.19684156 0.05038906 0.05038906
0.18824231 0.04679051 0.14709067
0.22056072 0.20653627 0.74930229
0.19684156 0.05038906 0.05038906
0.19684156 0.05038906 0.05038906
0.19684156 0.05038906 0.05038906
0.18824231 0.04679051 0.14709067
0.22056072 0.20653627 0.74930229
0.19684156 0.05038906 0.05038906
0.19684156 0.05038906 0.05038906
0.19684156 0.05038906 0.05038906
0.18824231 0.04679051 0.14709067
0.22056072 0.20653627 0.74930229
0.13819034 0.14027311 0.02786138
0.13819034 0.14027311 0.02786138
0.13819034 0.14027311 0.02786138
0.13593218 0.13594593 0.13460592
0.20502936 0.20502936 0.74466809
0.29498043 0.78132669 0.29498043
0.29498043 0.78132669 0.29498043
0.29498043 0.78132669 0.29498043
0.29335712 0.77744757 0.29335712
0.27429632 0.73189915 0.67737162
0.95670308 0.36837077 0.36837077
0.95670308 0.36837077 0.36837077
0.95670308 0.36837077 0.36837077
0.95395259 0.36721976 0.38323678
0.92293280 0.35423881 0.75015029
0.95670308 0.36837077 0.36837077
0.95670308 0.36837077 0.36837077
0.95670308 0.36837077 0.36837077
0.95395259 0.36721976 0.38323678
0.92293280 0.35423881 0.75015029
0.95670308 0.36837077 0.36837077
0.95670308 0.36837077 0.36837077
0.95670308 0.36837077 0.36837077
0.95395259 0.36721976 0.38323678
0.92293280 0.35423881 0.75015029
0.93913464 0.36101884 0.36101884
0.93913464 0.36101884 0.36101884
0.93913464 0.36101884 0.36101884
0.93633879 0.35984885 0.37258442
0.90483842 0.34666679 0.74350614
0.72741527 0.72457662 0.27248657
0.72741527 0.72457662 0.27248657
0.72741527 0.72457662 0.27248657
0.72383499 0.72054490 0.27092169
0.71669797 0.70769854 0.69808597
