luts/S9_VLog_to_hassy_blue.cube
# Film Emulation LUT
# Generated by lutex.py
# Grid: 33³
TITLE "Panasonic S9 V-Log to Hasselblad HNCS (Natural Color)"
LUT_3D_SIZE 5
DOMAIN_MIN 0.0 0.0 0.0
DOMAIN_MAX 1.0 1.0 1.0
0.00000000 0.00000000 0.00000000
0.00000000 0.00000000 0.00000000
0.00000000 0.00000000 0.00000000
0.00000000 0.00000000 0.00000000
0.00000000 0.00000000 0.74230299
0.00000000 0.00000000 0.00000000
0.00000000 0.00000000 0.00000000
0.00000000 0.00000000 0.00000000
0.00000000 0.00000000 0.00000000
0.00000000 0.00000000 0.74230299
0.00000000 0.00000000 0.00000000
0.00000000 0.00000000 0.00000000
0.00000000 0.00000000 0.00000000
0.00000000 0.00000000 0.00000000
0.00000000 0.00000000 0.74230299
0.00000006 0.13209454 0.00000006
0.00000006 0.13209454 0.00000006
0.00000006 0.13209454 0.00000006
0.00000006 0.12000734 0.10816212
0.00000000 0.00000000 0.73679806
0.00000006 0.81123408 0.00000006
0.00000006 0.81123408 0.00000006
0.00000006 0.81123408 0.00000006
0.00000006 0.80683087 0.00000006
0.00000006 0.75530895 0.70051190
0.00000000 0.00000000 0.00000000
0.00000000 0.00000000 0.00000000
0.00000000 0.00000000 0.00000000
0.00000000 0.00000000 0.00000000
0.00000000 0.00000000 0.74230299
0.00000000 0.00000000 0.00000000
0.00000000 0.00000000 0.00000000
0.00000000 0.00000000 0.00000000
0.00000000 0.00000000 0.00000000
0.00000000 0.00000000 0.74230299
0.00000000 0.00000000 0.00000000
0.00000000 0.00000000 0.00000000
0.00000000 0.00000000 0.00000000
0.00000000 0.00000000 0.00000000
0.00000000 0.00000000 0.74230299
0.00000006 0.13209454 0.00000006
0.00000006 0.13209454 0.00000006
0.00000006 0.13209454 0.00000006
0.00000006 0.12000734 0.10816212
0.00000000 0.00000000 0.73679806
0.00000006 0.81123408 0.00000006
0.00000006 0.81123408 0.00000006
0.00000006 0.81123408 0.00000006
0.00000006 0.80683087 0.00000006
0.00000006 0.75530895 0.70051190
0.00000000 0.00000000 0.00000000
0.00000000 0.00000000 0.00000000
0.00000000 0.00000000 0.00000000
0.00000000 0.00000000 0.00000000
0.00000000 0.00000000 0.74230299
0.00000000 0.00000000 0.00000000
0.00000000 0.00000000 0.00000000
0.00000000 0.00000000 0.00000000
0.00000000 0.00000000 0.00000000
0.00000000 0.00000000 0.74230299
0.00000000 0.00000000 0.00000000
0.00000000 0.00000000 0.00000000
0.00000000 0.00000000 0.00000000
0.00000000 0.00000000 0.00000000
0.00000000 0.00000000 0.74230299
0.00000006 0.13209454 0.00000006
0.00000006 0.13209454 0.00000006
0.00000006 0.13209454 0.00000006
0.00000006 0.12000734 0.10816212
0.00000000 0.00000000 0.73679806
0.00000006 0.81123408 0.00000006
0.00000006 0.81123408 0.00000006
0.00000006 0.81123408 0.00000006
0.00000006 0.80683087 0.00000006
0.00000006 0.75530895 0.70051190
0.17096303 0.00000006 0.00000006
0.17096303 0.00000006 0.00000006
0.17096303 0.00000006 0.00000006
0.16242868 0.00000006 0.12037816
0.03595213 0.00000000 0.74140653
0.17096303 0.00000006 0.00000006
0.17096303 0.00000006 0.00000006
0.17096303 0.00000006 0.00000006
0.16242868 0.00000006 0.12037816
0.03595213 0.00000000 0.74140653
0.17096303 0.00000006 0.00000006
0.17096303 0.00000006 0.00000006
0.17096303 0.00000006 0.00000006
0.16242868 0.00000006 0.12037816
0.03595213 0.00000000 0.74140653
0.11312957 0.11687695 0.00000006
0.11312957 0.11687695 0.00000006
0.11312957 0.11687695 0.00000006
0.00000000 0.00000000 0.00000000
0.00000000 0.00000000 0.73589723
0.00000006 0.80571937 0.00000006
0.00000006 0.80571937 0.00000006
0.00000006 0.80571937 0.00000006
0.00000006 0.80129788 0.00000006
0.00000006 0.74954986 0.69960545
0.99017827 0.00000006 0.00000006
0.99017827 0.00000006 0.00000006
0.99017827 0.00000006 0.00000006
0.98705006 0.00000006 0.09222199
0.95064516 0.00000006 0.75703082
0.99017827 0.00000006 0.00000006
0.99017827 0.00000006 0.00000006
0.99017827 0.00000006 0.00000006
0.98705006 0.00000006 0.09222199
0.95064516 0.00000006 0.75703082
0.99017827 0.00000006 0.00000006
0.99017827 0.00000006 0.00000006
0.99017827 0.00000006 0.00000006
0.98705006 0.00000006 0.09222199
0.95064516 0.00000006 0.75703082
0.97046482 0.00000006 0.00000006
0.97046482 0.00000006 0.00000006
0.97046482 0.00000006 0.00000006
0.96729803 0.00000006 0.07563492
0.93042748 0.00000006 0.75171962
0.72200746 0.74082554 0.00000006
0.72200746 0.74082554 0.00000006
0.72200746 0.74082554 0.00000006
0.71823865 0.73617328 0.00000006
0.65909641 0.66680931 0.67464463
