luts/S9_VLog_to_leica_classic.cube
# Film Emulation LUT
# Generated by lutex.py
# Grid: 33³
TITLE "Panasonic S9 V-Log to Leica Classic Look — Draft v1"
LUT_3D_SIZE 5
DOMAIN_MIN 0.0 0.0 0.0
DOMAIN_MAX 1.0 1.0 1.0
0.00004713 0.00005087 0.00003217
0.00089224 0.00007817 0.00000000
0.01316933 0.00089535 0.00000000
0.20460991 0.02978439 0.00000000
1.00000000 0.35867006 0.22614482
0.00002304 0.00067729 0.00000808
0.00057269 0.00059812 0.00001113
0.01277883 0.00086932 0.00000000
0.20421302 0.02967529 0.00000000
1.00000000 0.35816134 0.22520747
0.00001395 0.00897277 0.00000000
0.00001395 0.00888461 0.00000000
0.00780227 0.00774483 0.00000000
0.19902417 0.02827035 0.00000000
1.00000000 0.35148356 0.21263155
0.00001380 0.14870406 0.00000000
0.00001380 0.14859903 0.00000000
0.00001380 0.14723269 0.00000000
0.13691241 0.13196306 0.00000000
0.99582636 0.28501378 0.00000000
0.00001230 0.77557538 0.00000000
0.00001230 0.77553820 0.00000000
0.00001230 0.77505567 0.00000000
0.00001232 0.76981022 0.00000000
0.74803400 0.71124410 0.00000000
0.00000000 0.00000000 0.00000000
0.00084184 0.00001973 0.00044634
0.01312434 0.00059788 0.00000000
0.20454668 0.02976699 0.00000000
1.00000000 0.35858904 0.22599571
0.00002492 0.00061360 0.00040430
0.00050660 0.00051969 0.00038373
0.01273398 0.00062984 0.00000000
0.20414972 0.02965791 0.00000000
1.00000000 0.35808019 0.22505768
0.00001395 0.00890235 0.00000000
0.00001396 0.00881423 0.00000000
0.00774236 0.00767489 0.00000000
0.19895997 0.02825322 0.00000000
1.00000000 0.35140063 0.21247199
0.00001380 0.14862017 0.00000000
0.00001380 0.14851511 0.00000000
0.00001380 0.14714836 0.00000000
0.13683453 0.13187383 0.00000000
0.99580315 0.28500627 0.00000000
0.00001230 0.77554568 0.00000000
0.00001230 0.77550850 0.00000000
0.00001230 0.77502596 0.00000000
0.00001232 0.76978037 0.00000000
0.74800643 0.71121256 0.00000000
0.00000000 0.00000000 0.00000000
0.00000000 0.00000000 0.00000000
0.01231805 0.00000000 0.00700968
0.20372940 0.02427307 0.00000000
1.00000000 0.35753583 0.22405112
0.00000000 0.00000000 0.00000000
0.00000000 0.00000000 0.00000000
0.01192955 0.00000000 0.00693565
0.20333158 0.02423726 0.00000000
1.00000000 0.35702525 0.22310407
0.00000000 0.00800534 0.00615355
0.00000000 0.00791775 0.00614210
0.00697439 0.00676298 0.00592045
0.19813022 0.02377276 0.00000000
1.00000000 0.35032249 0.21038966
0.00001380 0.14752938 0.00000000
0.00001380 0.14742391 0.00000000
0.00001380 0.14605183 0.00000000
0.13582196 0.13071332 0.00000000
0.99550195 0.28490881 0.00000000
0.00001230 0.77516026 0.00000000
0.00001230 0.77512307 0.00000000
0.00001230 0.77464036 0.00000000
0.00001232 0.76939294 0.00000000
0.74764864 0.71080331 0.00000000
0.00000000 0.00000000 0.00000000
0.00000000 0.00000000 0.00000000
0.00000000 0.00000000 0.00000000
0.19469819 0.00000000 0.14048755
1.00000000 0.32586186 0.20152516
0.00000000 0.00000000 0.00000000
0.00000000 0.00000000 0.00000000
0.00000000 0.00000000 0.00000000
0.19429037 0.00000000 0.14037742
1.00000000 0.32531452 0.20046145
0.00000000 0.00000000 0.00000000
0.00000000 0.00000000 0.00000000
0.00000000 0.00000000 0.00000000
0.18895581 0.00000000 0.13894492
1.00000000 0.31811679 0.18606416
0.00000000 0.13542251 0.12593993
0.00000000 0.13531227 0.12592105
0.00000000 0.13387765 0.12567592
0.12484468 0.11748734 0.12313889
0.99222084 0.26368026 0.00000000
0.00001232 0.77097269 0.00000000
0.00001232 0.77093536 0.00000000
0.00001232 0.77045082 0.00000000
0.00001234 0.76518350 0.00000000
0.74376105 0.70635535 0.00000000
0.00000000 0.00000322 0.79058276
0.00000000 0.00000322 0.79057548
0.00000000 0.00000322 0.79048105
0.06928224 0.00000000 0.78948837
0.97843960 0.00000000 0.81824233
0.00000000 0.00000322 0.79053816
0.00000000 0.00000322 0.79053088
0.00000000 0.00000322 0.79043644
0.06867283 0.00000000 0.78944335
0.97829245 0.00000000 0.81819813
0.00000000 0.00000322 0.78995931
0.00000000 0.00000322 0.78995203
0.00000000 0.00000322 0.78985755
0.06059127 0.00000000 0.78885929
0.97638166 0.00000000 0.81762464
0.00000000 0.00000321 0.78366503
0.00000000 0.00000321 0.78365771
0.00000000 0.00000321 0.78356273
0.00000000 0.00000321 0.78253240
0.95549176 0.00000000 0.81139514
0.00000000 0.70613535 0.75993792
0.00000000 0.70609550 0.75992975
0.00000000 0.70557827 0.75982364
0.00000000 0.69995259 0.75867316
0.69977206 0.65281717 0.75141464
