luts/S9_VLog_to_ricoh_positive_film.cube
# Film Emulation LUT
# Generated by lutex.py
# Grid: 33³
TITLE "Panasonic S9 V-Log to Ricoh Positive Film (ポジフィルム調)"
LUT_3D_SIZE 33
DOMAIN_MIN 0.0 0.0 0.0
DOMAIN_MAX 1.0 1.0 1.0
0.00000000 0.00000000 0.00000000
0.00000000 0.00000000 0.00000000
0.00000000 0.00000000 0.00000000
0.00000000 0.00000000 0.00000000
0.00000000 0.00000000 0.00000000
0.00000000 0.00000000 0.00000028
0.00000000 0.00000000 0.00000000
0.00000000 0.00000000 0.00000000
0.00000000 0.00000000 0.00000000
0.00000000 0.00000000 0.00000000
0.00000000 0.00000000 0.00000000
0.00000000 0.00000000 0.00000000
0.00000000 0.00000000 0.00000000
0.00000000 0.00000000 0.00000000
0.00000000 0.00000000 0.00000000
0.00000000 0.00000000 0.00000000
0.00000000 0.00000000 0.00000000
0.00000000 0.00000000 0.00000000
0.00000000 0.00003585 0.00215114
0.00000000 0.00017578 0.01054655
0.00000000 0.00042817 0.02569017
0.00000000 0.00084256 0.04974279
0.00000000 0.00149810 0.07812640
0.00000000 0.00251506 0.11020290
0.00000000 0.00407451 0.14698587
0.00000000 0.00644814 0.18956103
0.00000000 0.01004307 0.23914882
0.00000000 0.01546898 0.29715331
0.00000000 0.02363862 0.36520897
0.00000000 0.03591813 0.44523050
0.00000000 0.05295254 0.53946898
0.00000000 0.07312909 0.65057646
0.00000000 0.09693709 0.78168148
0.00000000 0.00000000 0.00000000
0.00000000 0.00000000 0.00000000
0.00000000 0.00000000 0.00000000
0.00000000 0.00000000 0.00000000
0.00000000 0.00000000 0.00000000
0.00000000 0.00000000 0.00000028
0.00000000 0.00000000 0.00000000
0.00000000 0.00000000 0.00000000
0.00000000 0.00000000 0.00000000
0.00000000 0.00000000 0.00000000
0.00000000 0.00000000 0.00000000
0.00000000 0.00000000 0.00000000
0.00000000 0.00000000 0.00000000
0.00000000 0.00000000 0.00000000
0.00000000 0.00000000 0.00000000
0.00000000 0.00000000 0.00000000
0.00000000 0.00000000 0.00000000
0.00000000 0.00000000 0.00000000
0.00000000 0.00003585 0.00215114
0.00000000 0.00017578 0.01054655
0.00000000 0.00042817 0.02569017
0.00000000 0.00084256 0.04974279
0.00000000 0.00149810 0.07812640
0.00000000 0.00251506 0.11020290
0.00000000 0.00407451 0.14698587
0.00000000 0.00644814 0.18956103
0.00000000 0.01004307 0.23914882
0.00000000 0.01546898 0.29715331
0.00000000 0.02363862 0.36520897
0.00000000 0.03591813 0.44523050
0.00000000 0.05295254 0.53946898
0.00000000 0.07312909 0.65057646
0.00000000 0.09693709 0.78168148
0.00000000 0.00000000 0.00000000
0.00000000 0.00000000 0.00000000
0.00000000 0.00000000 0.00000000
0.00000000 0.00000000 0.00000000
0.00000000 0.00000000 0.00000000
0.00000000 0.00000000 0.00000028
0.00000000 0.00000000 0.00000000
0.00000000 0.00000000 0.00000000
0.00000000 0.00000000 0.00000000
0.00000000 0.00000000 0.00000000
0.00000000 0.00000000 0.00000000
0.00000000 0.00000000 0.00000000
0.00000000 0.00000000 0.00000000
0.00000000 0.00000000 0.00000000
0.00000000 0.00000000 0.00000000
0.00000000 0.00000000 0.00000000
0.00000000 0.00000000 0.00000000
0.00000000 0.00000000 0.00000000
0.00000000 0.00003585 0.00215114
0.00000000 0.00017578 0.01054655
0.00000000 0.00042817 0.02569017
0.00000000 0.00084256 0.04974279
0.00000000 0.00149810 0.07812640
0.00000000 0.00251506 0.11020290
0.00000000 0.00407451 0.14698587
0.00000000 0.00644814 0.18956103
0.00000000 0.01004307 0.23914882
0.00000000 0.01546898 0.29715331
0.00000000 0.02363862 0.36520897
0.00000000 0.03591813 0.44523050
0.00000000 0.05295254 0.53946898
0.00000000 0.07312909 0.65057646
0.00000000 0.09693709 0.78168148
0.00000000 0.00000000 0.00000000
0.00000000 0.00000000 0.00000000
0.00000000 0.00000000 0.00000000
0.00000000 0.00000000 0.00000000
0.00000000 0.00000000 0.00000000
0.00000000 0.00000000 0.00000028
0.00000000 0.00000000 0.00000000
0.00000000 0.00000000 0.00000000
0.00000000 0.00000000 0.00000000
0.00000000 0.00000000 0.00000000
0.00000000 0.00000000 0.00000000
0.00000000 0.00000000 0.00000000
0.00000000 0.00000000 0.00000000
0.00000000 0.00000000 0.00000000
0.00000000 0.00000000 0.00000000
0.00000000 0.00000000 0.00000000
0.00000000 0.00000000 0.00000000
0.00000000 0.00000000 0.00000000
0.00000000 0.00003585 0.00215114
0.00000000 0.00017578 0.01054655
0.00000000 0.00042817 0.02569017
0.00000000 0.00084256 0.04974279
0.00000000 0.00149810 0.07812640
0.00000000 0.00251506 0.11020290
0.00000000 0.00407451 0.14698587
0.00000000 0.00644814 0.18956103
0.00000000 0.01004307 0.23914882
0.00000000 0.01546898 0.29715331
0.00000000 0.02363862 0.36520897
0.00000000 0.03591813 0.44523050
0.00000000 0.05295254 0.53946898
0.00000000 0.07312909 0.65057646
0.00000000 0.09693709 0.78168148
0.00000000 0.00000000 0.00000000
0.00000000 0.00000000 0.00000000
0.00000000 0.00000000 0.00000000
0.00000000 0.00000000 0.00000000
0.00000000 0.00000000 0.00000000
0.00000000 0.00000000 0.00000028
0.00000000 0.00000000 0.00000000
0.00000000 0.00000000 0.00000000
0.00000000 0.00000000 0.00000000
0.00000000 0.00000000 0.00000000
0.00000000 0.00000000 0.00000000
0.00000000 0.00000000 0.00000000
0.00000000 0.00000000 0.00000000
0.00000000 0.00000000 0.00000000
0.00000000 0.00000000 0.00000000
0.00000000 0.00000000 0.00000000
0.00000000 0.00000000 0.00000000
0.00000000 0.00000000 0.00000000
0.00000000 0.00003585 0.00215114
0.00000000 0.00017578 0.01054655
0.00000000 0.00042817 0.02569017
0.00000000 0.00084256 0.04974279
0.00000000 0.00149810 0.07812640
0.00000000 0.00251506 0.11020290
0.00000000 0.00407451 0.14698587
0.00000000 0.00644814 0.18956103
0.00000000 0.01004307 0.23914882
0.00000000 0.01546898 0.29715331
0.00000000 0.02363862 0.36520897
0.00000000 0.03591813 0.44523050
0.00000000 0.05295254 0.53946898
0.00000000 0.07312909 0.65057646
0.00000000 0.09693709 0.78168148
0.00000000 0.00000031 0.00000000
0.00000000 0.00000031 0.00000000
0.00000000 0.00000031 0.00000000
0.00000000 0.00000031 0.00000000
0.00000000 0.00000031 0.00000000
0.00000000 0.00000028 0.00000025
0.00000000 0.00000031 0.00000000
0.00000000 0.00000031 0.00000000
0.00000000 0.00000031 0.00000000
0.00000000 0.00000031 0.00000000
0.00000000 0.00000031 0.00000000
0.00000000 0.00000031 0.00000000
0.00000000 0.00000031 0.00000000
0.00000000 0.00000031 0.00000000
0.00000000 0.00000031 0.00000000
0.00000000 0.00000031 0.00000000
0.00000000 0.00000031 0.00000000
0.00000000 0.00000031 0.00000000
0.00000000 0.00003585 0.00215098
0.00000000 0.00017577 0.01054629
0.00000000 0.00042816 0.02568985
0.00000000 0.00084256 0.04974246
0.00000000 0.00149809 0.07812613
0.00000000 0.00251505 0.11020266
0.00000000 0.00407450 0.14698567
0.00000000 0.00644813 0.18956086
0.00000000 0.01004306 0.23914867
0.00000000 0.01546896 0.29715318
0.00000000 0.02363860 0.36520885
0.00000000 0.03591812 0.44523041
0.00000000 0.05295252 0.53946890
0.00000000 0.07312907 0.65057639
0.00000000 0.09693708 0.78168141
0.00000000 0.00000000 0.00000000
0.00000000 0.00000000 0.00000000
0.00000000 0.00000000 0.00000000
0.00000000 0.00000000 0.00000000
0.00000000 0.00000000 0.00000000
0.00000000 0.00000000 0.00000028
0.00000000 0.00000000 0.00000000
0.00000000 0.00000000 0.00000000
0.00000000 0.00000000 0.00000000
0.00000000 0.00000000 0.00000000
0.00000000 0.00000000 0.00000000
0.00000000 0.00000000 0.00000000
0.00000000 0.00000000 0.00000000
0.00000000 0.00000000 0.00000000
0.00000000 0.00000000 0.00000000
0.00000000 0.00000000 0.00000000
0.00000000 0.00000000 0.00000000
0.00000000 0.00000000 0.00000000
0.00000000 0.00003585 0.00215114
0.00000000 0.00017578 0.01054655
0.00000000 0.00042817 0.02569017
0.00000000 0.00084256 0.04974279
0.00000000 0.00149810 0.07812640
0.00000000 0.00251506 0.11020290
0.00000000 0.00407451 0.14698587
0.00000000 0.00644814 0.18956103
0.00000000 0.01004307 0.23914882
0.00000000 0.01546898 0.29715331
0.00000000 0.02363862 0.36520897
0.00000000 0.03591813 0.44523050
0.00000000 0.05295254 0.53946898
0.00000000 0.07312909 0.65057646
0.00000000 0.09693709 0.78168148
0.00000000 0.00000000 0.00000000
0.00000000 0.00000000 0.00000000
0.00000000 0.00000000 0.00000000
0.00000000 0.00000000 0.00000000
0.00000000 0.00000000 0.00000000
0.00000000 0.00000000 0.00000028
0.00000000 0.00000000 0.00000000
0.00000000 0.00000000 0.00000000
0.00000000 0.00000000 0.00000000
0.00000000 0.00000000 0.00000000
0.00000000 0.00000000 0.00000000
0.00000000 0.00000000 0.00000000
0.00000000 0.00000000 0.00000000
0.00000000 0.00000000 0.00000000
0.00000000 0.00000000 0.00000000
0.00000000 0.00000000 0.00000000
0.00000000 0.00000000 0.00000000
0.00000000 0.00000000 0.00000000
0.00000000 0.00003585 0.00215114
0.00000000 0.00017578 0.01054655
0.00000000 0.00042817 0.02569017
0.00000000 0.00084256 0.04974279
0.00000000 0.00149810 0.07812640
0.00000000 0.00251506 0.11020290
0.00000000 0.00407451 0.14698587
0.00000000 0.00644814 0.18956103
0.00000000 0.01004307 0.23914882
0.00000000 0.01546898 0.29715331
0.00000000 0.02363862 0.36520897
0.00000000 0.03591813 0.44523050
0.00000000 0.05295254 0.53946898
0.00000000 0.07312909 0.65057646
0.00000000 0.09693709 0.78168148
0.00000000 0.00000000 0.00000000
0.00000000 0.00000000 0.00000000
0.00000000 0.00000000 0.00000000
0.00000000 0.00000000 0.00000000
0.00000000 0.00000000 0.00000000
0.00000000 0.00000000 0.00000028
0.00000000 0.00000000 0.00000000
0.00000000 0.00000000 0.00000000
0.00000000 0.00000000 0.00000000
0.00000000 0.00000000 0.00000000
0.00000000 0.00000000 0.00000000
0.00000000 0.00000000 0.00000000
0.00000000 0.00000000 0.00000000
0.00000000 0.00000000 0.00000000
0.00000000 0.00000000 0.00000000
0.00000000 0.00000000 0.00000000
0.00000000 0.00000000 0.00000000
0.00000000 0.00000000 0.00000000
0.00000000 0.00003585 0.00215114
0.00000000 0.00017578 0.01054655
0.00000000 0.00042817 0.02569017
0.00000000 0.00084256 0.04974279
0.00000000 0.00149810 0.07812640
0.00000000 0.00251506 0.11020290
0.00000000 0.00407451 0.14698587
0.00000000 0.00644814 0.18956103
0.00000000 0.01004307 0.23914882
0.00000000 0.01546898 0.29715331
0.00000000 0.02363862 0.36520897
0.00000000 0.03591813 0.44523050
0.00000000 0.05295254 0.53946898
0.00000000 0.07312909 0.65057646
0.00000000 0.09693709 0.78168148
0.00000000 0.00000000 0.00000000
0.00000000 0.00000000 0.00000000
0.00000000 0.00000000 0.00000000
0.00000000 0.00000000 0.00000000
0.00000000 0.00000000 0.00000000
0.00000000 0.00000000 0.00000028
0.00000000 0.00000000 0.00000000
0.00000000 0.00000000 0.00000000
0.00000000 0.00000000 0.00000000
0.00000000 0.00000000 0.00000000
0.00000000 0.00000000 0.00000000
0.00000000 0.00000000 0.00000000
0.00000000 0.00000000 0.00000000
0.00000000 0.00000000 0.00000000
0.00000000 0.00000000 0.00000000
0.00000000 0.00000000 0.00000000
0.00000000 0.00000000 0.00000000
0.00000000 0.00000000 0.00000000
0.00000000 0.00003585 0.00215114
0.00000000 0.00017578 0.01054655
0.00000000 0.00042817 0.02569017
0.00000000 0.00084256 0.04974279
0.00000000 0.00149810 0.07812640
0.00000000 0.00251506 0.11020290
0.00000000 0.00407451 0.14698587
0.00000000 0.00644814 0.18956103
0.00000000 0.01004307 0.23914882
0.00000000 0.01546898 0.29715331
0.00000000 0.02363862 0.36520897
0.00000000 0.03591813 0.44523050
0.00000000 0.05295254 0.53946898
0.00000000 0.07312909 0.65057646
0.00000000 0.09693709 0.78168148
0.00000000 0.00000000 0.00000000
0.00000000 0.00000000 0.00000000
0.00000000 0.00000000 0.00000000
0.00000000 0.00000000 0.00000000
0.00000000 0.00000000 0.00000000
0.00000000 0.00000000 0.00000028
0.00000000 0.00000000 0.00000000
0.00000000 0.00000000 0.00000000
0.00000000 0.00000000 0.00000000
0.00000000 0.00000000 0.00000000
0.00000000 0.00000000 0.00000000
0.00000000 0.00000000 0.00000000
0.00000000 0.00000000 0.00000000
0.00000000 0.00000000 0.00000000
0.00000000 0.00000000 0.00000000
0.00000000 0.00000000 0.00000000
0.00000000 0.00000000 0.00000000
0.00000000 0.00000000 0.00000000
0.00000000 0.00003585 0.00215114
0.00000000 0.00017578 0.01054655
0.00000000 0.00042817 0.02569017
0.00000000 0.00084256 0.04974279
0.00000000 0.00149810 0.07812640
0.00000000 0.00251506 0.11020290
0.00000000 0.00407451 0.14698587
0.00000000 0.00644814 0.18956103
0.00000000 0.01004307 0.23914882
0.00000000 0.01546898 0.29715331
0.00000000 0.02363862 0.36520897
0.00000000 0.03591813 0.44523050
0.00000000 0.05295254 0.53946898
0.00000000 0.07312909 0.65057646
0.00000000 0.09693709 0.78168148
0.00000000 0.00000000 0.00000000
0.00000000 0.00000000 0.00000000
0.00000000 0.00000000 0.00000000
0.00000000 0.00000000 0.00000000
0.00000000 0.00000000 0.00000000
0.00000000 0.00000000 0.00000028
0.00000000 0.00000000 0.00000000
0.00000000 0.00000000 0.00000000
0.00000000 0.00000000 0.00000000
0.00000000 0.00000000 0.00000000
0.00000000 0.00000000 0.00000000
0.00000000 0.00000000 0.00000000
0.00000000 0.00000000 0.00000000
0.00000000 0.00000000 0.00000000
0.00000000 0.00000000 0.00000000
0.00000000 0.00000000 0.00000000
0.00000000 0.00000000 0.00000000
0.00000000 0.00000000 0.00000000
0.00000000 0.00003585 0.00215114
0.00000000 0.00017578 0.01054655
0.00000000 0.00042817 0.02569017
0.00000000 0.00084256 0.04974279
0.00000000 0.00149810 0.07812640
0.00000000 0.00251506 0.11020290
0.00000000 0.00407451 0.14698587
0.00000000 0.00644814 0.18956103
0.00000000 0.01004307 0.23914882
0.00000000 0.01546898 0.29715331
0.00000000 0.02363862 0.36520897
0.00000000 0.03591813 0.44523050
0.00000000 0.05295254 0.53946898
0.00000000 0.07312909 0.65057646
0.00000000 0.09693709 0.78168148
0.00000000 0.00000000 0.00000000
0.00000000 0.00000000 0.00000000
0.00000000 0.00000000 0.00000000
0.00000000 0.00000000 0.00000000
0.00000000 0.00000000 0.00000000
0.00000000 0.00000000 0.00000028
0.00000000 0.00000000 0.00000000
0.00000000 0.00000000 0.00000000
0.00000000 0.00000000 0.00000000
0.00000000 0.00000000 0.00000000
0.00000000 0.00000000 0.00000000
0.00000000 0.00000000 0.00000000
0.00000000 0.00000000 0.00000000
0.00000000 0.00000000 0.00000000
0.00000000 0.00000000 0.00000000
0.00000000 0.00000000 0.00000000
0.00000000 0.00000000 0.00000000
0.00000000 0.00000000 0.00000000
0.00000000 0.00003585 0.00215114
0.00000000 0.00017578 0.01054655
0.00000000 0.00042817 0.02569017
0.00000000 0.00084256 0.04974279
0.00000000 0.00149810 0.07812640
0.00000000 0.00251506 0.11020290
0.00000000 0.00407451 0.14698587
0.00000000 0.00644814 0.18956103
0.00000000 0.01004307 0.23914882
0.00000000 0.01546898 0.29715331
0.00000000 0.02363862 0.36520897
0.00000000 0.03591813 0.44523050
0.00000000 0.05295254 0.53946898
0.00000000 0.07312909 0.65057646
0.00000000 0.09693709 0.78168148
0.00000000 0.00000000 0.00000000
0.00000000 0.00000000 0.00000000
0.00000000 0.00000000 0.00000000
0.00000000 0.00000000 0.00000000
0.00000000 0.00000000 0.00000000
0.00000000 0.00000000 0.00000028
0.00000000 0.00000000 0.00000000
0.00000000 0.00000000 0.00000000
0.00000000 0.00000000 0.00000000
0.00000000 0.00000000 0.00000000
0.00000000 0.00000000 0.00000000
0.00000000 0.00000000 0.00000000
0.00000000 0.00000000 0.00000000
0.00000000 0.00000000 0.00000000
0.00000000 0.00000000 0.00000000
0.00000000 0.00000000 0.00000000
0.00000000 0.00000000 0.00000000
0.00000000 0.00000000 0.00000000
0.00000000 0.00003585 0.00215114
0.00000000 0.00017578 0.01054655
0.00000000 0.00042817 0.02569017
0.00000000 0.00084256 0.04974279
0.00000000 0.00149810 0.07812640
0.00000000 0.00251506 0.11020290
0.00000000 0.00407451 0.14698587
0.00000000 0.00644814 0.18956103
0.00000000 0.01004307 0.23914882
0.00000000 0.01546898 0.29715331
0.00000000 0.02363862 0.36520897
0.00000000 0.03591813 0.44523050
0.00000000 0.05295254 0.53946898
0.00000000 0.07312909 0.65057646
0.00000000 0.09693709 0.78168148
0.00000000 0.00000000 0.00000000
0.00000000 0.00000000 0.00000000
0.00000000 0.00000000 0.00000000
0.00000000 0.00000000 0.00000000
0.00000000 0.00000000 0.00000000
0.00000000 0.00000000 0.00000028
0.00000000 0.00000000 0.00000000
0.00000000 0.00000000 0.00000000
0.00000000 0.00000000 0.00000000
0.00000000 0.00000000 0.00000000
0.00000000 0.00000000 0.00000000
0.00000000 0.00000000 0.00000000
0.00000000 0.00000000 0.00000000
0.00000000 0.00000000 0.00000000
0.00000000 0.00000000 0.00000000
0.00000000 0.00000000 0.00000000
0.00000000 0.00000000 0.00000000
0.00000000 0.00000000 0.00000000
0.00000000 0.00003585 0.00215114
0.00000000 0.00017578 0.01054655
0.00000000 0.00042817 0.02569017
0.00000000 0.00084256 0.04974279
0.00000000 0.00149810 0.07812640
0.00000000 0.00251506 0.11020290
0.00000000 0.00407451 0.14698587
0.00000000 0.00644814 0.18956103
0.00000000 0.01004307 0.23914882
0.00000000 0.01546898 0.29715331
0.00000000 0.02363862 0.36520897
0.00000000 0.03591813 0.44523050
0.00000000 0.05295254 0.53946898
0.00000000 0.07312909 0.65057646
0.00000000 0.09693709 0.78168148
0.00000000 0.00000000 0.00000000
0.00000000 0.00000000 0.00000000
0.00000000 0.00000000 0.00000000
0.00000000 0.00000000 0.00000000
0.00000000 0.00000000 0.00000000
0.00000000 0.00000000 0.00000028
0.00000000 0.00000000 0.00000000
0.00000000 0.00000000 0.00000000
0.00000000 0.00000000 0.00000000
0.00000000 0.00000000 0.00000000
0.00000000 0.00000000 0.00000000
0.00000000 0.00000000 0.00000000
0.00000000 0.00000000 0.00000000
0.00000000 0.00000000 0.00000000
0.00000000 0.00000000 0.00000000
0.00000000 0.00000000 0.00000000
0.00000000 0.00000000 0.00000000
0.00000000 0.00000000 0.00000000
0.00000000 0.00003585 0.00215114
0.00000000 0.00017578 0.01054655
0.00000000 0.00042817 0.02569017
0.00000000 0.00084256 0.04974279
0.00000000 0.00149810 0.07812640
0.00000000 0.00251506 0.11020290
0.00000000 0.00407451 0.14698587
0.00000000 0.00644814 0.18956103
0.00000000 0.01004307 0.23914882
0.00000000 0.01546898 0.29715331
0.00000000 0.02363862 0.36520897
0.00000000 0.03591813 0.44523050
0.00000000 0.05295254 0.53946898
0.00000000 0.07312909 0.65057646
0.00000000 0.09693709 0.78168148
0.00000000 0.00000000 0.00000000
0.00000000 0.00000000 0.00000000
0.00000000 0.00000000 0.00000000
0.00000000 0.00000000 0.00000000
0.00000000 0.00000000 0.00000000
0.00000000 0.00000000 0.00000028
0.00000000 0.00000000 0.00000000
0.00000000 0.00000000 0.00000000
0.00000000 0.00000000 0.00000000
0.00000000 0.00000000 0.00000000
0.00000000 0.00000000 0.00000000
0.00000000 0.00000000 0.00000000
0.00000000 0.00000000 0.00000000
0.00000000 0.00000000 0.00000000
0.00000000 0.00000000 0.00000000
0.00000000 0.00000000 0.00000000
0.00000000 0.00000000 0.00000000
0.00000000 0.00000000 0.00000000
0.00000000 0.00003585 0.00215114
0.00000000 0.00017578 0.01054655
0.00000000 0.00042817 0.02569017
0.00000000 0.00084256 0.04974279
0.00000000 0.00149810 0.07812640
0.00000000 0.00251506 0.11020290
0.00000000 0.00407451 0.14698587
0.00000000 0.00644814 0.18956103
0.00000000 0.01004307 0.23914882
0.00000000 0.01546898 0.29715331
0.00000000 0.02363862 0.36520897
0.00000000 0.03591813 0.44523050
0.00000000 0.05295254 0.53946898
0.00000000 0.07312909 0.65057646
0.00000000 0.09693709 0.78168148
0.00000000 0.00000000 0.00000000
0.00000000 0.00000000 0.00000000
0.00000000 0.00000000 0.00000000
0.00000000 0.00000000 0.00000000
0.00000000 0.00000000 0.00000000
0.00000000 0.00000000 0.00000028
0.00000000 0.00000000 0.00000000
0.00000000 0.00000000 0.00000000
0.00000000 0.00000000 0.00000000
0.00000000 0.00000000 0.00000000
0.00000000 0.00000000 0.00000000
0.00000000 0.00000000 0.00000000
0.00000000 0.00000000 0.00000000
0.00000000 0.00000000 0.00000000
0.00000000 0.00000000 0.00000000
0.00000000 0.00000000 0.00000000
0.00000000 0.00000000 0.00000000
0.00000000 0.00000000 0.00000000
0.00000000 0.00003585 0.00215114
0.00000000 0.00017578 0.01054655
0.00000000 0.00042817 0.02569017
0.00000000 0.00084256 0.04974279
0.00000000 0.00149810 0.07812640
0.00000000 0.00251506 0.11020290
0.00000000 0.00407451 0.14698587
0.00000000 0.00644814 0.18956103
0.00000000 0.01004307 0.23914882
0.00000000 0.01546898 0.29715331
0.00000000 0.02363862 0.36520897
0.00000000 0.03591813 0.44523050
0.00000000 0.05295254 0.53946898
0.00000000 0.07312909 0.65057646
0.00000000 0.09693709 0.78168148
0.00000000 0.00242834 0.00000000
0.00000000 0.00242834 0.00000000
0.00000000 0.00242834 0.00000000
0.00000000 0.00242834 0.00000000
0.00000000 0.00242834 0.00000000
0.00000000 0.00242818 0.00000000
0.00000000 0.00242834 0.00000000
0.00000000 0.00242834 0.00000000
0.00000000 0.00242834 0.00000000
0.00000000 0.00242834 0.00000000
0.00000000 0.00242834 0.00000000
0.00000000 0.00242834 0.00000000
0.00000000 0.00242834 0.00000000
0.00000000 0.00242834 0.00000000
0.00000000 0.00242834 0.00000000
0.00000000 0.00242834 0.00000000
0.00000000 0.00242834 0.00000000
0.00000000 0.00242834 0.00000000
0.00000000 0.00208522 0.00176974
0.00000000 0.00155424 0.00995852
0.00000000 0.00100155 0.02494595
0.00000000 0.00082775 0.04897132
0.00000000 0.00148087 0.07748642
0.00000000 0.00249533 0.10966184
0.00000000 0.00405214 0.14652306
0.00000000 0.00642293 0.18916210
0.00000000 0.01001477 0.23880314
0.00000000 0.01543730 0.29685268
0.00000000 0.02360325 0.36494684
0.00000000 0.03587869 0.44500152
0.00000000 0.05291616 0.53926869
0.00000000 0.07309724 0.65040109
0.00000000 0.09690918 0.78152781
0.00000000 0.01187780 0.00000000
0.00000000 0.01187780 0.00000000
0.00000000 0.01187780 0.00000000
0.00000000 0.01187780 0.00000000
0.00000000 0.01187780 0.00000000
0.00000000 0.01187758 0.00000000
0.00000000 0.01187780 0.00000000
0.00000000 0.01187780 0.00000000
0.00000000 0.01187780 0.00000000
0.00000000 0.01187780 0.00000000
0.00000000 0.01187780 0.00000000
0.00000000 0.01187780 0.00000000
0.00000000 0.01187780 0.00000000
0.00000000 0.01187780 0.00000000
0.00000000 0.01187780 0.00000000
0.00000000 0.01187780 0.00000000
0.00000000 0.01187780 0.00000000
0.00000000 0.01187780 0.00000000
0.00000000 0.01135126 0.00101285
0.00000000 0.01022533 0.00870781
0.00000000 0.00914771 0.02334344
0.00000000 0.00767683 0.04727382
0.00000000 0.00599744 0.07608278
0.00000000 0.00433033 0.10847747
0.00000000 0.00400348 0.14551121
0.00000000 0.00636805 0.18829061
0.00000000 0.00995313 0.23804842
0.00000000 0.01536831 0.29619659
0.00000000 0.02352617 0.36437493
0.00000000 0.03579273 0.44450204
0.00000000 0.05283683 0.53883183
0.00000000 0.07302779 0.65001862
0.00000000 0.09684833 0.78119271
0.00000000 0.02891689 0.00000000
0.00000000 0.02891689 0.00000000
0.00000000 0.02891689 0.00000000
0.00000000 0.02891689 0.00000000
0.00000000 0.02891689 0.00000000
0.00000000 0.02891661 0.00000000
0.00000000 0.02891689 0.00000000
0.00000000 0.02891689 0.00000000
0.00000000 0.02891689 0.00000000
0.00000000 0.02891689 0.00000000
0.00000000 0.02891689 0.00000000
0.00000000 0.02891689 0.00000000
0.00000000 0.02891689 0.00000000
0.00000000 0.02891689 0.00000000
0.00000000 0.02891689 0.00000000
0.00000000 0.02891689 0.00000000
0.00000000 0.02891689 0.00000000
0.00000000 0.02891689 0.00000000
0.00000000 0.02825110 0.00021379
0.00000000 0.02681373 0.00709513
0.00000000 0.02490888 0.02122944
0.00000000 0.02315501 0.04495201
0.00000000 0.02053167 0.07417335
0.00000000 0.01735881 0.10687143
0.00000000 0.01373688 0.14414188
0.00000000 0.01018257 0.18711281
0.00000000 0.00987027 0.23702937
0.00000000 0.01527549 0.29531127
0.00000000 0.02342245 0.36360357
0.00000000 0.03567702 0.44382857
0.00000000 0.05272990 0.53824297
0.00000000 0.07293418 0.64950316
0.00000000 0.09676633 0.78074115
0.00000000 0.05502477 0.00000000
0.00000000 0.05502477 0.00000000
0.00000000 0.05502477 0.00000000
0.00000000 0.05502477 0.00000000
0.00000000 0.05502477 0.00000000
0.00000000 0.05502449 0.00000000
0.00000000 0.05502477 0.00000000
0.00000000 0.05502477 0.00000000
0.00000000 0.05502477 0.00000000
0.00000000 0.05502477 0.00000000
0.00000000 0.05502477 0.00000000
0.00000000 0.05502477 0.00000000
0.00000000 0.05502477 0.00000000
0.00000000 0.05502477 0.00000000
0.00000000 0.05502477 0.00000000
0.00000000 0.05502477 0.00000000
0.00000000 0.05502477 0.00000000
0.00000000 0.05502477 0.00000000
0.00000000 0.05438147 0.00000000
0.00000000 0.05296873 0.00506810
0.00000000 0.05104269 0.01846679
0.00000000 0.04840443 0.04175656
0.00000000 0.04598167 0.07156606
0.00000000 0.04196136 0.10468824
0.00000000 0.03668994 0.14228566
0.00000000 0.03037825 0.18551918
0.00000000 0.02348856 0.23565225
0.00000000 0.01784399 0.29411593
