luts/S9_VLog_to_gold200.cube
# Film Emulation LUT
# Generated by lutex.py
# Grid: 33³
TITLE "Panasonic S9 V-Log to Kodak Gold 200 (Warm Golden) v2"
LUT_3D_SIZE 9
DOMAIN_MIN 0.0 0.0 0.0
DOMAIN_MAX 1.0 1.0 1.0
0.00000125 0.00000117 0.00000092
0.00000125 0.00000117 0.00000092
0.00000125 0.00000117 0.00000092
0.00000125 0.00000117 0.00000092
0.00000125 0.00000117 0.00000092
0.00000000 0.00000000 0.00000000
0.00000000 0.00000000 0.00000000
0.00000000 0.12177625 0.31795259
0.00000000 0.35095039 0.80145128
0.00000125 0.00000117 0.00000092
0.00000125 0.00000117 0.00000092
0.00000125 0.00000117 0.00000092
0.00000125 0.00000117 0.00000092
0.00000125 0.00000117 0.00000092
0.00000000 0.00000000 0.00000000
0.00000000 0.00000000 0.00000000
0.00000000 0.12177625 0.31795259
0.00000000 0.35095039 0.80145128
0.00000125 0.00000117 0.00000092
0.00000125 0.00000117 0.00000092
0.00000125 0.00000117 0.00000092
0.00000125 0.00000117 0.00000092
0.00000125 0.00000117 0.00000092
0.00000000 0.00000000 0.00000000
0.00000000 0.00000000 0.00000000
0.00000000 0.12177625 0.31795259
0.00000000 0.35095039 0.80145128
0.00000125 0.00000117 0.00000092
0.00000125 0.00000117 0.00000092
0.00000125 0.00000117 0.00000092
0.00000125 0.00000117 0.00000092
0.00000125 0.00000117 0.00000092
0.00000000 0.00000000 0.00000000
0.00000000 0.00000000 0.00000000
0.00000000 0.12177625 0.31795259
0.00000000 0.35095039 0.80145128
0.00000125 0.00000117 0.00000092
0.00000125 0.00000117 0.00000092
0.00000125 0.00000117 0.00000092
0.00000125 0.00000117 0.00000092
0.00000125 0.00000117 0.00000092
0.00000000 0.00000000 0.00000000
0.00000000 0.00000000 0.00000000
0.00000000 0.12177625 0.31795259
0.00000000 0.35095039 0.80145128
0.00000029 0.06627056 0.00000000
0.00000029 0.06627056 0.00000000
0.00000029 0.06627056 0.00000000
0.00000029 0.06627056 0.00000000
0.00000029 0.06627056 0.00000000
0.00000000 0.06000560 0.05290954
0.00000000 0.00000000 0.00000000
0.00000000 0.12061508 0.31550282
0.00000000 0.35049892 0.80049878
0.00000029 0.21494717 0.00000000
0.00000029 0.21494717 0.00000000
0.00000029 0.21494717 0.00000000
0.00000029 0.21494717 0.00000000
0.00000029 0.21494717 0.00000000
0.00000000 0.21237503 0.01597663
0.00000000 0.20106503 0.18944541
0.00000000 0.16512698 0.30530661
0.00000000 0.34856394 0.79641648
0.00000027 0.44860893 0.00000000
0.00000027 0.44860893 0.00000000
0.00000027 0.44860893 0.00000000
0.00000027 0.44860893 0.00000000
0.00000027 0.44860893 0.00000000
0.00000027 0.44730941 0.00000000
0.00000000 0.44171005 0.13570888
0.00000000 0.42274467 0.40897522
0.00000000 0.46943846 0.78584857
0.00000021 0.84787597 0.00000000
0.00000021 0.84787597 0.00000000
0.00000021 0.84787597 0.00000000
0.00000021 0.84787597 0.00000000
0.00000021 0.84787597 0.00000000
0.00000021 0.84719574 0.00000000
0.00000021 0.84428295 0.00000000
0.00000000 0.83456791 0.32342820
0.00000000 0.77101751 0.80236944
0.00000125 0.00000117 0.00000092
0.00000125 0.00000117 0.00000092
0.00000125 0.00000117 0.00000092
0.00000125 0.00000117 0.00000092
0.00000125 0.00000117 0.00000092
0.00000000 0.00000000 0.00000000
0.00000000 0.00000000 0.00000000
0.00000000 0.12177625 0.31795259
0.00000000 0.35095039 0.80145128
0.00000125 0.00000117 0.00000092
0.00000125 0.00000117 0.00000092
0.00000125 0.00000117 0.00000092
0.00000125 0.00000117 0.00000092
0.00000125 0.00000117 0.00000092
0.00000000 0.00000000 0.00000000
0.00000000 0.00000000 0.00000000
0.00000000 0.12177625 0.31795259
0.00000000 0.35095039 0.80145128
0.00000125 0.00000117 0.00000092
0.00000125 0.00000117 0.00000092
0.00000125 0.00000117 0.00000092
0.00000125 0.00000117 0.00000092
0.00000125 0.00000117 0.00000092
0.00000000 0.00000000 0.00000000
0.00000000 0.00000000 0.00000000
0.00000000 0.12177625 0.31795259
0.00000000 0.35095039 0.80145128
0.00000125 0.00000117 0.00000092
0.00000125 0.00000117 0.00000092
0.00000125 0.00000117 0.00000092
0.00000125 0.00000117 0.00000092
0.00000125 0.00000117 0.00000092
0.00000000 0.00000000 0.00000000
0.00000000 0.00000000 0.00000000
0.00000000 0.12177625 0.31795259
0.00000000 0.35095039 0.80145128
0.00000125 0.00000117 0.00000092
0.00000125 0.00000117 0.00000092
0.00000125 0.00000117 0.00000092
0.00000125 0.00000117 0.00000092
0.00000125 0.00000117 0.00000092
0.00000000 0.00000000 0.00000000
0.00000000 0.00000000 0.00000000
0.00000000 0.12177625 0.31795259
0.00000000 0.35095039 0.80145128
0.00000029 0.06627056 0.00000000
0.00000029 0.06627056 0.00000000
0.00000029 0.06627056 0.00000000
0.00000029 0.06627056 0.00000000
0.00000029 0.06627056 0.00000000
0.00000000 0.06000560 0.05290954
0.00000000 0.00000000 0.00000000
0.00000000 0.12061508 0.31550282
0.00000000 0.35049892 0.80049878
0.00000029 0.21494717 0.00000000
0.00000029 0.21494717 0.00000000
0.00000029 0.21494717 0.00000000
0.00000029 0.21494717 0.00000000
0.00000029 0.21494717 0.00000000
0.00000000 0.21237503 0.01597663
0.00000000 0.20106503 0.18944541
0.00000000 0.16512698 0.30530661
0.00000000 0.34856394 0.79641648
0.00000027 0.44860893 0.00000000
0.00000027 0.44860893 0.00000000
0.00000027 0.44860893 0.00000000
0.00000027 0.44860893 0.00000000
0.00000027 0.44860893 0.00000000
0.00000027 0.44730941 0.00000000
0.00000000 0.44171005 0.13570888
0.00000000 0.42274467 0.40897522
0.00000000 0.46943846 0.78584857
0.00000021 0.84787597 0.00000000
0.00000021 0.84787597 0.00000000
0.00000021 0.84787597 0.00000000
0.00000021 0.84787597 0.00000000
0.00000021 0.84787597 0.00000000
0.00000021 0.84719574 0.00000000
0.00000021 0.84428295 0.00000000
0.00000000 0.83456791 0.32342820
0.00000000 0.77101751 0.80236944
0.00000125 0.00000117 0.00000092
0.00000125 0.00000117 0.00000092
0.00000125 0.00000117 0.00000092
0.00000125 0.00000117 0.00000092
0.00000125 0.00000117 0.00000092
0.00000000 0.00000000 0.00000000
0.00000000 0.00000000 0.00000000
0.00000000 0.12177625 0.31795259
0.00000000 0.35095039 0.80145128
0.00000125 0.00000117 0.00000092
0.00000125 0.00000117 0.00000092
0.00000125 0.00000117 0.00000092
0.00000125 0.00000117 0.00000092
0.00000125 0.00000117 0.00000092
0.00000000 0.00000000 0.00000000
0.00000000 0.00000000 0.00000000
0.00000000 0.12177625 0.31795259
0.00000000 0.35095039 0.80145128
0.00000125 0.00000117 0.00000092
0.00000125 0.00000117 0.00000092
0.00000125 0.00000117 0.00000092
0.00000125 0.00000117 0.00000092
0.00000125 0.00000117 0.00000092
0.00000000 0.00000000 0.00000000
0.00000000 0.00000000 0.00000000
0.00000000 0.12177625 0.31795259
0.00000000 0.35095039 0.80145128
0.00000125 0.00000117 0.00000092
0.00000125 0.00000117 0.00000092
0.00000125 0.00000117 0.00000092
0.00000125 0.00000117 0.00000092
0.00000125 0.00000117 0.00000092
0.00000000 0.00000000 0.00000000
0.00000000 0.00000000 0.00000000
0.00000000 0.12177625 0.31795259
0.00000000 0.35095039 0.80145128
0.00000125 0.00000117 0.00000092
0.00000125 0.00000117 0.00000092
0.00000125 0.00000117 0.00000092
0.00000125 0.00000117 0.00000092
0.00000125 0.00000117 0.00000092
0.00000000 0.00000000 0.00000000
0.00000000 0.00000000 0.00000000
0.00000000 0.12177625 0.31795259
0.00000000 0.35095039 0.80145128
0.00000029 0.06627056 0.00000000
0.00000029 0.06627056 0.00000000
0.00000029 0.06627056 0.00000000
0.00000029 0.06627056 0.00000000
0.00000029 0.06627056 0.00000000
0.00000000 0.06000560 0.05290954
0.00000000 0.00000000 0.00000000
0.00000000 0.12061508 0.31550282
0.00000000 0.35049892 0.80049878
0.00000029 0.21494717 0.00000000
0.00000029 0.21494717 0.00000000
0.00000029 0.21494717 0.00000000
0.00000029 0.21494717 0.00000000
0.00000029 0.21494717 0.00000000
0.00000000 0.21237503 0.01597663
0.00000000 0.20106503 0.18944541
0.00000000 0.16512698 0.30530661
0.00000000 0.34856394 0.79641648
0.00000027 0.44860893 0.00000000
0.00000027 0.44860893 0.00000000
0.00000027 0.44860893 0.00000000
0.00000027 0.44860893 0.00000000
0.00000027 0.44860893 0.00000000
0.00000027 0.44730941 0.00000000
0.00000000 0.44171005 0.13570888
0.00000000 0.42274467 0.40897522
0.00000000 0.46943846 0.78584857
0.00000021 0.84787597 0.00000000
0.00000021 0.84787597 0.00000000
0.00000021 0.84787597 0.00000000
0.00000021 0.84787597 0.00000000
0.00000021 0.84787597 0.00000000
0.00000021 0.84719574 0.00000000
0.00000021 0.84428295 0.00000000
0.00000000 0.83456791 0.32342820
0.00000000 0.77101751 0.80236944
0.00000125 0.00000117 0.00000092
0.00000125 0.00000117 0.00000092
0.00000125 0.00000117 0.00000092
0.00000125 0.00000117 0.00000092
0.00000125 0.00000117 0.00000092
0.00000000 0.00000000 0.00000000
0.00000000 0.00000000 0.00000000
0.00000000 0.12177625 0.31795259
0.00000000 0.35095039 0.80145128
0.00000125 0.00000117 0.00000092
0.00000125 0.00000117 0.00000092
0.00000125 0.00000117 0.00000092
0.00000125 0.00000117 0.00000092
0.00000125 0.00000117 0.00000092
0.00000000 0.00000000 0.00000000
0.00000000 0.00000000 0.00000000
0.00000000 0.12177625 0.31795259
0.00000000 0.35095039 0.80145128
0.00000125 0.00000117 0.00000092
0.00000125 0.00000117 0.00000092
0.00000125 0.00000117 0.00000092
0.00000125 0.00000117 0.00000092
0.00000125 0.00000117 0.00000092
0.00000000 0.00000000 0.00000000
0.00000000 0.00000000 0.00000000
0.00000000 0.12177625 0.31795259
0.00000000 0.35095039 0.80145128
0.00000125 0.00000117 0.00000092
0.00000125 0.00000117 0.00000092
0.00000125 0.00000117 0.00000092
0.00000125 0.00000117 0.00000092
0.00000125 0.00000117 0.00000092
0.00000000 0.00000000 0.00000000
0.00000000 0.00000000 0.00000000
0.00000000 0.12177625 0.31795259
0.00000000 0.35095039 0.80145128
0.00000125 0.00000117 0.00000092
0.00000125 0.00000117 0.00000092
0.00000125 0.00000117 0.00000092
0.00000125 0.00000117 0.00000092
0.00000125 0.00000117 0.00000092
0.00000000 0.00000000 0.00000000
0.00000000 0.00000000 0.00000000
0.00000000 0.12177625 0.31795259
0.00000000 0.35095039 0.80145128
0.00000029 0.06627056 0.00000000
0.00000029 0.06627056 0.00000000
0.00000029 0.06627056 0.00000000
0.00000029 0.06627056 0.00000000
0.00000029 0.06627056 0.00000000
0.00000000 0.06000560 0.05290954
0.00000000 0.00000000 0.00000000
0.00000000 0.12061508 0.31550282
0.00000000 0.35049892 0.80049878
0.00000029 0.21494717 0.00000000
0.00000029 0.21494717 0.00000000
0.00000029 0.21494717 0.00000000
0.00000029 0.21494717 0.00000000
0.00000029 0.21494717 0.00000000
0.00000000 0.21237503 0.01597663
0.00000000 0.20106503 0.18944541
0.00000000 0.16512698 0.30530661
0.00000000 0.34856394 0.79641648
0.00000027 0.44860893 0.00000000
0.00000027 0.44860893 0.00000000
0.00000027 0.44860893 0.00000000
0.00000027 0.44860893 0.00000000
0.00000027 0.44860893 0.00000000
0.00000027 0.44730941 0.00000000
0.00000000 0.44171005 0.13570888
0.00000000 0.42274467 0.40897522
0.00000000 0.46943846 0.78584857
0.00000021 0.84787597 0.00000000
0.00000021 0.84787597 0.00000000
0.00000021 0.84787597 0.00000000
0.00000021 0.84787597 0.00000000
0.00000021 0.84787597 0.00000000
0.00000021 0.84719574 0.00000000
0.00000021 0.84428295 0.00000000
0.00000000 0.83456791 0.32342820
0.00000000 0.77101751 0.80236944
0.00000125 0.00000117 0.00000092
0.00000125 0.00000117 0.00000092
0.00000125 0.00000117 0.00000092
0.00000125 0.00000117 0.00000092
0.00000125 0.00000117 0.00000092
0.00000000 0.00000000 0.00000000
0.00000000 0.00000000 0.00000000
0.00000000 0.12177625 0.31795259
0.00000000 0.35095039 0.80145128
0.00000125 0.00000117 0.00000092
0.00000125 0.00000117 0.00000092
0.00000125 0.00000117 0.00000092
0.00000125 0.00000117 0.00000092
0.00000125 0.00000117 0.00000092
0.00000000 0.00000000 0.00000000
0.00000000 0.00000000 0.00000000
0.00000000 0.12177625 0.31795259
0.00000000 0.35095039 0.80145128
0.00000125 0.00000117 0.00000092
0.00000125 0.00000117 0.00000092
0.00000125 0.00000117 0.00000092
0.00000125 0.00000117 0.00000092
0.00000125 0.00000117 0.00000092
0.00000000 0.00000000 0.00000000
0.00000000 0.00000000 0.00000000
0.00000000 0.12177625 0.31795259
0.00000000 0.35095039 0.80145128
0.00000125 0.00000117 0.00000092
0.00000125 0.00000117 0.00000092
0.00000125 0.00000117 0.00000092
0.00000125 0.00000117 0.00000092
0.00000125 0.00000117 0.00000092
0.00000000 0.00000000 0.00000000
0.00000000 0.00000000 0.00000000
0.00000000 0.12177625 0.31795259
0.00000000 0.35095039 0.80145128
0.00000125 0.00000117 0.00000092
0.00000125 0.00000117 0.00000092
0.00000125 0.00000117 0.00000092
0.00000125 0.00000117 0.00000092
0.00000125 0.00000117 0.00000092
0.00000000 0.00000000 0.00000000
0.00000000 0.00000000 0.00000000
0.00000000 0.12177625 0.31795259
0.00000000 0.35095039 0.80145128
0.00000029 0.06627056 0.00000000
0.00000029 0.06627056 0.00000000
0.00000029 0.06627056 0.00000000
0.00000029 0.06627056 0.00000000
0.00000029 0.06627056 0.00000000
0.00000000 0.06000560 0.05290954
0.00000000 0.00000000 0.00000000
0.00000000 0.12061508 0.31550282
0.00000000 0.35049892 0.80049878
0.00000029 0.21494717 0.00000000
0.00000029 0.21494717 0.00000000
0.00000029 0.21494717 0.00000000
0.00000029 0.21494717 0.00000000
0.00000029 0.21494717 0.00000000
0.00000000 0.21237503 0.01597663
0.00000000 0.20106503 0.18944541
0.00000000 0.16512698 0.30530661
0.00000000 0.34856394 0.79641648
0.00000027 0.44860893 0.00000000
0.00000027 0.44860893 0.00000000
0.00000027 0.44860893 0.00000000
0.00000027 0.44860893 0.00000000
0.00000027 0.44860893 0.00000000
0.00000027 0.44730941 0.00000000
0.00000000 0.44171005 0.13570888
0.00000000 0.42274467 0.40897522
0.00000000 0.46943846 0.78584857
0.00000021 0.84787597 0.00000000
0.00000021 0.84787597 0.00000000
0.00000021 0.84787597 0.00000000
0.00000021 0.84787597 0.00000000
0.00000021 0.84787597 0.00000000
0.00000021 0.84719574 0.00000000
0.00000021 0.84428295 0.00000000
0.00000000 0.83456791 0.32342820
0.00000000 0.77101751 0.80236944
0.09033796 0.01849355 0.00000000
0.09033796 0.01849355 0.00000000
0.09033796 0.01849355 0.00000000
0.09033796 0.01849355 0.00000000
0.09033796 0.01849355 0.00000000
0.08596603 0.00000000 0.05940078
0.00000000 0.00000000 0.00000000
0.00000000 0.12158740 0.31755418
0.00000000 0.35087676 0.80129593
0.09033796 0.01849355 0.00000000
0.09033796 0.01849355 0.00000000
0.09033796 0.01849355 0.00000000
0.09033796 0.01849355 0.00000000
0.09033796 0.01849355 0.00000000
0.08596603 0.00000000 0.05940078
0.00000000 0.00000000 0.00000000
0.00000000 0.12158740 0.31755418
0.00000000 0.35087676 0.80129593
0.09033796 0.01849355 0.00000000
0.09033796 0.01849355 0.00000000
0.09033796 0.01849355 0.00000000
0.09033796 0.01849355 0.00000000
0.09033796 0.01849355 0.00000000
0.08596603 0.00000000 0.05940078
0.00000000 0.00000000 0.00000000
0.00000000 0.12158740 0.31755418
0.00000000 0.35087676 0.80129593
0.09033796 0.01849355 0.00000000
0.09033796 0.01849355 0.00000000
0.09033796 0.01849355 0.00000000
0.09033796 0.01849355 0.00000000
0.09033796 0.01849355 0.00000000
0.08596603 0.00000000 0.05940078
0.00000000 0.00000000 0.00000000
0.00000000 0.12158740 0.31755418
0.00000000 0.35087676 0.80129593
0.09033796 0.01849355 0.00000000
0.09033796 0.01849355 0.00000000
0.09033796 0.01849355 0.00000000
0.09033796 0.01849355 0.00000000
0.09033796 0.01849355 0.00000000
0.08596603 0.00000000 0.05940078
0.00000000 0.00000000 0.00000000
0.00000000 0.12158740 0.31755418
0.00000000 0.35087676 0.80129593
0.05993082 0.05836739 0.00000000
0.05993082 0.05836739 0.00000000
0.05993082 0.05836739 0.00000000
0.05993082 0.05836739 0.00000000
0.05993082 0.05836739 0.00000000
0.05439145 0.05193774 0.05143286
0.00000000 0.00000000 0.00000000
0.00000000 0.12042471 0.31510120
0.00000000 0.35042519 0.80034324
0.00000029 0.21172303 0.00000000
0.00000029 0.21172303 0.00000000
0.00000029 0.21172303 0.00000000
0.00000029 0.21172303 0.00000000
0.00000029 0.21172303 0.00000000
0.00000000 0.20911680 0.01466722
0.00000000 0.19764831 0.18887771
0.00000000 0.16298379 0.30486750
0.00000000 0.34848985 0.79626016
0.00000027 0.44698146 0.00000000
0.00000027 0.44698146 0.00000000
0.00000027 0.44698146 0.00000000
0.00000027 0.44698146 0.00000000
0.00000027 0.44698146 0.00000000
0.00000027 0.44567732 0.00000000
0.00000000 0.44005784 0.13496984
0.00000000 0.42102067 0.40866747
0.00000000 0.46810341 0.78565298
0.00000021 0.84702430 0.00000000
0.00000021 0.84702430 0.00000000
0.00000021 0.84702430 0.00000000
0.00000021 0.84702430 0.00000000
0.00000021 0.84702430 0.00000000
0.00000021 0.84634334 0.00000000
0.00000021 0.84342744 0.00000000
0.00000000 0.83370206 0.32304135
0.00000000 0.77008487 0.80217194
0.26831057 0.09824649 0.00000000
0.26831057 0.09824649 0.00000000
0.26831057 0.09824649 0.00000000
0.26831057 0.09824649 0.00000000
0.26831057 0.09824649 0.00000000
0.26649540 0.06396109 0.00000000
0.25860498 0.00000000 0.20395679
0.08906829 0.00000000 0.31612500
0.00000000 0.33383871 0.80072441
0.26831057 0.09824649 0.00000000
0.26831057 0.09824649 0.00000000
0.26831057 0.09824649 0.00000000
0.26831057 0.09824649 0.00000000
0.26831057 0.09824649 0.00000000
0.26649540 0.06396109 0.00000000
0.25860498 0.00000000 0.20395679
0.08906829 0.00000000 0.31612500
0.00000000 0.33383871 0.80072441
0.26831057 0.09824649 0.00000000
0.26831057 0.09824649 0.00000000
0.26831057 0.09824649 0.00000000
0.26831057 0.09824649 0.00000000
0.26831057 0.09824649 0.00000000
0.26649540 0.06396109 0.00000000
0.25860498 0.00000000 0.20395679
0.08906829 0.00000000 0.31612500
0.00000000 0.33383871 0.80072441
0.26831057 0.09824649 0.00000000
0.26831057 0.09824649 0.00000000
0.26831057 0.09824649 0.00000000
0.26831057 0.09824649 0.00000000
0.26831057 0.09824649 0.00000000
0.26649540 0.06396109 0.00000000
0.25860498 0.00000000 0.20395679
0.08906829 0.00000000 0.31612500
0.00000000 0.33383871 0.80072441
0.26831057 0.09824649 0.00000000
0.26831057 0.09824649 0.00000000
0.26831057 0.09824649 0.00000000
0.26831057 0.09824649 0.00000000
0.26831057 0.09824649 0.00000000
0.26649540 0.06396109 0.00000000
0.25860498 0.00000000 0.20395679
0.08906829 0.00000000 0.31612500
0.00000000 0.33383871 0.80072441
0.25674047 0.10226101 0.00000000
0.25674047 0.10226101 0.00000000
0.25674047 0.10226101 0.00000000
0.25674047 0.10226101 0.00000000
0.25674047 0.10226101 0.00000000
0.25703751 0.07182667 0.00000000
0.24663994 0.00000000 0.20070231
0.07101428 0.00000000 0.31362840
0.00000000 0.33932193 0.79973859
0.20082101 0.19742952 0.00000000
0.20082101 0.19742952 0.00000000
0.20082101 0.19742952 0.00000000
0.20082101 0.19742952 0.00000000
0.20082101 0.19742952 0.00000000
0.20079888 0.19685207 0.00000000
0.18856015 0.18208296 0.18663669
0.07429699 0.14181846 0.32252448
0.00000000 0.34817310 0.79559191
0.00000027 0.43996219 0.00000000
0.00000027 0.43996219 0.00000000
0.00000027 0.43996219 0.00000000
0.00000027 0.43996219 0.00000000
0.00000027 0.43996219 0.00000000
0.00000027 0.43863775 0.00000000
0.00000000 0.43292988 0.13177947
0.00000000 0.41357679 0.40735098
0.00000000 0.46237012 0.78481768
0.00000021 0.84337529 0.00000000
0.00000021 0.84337529 0.00000000
0.00000021 0.84337529 0.00000000
0.00000021 0.84337529 0.00000000
0.00000021 0.84337529 0.00000000
0.00000021 0.84269121 0.00000000
0.00000021 0.83976188 0.00000000
0.00000000 0.82999196 0.32138476
0.00000000 0.76608658 0.80132807
0.54796275 0.23079911 0.00000000
0.54796275 0.23079911 0.00000000
0.54796275 0.23079911 0.00000000
0.54796275 0.23079911 0.00000000
0.54796275 0.23079911 0.00000000
0.54704303 0.22295590 0.00000000
0.54307542 0.10328394 0.00000000
0.52977523 0.00000000 0.43556480
0.30367580 0.00000000 0.80011399
0.54796275 0.23079911 0.00000000
0.54796275 0.23079911 0.00000000
0.54796275 0.23079911 0.00000000
0.54796275 0.23079911 0.00000000
0.54796275 0.23079911 0.00000000
0.54704303 0.22295590 0.00000000
0.54307542 0.10328394 0.00000000
0.52977523 0.00000000 0.43556480
0.30367580 0.00000000 0.80011399
0.54796275 0.23079911 0.00000000
0.54796275 0.23079911 0.00000000
0.54796275 0.23079911 0.00000000
0.54796275 0.23079911 0.00000000
0.54796275 0.23079911 0.00000000
0.54704303 0.22295590 0.00000000
0.54307542 0.10328394 0.00000000
0.52977523 0.00000000 0.43556480
0.30367580 0.00000000 0.80011399
0.54796275 0.23079911 0.00000000
0.54796275 0.23079911 0.00000000
0.54796275 0.23079911 0.00000000
0.54796275 0.23079911 0.00000000
0.54796275 0.23079911 0.00000000
0.54704303 0.22295590 0.00000000
0.54307542 0.10328394 0.00000000
0.52977523 0.00000000 0.43556480
0.30367580 0.00000000 0.80011399
0.54796275 0.23079911 0.00000000
0.54796275 0.23079911 0.00000000
0.54796275 0.23079911 0.00000000
0.54796275 0.23079911 0.00000000
0.54796275 0.23079911 0.00000000
0.54704303 0.22295590 0.00000000
0.54307542 0.10328394 0.00000000
0.52977523 0.00000000 0.43556480
0.30367580 0.00000000 0.80011399
0.54218562 0.22806080 0.00000000
0.54218562 0.22806080 0.00000000
0.54218562 0.22806080 0.00000000
0.54218562 0.22806080 0.00000000
0.54218562 0.22806080 0.00000000
0.54125697 0.22208319 0.00000000
0.53724787 0.10346856 0.00000000
0.52380400 0.00000000 0.43387234
0.29384492 0.00000000 0.79910831
0.51660358 0.26293963 0.00000000
0.51660358 0.26293963 0.00000000
0.51660358 0.26293963 0.00000000
0.51660358 0.26293963 0.00000000
0.51660358 0.26293963 0.00000000
0.51563986 0.26072734 0.00000000
0.52454810 0.17575618 0.01563283
0.50170235 0.00000000 0.42884421
0.24726043 0.00000000 0.79480162
0.42146635 0.41592293 0.00000000
0.42146635 0.41592293 0.00000000
0.42146635 0.41592293 0.00000000
0.42146635 0.41592293 0.00000000
0.42146635 0.41592293 0.00000000
0.42029450 0.41452561 0.00000000
0.42571762 0.41839460 0.06841802
0.39834483 0.38704541 0.40442730
0.25793100 0.39991118 0.79784791
0.00000021 0.83123988 0.00000000
0.00000021 0.83123988 0.00000000
0.00000021 0.83123988 0.00000000
0.00000021 0.83123988 0.00000000
0.00000021 0.83123988 0.00000000
0.00000021 0.83054523 0.00000000
0.00000021 0.82757042 0.00000000
0.00000000 0.81764953 0.31588543
0.00000000 0.75276097 0.79854879
1.00000000 0.50097519 0.26696418
1.00000000 0.50097519 0.26696418
1.00000000 0.50097519 0.26696418
1.00000000 0.50097519 0.26696418
1.00000000 0.50097519 0.26696418
1.00000000 0.49996364 0.26434455
1.00000000 0.47006605 0.25250433
1.00000000 0.25941856 0.20747823
0.99173200 0.00000000 0.84494850
1.00000000 0.50097519 0.26696418
1.00000000 0.50097519 0.26696418
1.00000000 0.50097519 0.26696418
1.00000000 0.50097519 0.26696418
1.00000000 0.50097519 0.26696418
1.00000000 0.49996364 0.26434455
1.00000000 0.47006605 0.25250433
1.00000000 0.25941856 0.20747823
0.99173200 0.00000000 0.84494850
1.00000000 0.50097519 0.26696418
1.00000000 0.50097519 0.26696418
1.00000000 0.50097519 0.26696418
1.00000000 0.50097519 0.26696418
1.00000000 0.50097519 0.26696418
1.00000000 0.49996364 0.26434455
1.00000000 0.47006605 0.25250433
1.00000000 0.25941856 0.20747823
0.99173200 0.00000000 0.84494850
1.00000000 0.50097519 0.26696418
1.00000000 0.50097519 0.26696418
1.00000000 0.50097519 0.26696418
1.00000000 0.50097519 0.26696418
1.00000000 0.50097519 0.26696418
1.00000000 0.49996364 0.26434455
1.00000000 0.47006605 0.25250433
1.00000000 0.25941856 0.20747823
0.99173200 0.00000000 0.84494850
1.00000000 0.50097519 0.26696418
1.00000000 0.50097519 0.26696418
1.00000000 0.50097519 0.26696418
1.00000000 0.50097519 0.26696418
1.00000000 0.50097519 0.26696418
1.00000000 0.49996364 0.26434455
1.00000000 0.47006605 0.25250433
1.00000000 0.25941856 0.20747823
0.99173200 0.00000000 0.84494850
1.00000000 0.49458702 0.25000515
1.00000000 0.49458702 0.25000515
1.00000000 0.49458702 0.25000515
1.00000000 0.49458702 0.25000515
1.00000000 0.49458702 0.25000515
1.00000000 0.49355968 0.24717916
1.00000000 0.46384830 0.23436154
1.00000000 0.24300101 0.18441203
0.98862724 0.00000000 0.84399065
1.00000000 0.46609776 0.15507161
1.00000000 0.46609776 0.15507161
1.00000000 0.46609776 0.15507161
1.00000000 0.46609776 0.15507161
1.00000000 0.46609776 0.15507161
1.00000000 0.46499423 0.15027795
1.00000000 0.43631266 0.12729453
0.99933250 0.15788338 0.00000000
0.97524184 0.00000000 0.83988957
0.96355162 0.52656923 0.00000000
0.96355162 0.52656923 0.00000000
0.96355162 0.52656923 0.00000000
0.96355162 0.52656923 0.00000000
0.96355162 0.52656923 0.00000000
0.96305874 0.52541934 0.00000000
0.96424858 0.51552114 0.00000000
0.97665626 0.36037630 0.14385709
0.94225648 0.00000000 0.83496305
0.79582894 0.78988802 0.00000000
0.79582894 0.78988802 0.00000000
0.79582894 0.78988802 0.00000000
0.79582894 0.78988802 0.00000000
0.79582894 0.78988802 0.00000000
0.79516165 0.78913351 0.00000000
0.79230596 0.78590227 0.00000000
0.80112666 0.79261473 0.22658130
0.71354670 0.70806425 0.77142697
